(G-CODE GENERATED BY FLATCAM v8.994 - www.flatcam.org - Version Date: 2020/11/7)

(Name: copper_bottom.gbr_iso_combined_cnc)
(Type: G-code from Geometry)
(Units: MM)

(Created on Tuesday, 21 July 2026 at 13:04)

(This preprocessor is the default preprocessor used by FlatCAM.)
(It is made to work with MACH3 compatible motion controllers.)

(TOOL DIAMETER: 0.1 mm)
(Feedrate_XY: 800.0 mm/min)
(Feedrate_Z: 120.0 mm/min)
(Feedrate rapids 1500.0 mm/min)

(Z_Cut: 0.0 mm)
(Z_Move: 0.4 mm)
(Z Start: None mm)
(Z End: 15.0 mm)
(X,Y End: None mm)
(Steps per circle: 64)
(Preprocessor Geometry: default)

(X range:    1.0946 ...   61.0910  mm)
(Y range:    1.0948 ...   83.4280  mm)

(Spindle Speed: 0.0 RPM)
S8000
G21
G90
G94

G01 F800.00

M5
G00 Z15.0000
G00 X0.5155 Y0.5155
T1
M6    
(MSG, Change to Tool Dia = 0.1000)
G00 Z15.0000

M03
G01 F800.00
G00 X6.5333 Y1.6119
G01 F120.00
G01 Z0.0000
G01 F800.00
G01 X6.5688 Y1.6103
G01 X19.8485 Y1.6141
G01 X19.9319 Y1.6197
G01 X19.9520 Y1.6222
G01 X19.9856 Y1.6283
G01 X20.0207 Y1.6341
G01 X20.0287 Y1.6363
G01 X20.0379 Y1.6381
G01 X20.0707 Y1.6475
G01 X20.1049 Y1.6567
G01 X20.1128 Y1.6596
G01 X20.1217 Y1.6623
G01 X20.1844 Y1.6864
G01 X20.2030 Y1.6945
G01 X20.2332 Y1.7100
G01 X20.2651 Y1.7256
G01 X20.2722 Y1.7300
G01 X20.2806 Y1.7344
G01 X20.3092 Y1.7528
G01 X20.3383 Y1.7706
G01 X20.3549 Y1.7824
G01 X20.3809 Y1.8028
G01 X20.4078 Y1.8234
G01 X20.4147 Y1.8295
G01 X20.4215 Y1.8348
G01 X20.4472 Y1.8594
G01 X20.4722 Y1.8826
G01 X20.4785 Y1.8895
G01 X20.4862 Y1.8972
G01 X20.5076 Y1.9222
G01 X20.5310 Y1.9485
G01 X20.5421 Y1.9626
G01 X20.5818 Y2.0180
G01 X20.5922 Y2.0341
G01 X20.6089 Y2.0637
G01 X20.6257 Y2.0920
G01 X20.6356 Y2.1113
G01 X20.6489 Y2.1412
G01 X20.6632 Y2.1720
G01 X20.6708 Y2.1911
G01 X20.6812 Y2.2222
G01 X20.6925 Y2.2544
G01 X20.6949 Y2.2636
G01 X20.6975 Y2.2716
G01 X20.7054 Y2.3060
G01 X20.7133 Y2.3380
G01 X20.7151 Y2.3486
G01 X20.7171 Y2.3579
G01 X20.7214 Y2.3917
G01 X20.7264 Y2.4266
G01 X20.7269 Y2.4350
G01 X20.7280 Y2.4445
G01 X20.7290 Y2.4785
G01 X20.7307 Y2.5139
G01 X20.7307 Y4.4462
G01 X20.7334 Y4.4654
G01 X20.7341 Y4.4789
G01 X20.7355 Y4.4910
G01 X20.7360 Y4.5224
G01 X20.7374 Y4.5538
G01 X20.7368 Y4.5659
G01 X20.7369 Y4.5795
G01 X20.7345 Y4.6096
G01 X20.7328 Y4.6397
G01 X20.7307 Y4.6562
G01 X20.7307 Y6.9862
G01 X20.7334 Y7.0054
G01 X20.7341 Y7.0189
G01 X20.7355 Y7.0310
G01 X20.7360 Y7.0624
G01 X20.7374 Y7.0938
G01 X20.7368 Y7.1059
G01 X20.7369 Y7.1195
G01 X20.7345 Y7.1496
G01 X20.7328 Y7.1797
G01 X20.7307 Y7.1962
G01 X20.7307 Y9.5262
G01 X20.7334 Y9.5454
G01 X20.7341 Y9.5589
G01 X20.7355 Y9.5710
G01 X20.7360 Y9.6024
G01 X20.7374 Y9.6338
G01 X20.7368 Y9.6459
G01 X20.7369 Y9.6595
G01 X20.7345 Y9.6896
G01 X20.7328 Y9.7197
G01 X20.7307 Y9.7362
G01 X20.7307 Y12.0661
G01 X20.7335 Y12.0864
G01 X20.7341 Y12.0989
G01 X20.7355 Y12.1112
G01 X20.7360 Y12.1424
G01 X20.7374 Y12.1736
G01 X20.7368 Y12.1862
G01 X20.7368 Y12.1996
G01 X20.7345 Y12.2296
G01 X20.7328 Y12.2596
G01 X20.7307 Y12.2762
G01 X20.7307 Y14.6061
G01 X20.7335 Y14.6264
G01 X20.7341 Y14.6389
G01 X20.7355 Y14.6512
G01 X20.7360 Y14.6824
G01 X20.7374 Y14.7136
G01 X20.7368 Y14.7262
G01 X20.7368 Y14.7396
G01 X20.7345 Y14.7695
G01 X20.7328 Y14.7996
G01 X20.7307 Y14.8162
G01 X20.7307 Y17.1461
G01 X20.7335 Y17.1664
G01 X20.7341 Y17.1789
G01 X20.7355 Y17.1912
G01 X20.7360 Y17.2224
G01 X20.7374 Y17.2536
G01 X20.7368 Y17.2662
G01 X20.7368 Y17.2796
G01 X20.7345 Y17.3096
G01 X20.7328 Y17.3396
G01 X20.7307 Y17.3562
G01 X20.7307 Y19.6861
G01 X20.7335 Y19.7064
G01 X20.7341 Y19.7189
G01 X20.7355 Y19.7312
G01 X20.7360 Y19.7624
G01 X20.7374 Y19.7936
G01 X20.7368 Y19.8062
G01 X20.7368 Y19.8196
G01 X20.7345 Y19.8496
G01 X20.7328 Y19.8796
G01 X20.7307 Y19.8962
G01 X20.7306 Y20.2850
G01 X20.7261 Y20.3697
G01 X20.7236 Y20.3878
G01 X20.7226 Y20.3994
G01 X20.7174 Y20.4283
G01 X20.7132 Y20.4560
G01 X20.7095 Y20.4713
G01 X20.7068 Y20.4856
G01 X20.6988 Y20.5136
G01 X20.6919 Y20.5407
G01 X20.6868 Y20.5554
G01 X20.6832 Y20.5681
G01 X20.6720 Y20.5966
G01 X20.6622 Y20.6240
G01 X20.6105 Y20.7488
G01 X20.6105 Y21.3703
G01 X20.6641 Y21.5000
G01 X20.6929 Y21.5812
G01 X20.6970 Y21.5978
G01 X20.7010 Y21.6103
G01 X20.7069 Y21.6376
G01 X20.7138 Y21.6659
G01 X20.7160 Y21.6803
G01 X20.7191 Y21.6957
G01 X20.7223 Y21.7233
G01 X20.7263 Y21.7511
G01 X20.7272 Y21.7667
G01 X20.7288 Y21.7823
G01 X20.7293 Y21.8103
G01 X20.7306 Y21.8383
G01 X20.7307 Y22.2407
G01 X20.7311 Y22.2516
G01 X20.7325 Y22.2649
G01 X20.7330 Y22.2950
G01 X20.7344 Y22.3265
G01 X20.7338 Y22.3386
G01 X20.7339 Y22.3522
G01 X20.7315 Y22.3823
G01 X20.7298 Y22.4124
G01 X20.7280 Y22.4257
G01 X20.7268 Y22.4393
G01 X20.7214 Y22.4688
G01 X20.7169 Y22.4986
G01 X20.7138 Y22.5120
G01 X20.7115 Y22.5240
G01 X20.7031 Y22.5542
G01 X20.6956 Y22.5834
G01 X20.6913 Y22.5960
G01 X20.6879 Y22.6079
G01 X20.6765 Y22.6372
G01 X20.6659 Y22.6667
G01 X20.4405 Y23.2108
G01 X20.4405 Y23.8323
G01 X20.6646 Y24.3736
G01 X20.6925 Y24.4524
G01 X20.6970 Y24.4702
G01 X20.7010 Y24.4828
G01 X20.7068 Y24.5099
G01 X20.7140 Y24.5395
G01 X20.7160 Y24.5528
G01 X20.7191 Y24.5681
G01 X20.7223 Y24.5958
G01 X20.7264 Y24.6246
G01 X20.7272 Y24.6391
G01 X20.7288 Y24.6547
G01 X20.7293 Y24.6827
G01 X20.7306 Y24.7107
G01 X20.7307 Y24.7661
G01 X20.7335 Y24.7864
G01 X20.7341 Y24.7989
G01 X20.7355 Y24.8112
G01 X20.7360 Y24.8424
G01 X20.7374 Y24.8736
G01 X20.7368 Y24.8862
G01 X20.7368 Y24.8996
G01 X20.7345 Y24.9296
G01 X20.7328 Y24.9596
G01 X20.7307 Y24.9762
G01 X20.7307 Y27.2145
G01 X20.7892 Y27.3560
G01 X20.8175 Y27.4358
G01 X20.8220 Y27.4535
G01 X20.8257 Y27.4649
G01 X20.8318 Y27.4933
G01 X20.8386 Y27.5204
G01 X20.8410 Y27.5361
G01 X20.8441 Y27.5515
G01 X20.8473 Y27.5791
G01 X20.8513 Y27.6069
G01 X20.8522 Y27.6225
G01 X20.8537 Y27.6358
G01 X20.8543 Y27.6660
G01 X20.8557 Y27.6953
G01 X20.8557 Y29.6680
G01 X20.8511 Y29.7539
G01 X20.8486 Y29.7720
G01 X20.8475 Y29.7849
G01 X20.8424 Y29.8125
G01 X20.8380 Y29.8413
G01 X20.8345 Y29.8555
G01 X20.8315 Y29.8709
G01 X20.8238 Y29.8978
G01 X20.8166 Y29.9262
G01 X20.8118 Y29.9396
G01 X20.8074 Y29.9547
G01 X20.7971 Y29.9808
G01 X20.7876 Y30.0072
G01 X20.7307 Y30.1446
G01 X20.7306 Y30.4450
G01 X20.7260 Y30.5308
G01 X20.7236 Y30.5478
G01 X20.7225 Y30.5607
G01 X20.7174 Y30.5883
G01 X20.7130 Y30.6171
G01 X20.7095 Y30.6313
G01 X20.7065 Y30.6467
G01 X20.6988 Y30.6736
G01 X20.6919 Y30.7007
G01 X20.6868 Y30.7154
G01 X20.6828 Y30.7293
G01 X20.6720 Y30.7566
G01 X20.6622 Y30.7840
G01 X20.6105 Y30.9088
G01 X20.6105 Y31.5303
G01 X20.6638 Y31.6592
G01 X20.6925 Y31.7400
G01 X20.6970 Y31.7578
G01 X20.7007 Y31.7692
G01 X20.7068 Y31.7975
G01 X20.7136 Y31.8246
G01 X20.7160 Y31.8403
G01 X20.7191 Y31.8557
G01 X20.7223 Y31.8834
G01 X20.7265 Y31.9134
G01 X20.7272 Y31.9267
G01 X20.7288 Y31.9423
G01 X20.7293 Y31.9703
G01 X20.7306 Y31.9983
G01 X20.7307 Y32.3861
G01 X20.7335 Y32.4064
G01 X20.7341 Y32.4189
G01 X20.7355 Y32.4312
G01 X20.7360 Y32.4624
G01 X20.7374 Y32.4936
G01 X20.7368 Y32.5062
G01 X20.7368 Y32.5196
G01 X20.7345 Y32.5495
G01 X20.7328 Y32.5796
G01 X20.7307 Y32.5962
G01 X20.7307 Y34.9261
G01 X20.7335 Y34.9464
G01 X20.7341 Y34.9589
G01 X20.7355 Y34.9712
G01 X20.7360 Y35.0024
G01 X20.7374 Y35.0336
G01 X20.7368 Y35.0462
G01 X20.7368 Y35.0596
G01 X20.7345 Y35.0896
G01 X20.7328 Y35.1196
G01 X20.7307 Y35.1362
G01 X20.7306 Y35.5250
G01 X20.7261 Y35.6097
G01 X20.7236 Y35.6278
G01 X20.7226 Y35.6394
G01 X20.7174 Y35.6683
G01 X20.7132 Y35.6960
G01 X20.7095 Y35.7113
G01 X20.7065 Y35.7267
G01 X20.6988 Y35.7536
G01 X20.6919 Y35.7807
G01 X20.6868 Y35.7954
G01 X20.6824 Y35.8105
G01 X20.6720 Y35.8366
G01 X20.6622 Y35.8640
G01 X20.6105 Y35.9888
G01 X20.6105 Y36.6103
G01 X20.6638 Y36.7392
G01 X20.6925 Y36.8200
G01 X20.6970 Y36.8378
G01 X20.7007 Y36.8492
G01 X20.7068 Y36.8775
G01 X20.7136 Y36.9046
G01 X20.7160 Y36.9203
G01 X20.7191 Y36.9357
G01 X20.7223 Y36.9634
G01 X20.7265 Y36.9934
G01 X20.7272 Y37.0067
G01 X20.7288 Y37.0223
G01 X20.7293 Y37.0503
G01 X20.7306 Y37.0783
G01 X20.7307 Y37.4661
G01 X20.7335 Y37.4864
G01 X20.7341 Y37.4989
G01 X20.7355 Y37.5112
G01 X20.7360 Y37.5424
G01 X20.7374 Y37.5725
G01 X20.7368 Y37.5862
G01 X20.7368 Y37.5996
G01 X20.7345 Y37.6295
G01 X20.7328 Y37.6596
G01 X20.7307 Y37.6762
G01 X20.7307 Y40.0061
G01 X20.7335 Y40.0264
G01 X20.7341 Y40.0389
G01 X20.7355 Y40.0512
G01 X20.7360 Y40.0824
G01 X20.7374 Y40.1136
G01 X20.7368 Y40.1262
G01 X20.7368 Y40.1396
G01 X20.7345 Y40.1696
G01 X20.7328 Y40.1996
G01 X20.7307 Y40.2162
G01 X20.7307 Y42.5461
G01 X20.7335 Y42.5664
G01 X20.7341 Y42.5789
G01 X20.7355 Y42.5912
G01 X20.7360 Y42.6224
G01 X20.7374 Y42.6536
G01 X20.7368 Y42.6662
G01 X20.7368 Y42.6796
G01 X20.7345 Y42.7096
G01 X20.7328 Y42.7396
G01 X20.7307 Y42.7562
G01 X20.7307 Y45.0861
G01 X20.7335 Y45.1064
G01 X20.7341 Y45.1189
G01 X20.7355 Y45.1312
G01 X20.7360 Y45.1624
G01 X20.7374 Y45.1936
G01 X20.7368 Y45.2062
G01 X20.7368 Y45.2196
G01 X20.7345 Y45.2496
G01 X20.7328 Y45.2796
G01 X20.7307 Y45.2962
G01 X20.7307 Y47.6261
G01 X20.7335 Y47.6464
G01 X20.7341 Y47.6589
G01 X20.7355 Y47.6712
G01 X20.7360 Y47.7024
G01 X20.7374 Y47.7336
G01 X20.7368 Y47.7462
G01 X20.7368 Y47.7596
G01 X20.7345 Y47.7896
G01 X20.7328 Y47.8196
G01 X20.7307 Y47.8362
G01 X20.7307 Y50.0745
G01 X20.8004 Y50.2428
G01 X20.9293 Y50.3717
G01 X21.0976 Y50.4415
G01 X23.2475 Y50.4415
G01 X23.4158 Y50.3717
G01 X23.5447 Y50.2428
G01 X23.6145 Y50.0745
G01 X23.6145 Y47.8330
G01 X23.6117 Y47.8139
G01 X23.6110 Y47.8001
G01 X23.6097 Y47.7879
G01 X23.6091 Y47.7567
G01 X23.6078 Y47.7255
G01 X23.6084 Y47.7129
G01 X23.6083 Y47.6995
G01 X23.6107 Y47.6695
G01 X23.6123 Y47.6394
G01 X23.6145 Y47.6230
G01 X23.6145 Y45.2930
G01 X23.6117 Y45.2739
G01 X23.6110 Y45.2601
G01 X23.6097 Y45.2479
G01 X23.6091 Y45.2167
G01 X23.6078 Y45.1855
G01 X23.6084 Y45.1729
G01 X23.6083 Y45.1595
G01 X23.6107 Y45.1295
G01 X23.6123 Y45.0994
G01 X23.6145 Y45.0830
G01 X23.6145 Y42.7530
G01 X23.6117 Y42.7339
G01 X23.6110 Y42.7201
G01 X23.6097 Y42.7079
G01 X23.6091 Y42.6767
G01 X23.6078 Y42.6455
G01 X23.6084 Y42.6329
G01 X23.6083 Y42.6195
G01 X23.6107 Y42.5895
G01 X23.6123 Y42.5594
G01 X23.6145 Y42.5430
G01 X23.6145 Y40.2130
G01 X23.6117 Y40.1939
G01 X23.6110 Y40.1801
G01 X23.6097 Y40.1679
G01 X23.6091 Y40.1367
G01 X23.6078 Y40.1055
G01 X23.6084 Y40.0929
G01 X23.6083 Y40.0795
G01 X23.6107 Y40.0495
G01 X23.6123 Y40.0194
G01 X23.6145 Y40.0030
G01 X23.6146 Y38.7439
G01 X23.6204 Y38.6581
G01 X23.6219 Y38.6486
G01 X23.6227 Y38.6405
G01 X23.6342 Y38.5741
G01 X23.6386 Y38.5546
G01 X23.6480 Y38.5217
G01 X23.6572 Y38.4874
G01 X23.6600 Y38.4797
G01 X23.6627 Y38.4708
G01 X23.6753 Y38.4389
G01 X23.6868 Y38.4081
G01 X23.6949 Y38.3895
G01 X23.7105 Y38.3591
G01 X23.7261 Y38.3273
G01 X23.7355 Y38.3108
G01 X23.7533 Y38.2831
G01 X23.7712 Y38.2541
G01 X23.7768 Y38.2465
G01 X23.7813 Y38.2395
G01 X23.8239 Y38.1845
G01 X23.8361 Y38.1701
G01 X23.8597 Y38.1454
G01 X23.8839 Y38.1193
G01 X23.8902 Y38.1137
G01 X23.8967 Y38.1071
G01 X23.9225 Y38.0849
G01 X23.9472 Y38.0630
G01 X23.9629 Y38.0504
G01 X23.9909 Y38.0307
G01 X24.0186 Y38.0106
G01 X24.0356 Y37.9996
G01 X24.0641 Y37.9835
G01 X24.0936 Y37.9660
G01 X24.1105 Y37.9574
G01 X24.1728 Y37.9290
G01 X24.1814 Y37.9258
G01 X24.1890 Y37.9225
G01 X24.2226 Y37.9113
G01 X24.2563 Y37.8994
G01 X24.2643 Y37.8974
G01 X24.2731 Y37.8946
G01 X24.3064 Y37.8870
G01 X24.3384 Y37.8790
G01 X24.3582 Y37.8753
G01 X24.4260 Y37.8660
G01 X24.4354 Y37.8654
G01 X24.4436 Y37.8644
G01 X24.4790 Y37.8633
G01 X24.5132 Y37.8617
G01 X29.4237 Y37.8617
G01 X29.5108 Y37.8667
G01 X29.5253 Y37.8688
G01 X29.5366 Y37.8699
G01 X29.5662 Y37.8753
G01 X29.5960 Y37.8800
G01 X29.6091 Y37.8832
G01 X29.6225 Y37.8858
G01 X29.6514 Y37.8940
G01 X29.6806 Y37.9016
G01 X29.6934 Y37.9061
G01 X29.7064 Y37.9099
G01 X29.7344 Y37.9210
G01 X29.7627 Y37.9313
G01 X29.7749 Y37.9370
G01 X29.7865 Y37.9416
G01 X29.8144 Y37.9559
G01 X29.8414 Y37.9688
G01 X29.8532 Y37.9757
G01 X29.8652 Y37.9820
G01 X29.8905 Y37.9982
G01 X29.9163 Y38.0138
G01 X29.9272 Y38.0218
G01 X29.9387 Y38.0293
G01 X29.9622 Y38.0479
G01 X29.9863 Y38.0658
G01 X29.9964 Y38.0748
G01 X30.0061 Y38.0825
G01 X30.0288 Y38.1041
G01 X30.0511 Y38.1244
G01 X33.1868 Y41.2601
G01 X33.2450 Y41.3255
G01 X33.2534 Y41.3369
G01 X33.2611 Y41.3460
G01 X33.2781 Y41.3708
G01 X33.2964 Y41.3959
G01 X33.3028 Y41.4066
G01 X33.3104 Y41.4179
G01 X33.3249 Y41.4441
G01 X33.3403 Y41.4699
G01 X33.3462 Y41.4823
G01 X33.3527 Y41.4943
G01 X33.3646 Y41.5218
G01 X33.3773 Y41.5490
G01 X33.3819 Y41.5618
G01 X33.3868 Y41.5732
G01 X33.3964 Y41.6030
G01 X33.4072 Y41.6337
G01 X33.4099 Y41.6445
G01 X33.4139 Y41.6575
G01 X33.4204 Y41.6868
G01 X33.4276 Y41.7160
G01 X33.4297 Y41.7295
G01 X33.4325 Y41.7429
G01 X33.4359 Y41.7727
G01 X33.4403 Y41.8024
G01 X33.4411 Y41.8159
G01 X33.4426 Y41.8295
G01 X33.4432 Y41.8596
G01 X33.4447 Y41.8908
G01 X33.4446 Y44.0878
G01 X33.4397 Y44.1725
G01 X33.4375 Y44.1881
G01 X33.4367 Y44.1981
G01 X33.4311 Y44.2290
G01 X33.4264 Y44.2589
G01 X33.4231 Y44.2720
G01 X33.4209 Y44.2841
G01 X33.4123 Y44.3142
G01 X33.4048 Y44.3434
G01 X33.4003 Y44.3562
G01 X33.3968 Y44.3681
G01 X33.3853 Y44.3972
G01 X33.3750 Y44.4255
G01 X33.3693 Y44.4377
G01 X33.3642 Y44.4504
G01 X33.3505 Y44.4772
G01 X33.3375 Y44.5042
G01 X33.3306 Y44.5160
G01 X33.3249 Y44.5269
G01 X33.3081 Y44.5533
G01 X33.2925 Y44.5791
G01 X33.2846 Y44.5900
G01 X33.2778 Y44.6004
G01 X33.2584 Y44.6250
G01 X33.2406 Y44.6491
G01 X33.2315 Y44.6592
G01 X33.2239 Y44.6689
G01 X33.2022 Y44.6916
G01 X33.1811 Y44.7147
G01 X29.9717 Y47.9241
G01 X29.7339 Y48.4982
G01 X29.7339 Y63.9601
G01 X29.9717 Y64.5342
G01 X38.8913 Y73.4539
G01 X39.4654 Y73.6917
G01 X42.9921 Y73.6917
G01 X43.0780 Y73.6962
G01 X43.0961 Y73.6987
G01 X43.1090 Y73.6999
G01 X43.1366 Y73.7049
G01 X43.1643 Y73.7091
G01 X43.1796 Y73.7128
G01 X43.1927 Y73.7152
G01 X43.2219 Y73.7235
G01 X43.2490 Y73.7304
G01 X43.2552 Y73.7325
G01 X44.0614 Y73.7325
G01 X44.1461 Y73.7370
G01 X44.1642 Y73.7395
G01 X44.1771 Y73.7407
G01 X44.2047 Y73.7457
G01 X44.2347 Y73.7504
G01 X44.2476 Y73.7536
G01 X44.2631 Y73.7566
G01 X44.2900 Y73.7643
G01 X44.3111 Y73.7697
G01 X44.9590 Y73.7697
G01 X44.9734 Y73.7661
G01 X44.9859 Y73.7621
G01 X45.0132 Y73.7562
G01 X45.0403 Y73.7496
G01 X45.0559 Y73.7471
G01 X45.0713 Y73.7440
G01 X45.0990 Y73.7409
G01 X45.1290 Y73.7366
G01 X45.1423 Y73.7359
G01 X45.1579 Y73.7343
G01 X45.1859 Y73.7338
G01 X45.2139 Y73.7325
G01 X46.0057 Y73.7325
G01 X46.5661 Y73.5003
G01 X46.9951 Y73.0713
G01 X47.2273 Y72.5109
G01 X47.2273 Y71.9042
G01 X46.9695 Y71.2819
G01 X46.9655 Y71.2720
G01 X46.9381 Y71.1931
G01 X46.9342 Y71.1779
G01 X46.9308 Y71.1671
G01 X46.9244 Y71.1375
G01 X46.9173 Y71.1083
G01 X46.9153 Y71.0948
G01 X46.9125 Y71.0814
G01 X46.9092 Y71.0516
G01 X46.9049 Y71.0219
G01 X46.9042 Y71.0081
G01 X46.9029 Y70.9959
G01 X46.9023 Y70.9647
G01 X46.9010 Y70.9347
G01 X46.9015 Y70.9211
G01 X46.9014 Y70.9074
G01 X46.9039 Y70.8775
G01 X46.9055 Y70.8475
G01 X46.9074 Y70.8340
G01 X46.9084 Y70.8227
G01 X46.9139 Y70.7909
G01 X46.9184 Y70.7612
G01 X46.9217 Y70.7478
G01 X46.9242 Y70.7345
G01 X46.9323 Y70.7057
G01 X46.9397 Y70.6765
G01 X46.9441 Y70.6636
G01 X46.9476 Y70.6517
G01 X46.9589 Y70.6226
G01 X46.9695 Y70.5931
G01 X47.2273 Y69.9709
G01 X47.2273 Y69.3642
G01 X46.9695 Y68.7419
G01 X46.9655 Y68.7320
G01 X46.9381 Y68.6531
G01 X46.9342 Y68.6379
G01 X46.9308 Y68.6271
G01 X46.9244 Y68.5975
G01 X46.9173 Y68.5683
G01 X46.9153 Y68.5548
G01 X46.9125 Y68.5414
G01 X46.9092 Y68.5116
G01 X46.9049 Y68.4819
G01 X46.9042 Y68.4681
G01 X46.9029 Y68.4559
G01 X46.9023 Y68.4247
G01 X46.9010 Y68.3947
G01 X46.9015 Y68.3811
G01 X46.9014 Y68.3687
G01 X46.9039 Y68.3375
G01 X46.9057 Y68.3052
G01 X46.9074 Y68.2940
G01 X46.9087 Y68.2804
G01 X46.9139 Y68.2509
G01 X46.9184 Y68.2212
G01 X46.9217 Y68.2078
G01 X46.9242 Y68.1945
G01 X46.9323 Y68.1657
G01 X46.9397 Y68.1365
G01 X46.9441 Y68.1236
G01 X46.9476 Y68.1117
G01 X46.9589 Y68.0826
G01 X46.9695 Y68.0531
G01 X47.2273 Y67.4309
G01 X47.2273 Y66.8242
G01 X46.9695 Y66.2019
G01 X46.9655 Y66.1920
G01 X46.9377 Y66.1120
G01 X46.9342 Y66.0979
G01 X46.9308 Y66.0871
G01 X46.9244 Y66.0575
G01 X46.9170 Y66.0270
G01 X46.9153 Y66.0148
G01 X46.9125 Y66.0014
G01 X46.9092 Y65.9716
G01 X46.9048 Y65.9407
G01 X46.9042 Y65.9281
G01 X46.9028 Y65.9147
G01 X46.9023 Y65.8847
G01 X46.9010 Y65.8535
G01 X46.9015 Y65.8411
G01 X46.9014 Y65.8274
G01 X46.9039 Y65.7975
G01 X46.9056 Y65.7664
G01 X46.9074 Y65.7540
G01 X46.9087 Y65.7404
G01 X46.9139 Y65.7109
G01 X46.9189 Y65.6787
G01 X46.9217 Y65.6678
G01 X46.9242 Y65.6545
G01 X46.9323 Y65.6257
G01 X46.9397 Y65.5965
G01 X46.9441 Y65.5836
G01 X46.9480 Y65.5706
G01 X46.9589 Y65.5426
G01 X46.9695 Y65.5131
G01 X47.2273 Y64.8909
G01 X47.2273 Y64.6225
G01 X47.2278 Y64.6122
G01 X47.2276 Y64.5977
G01 X47.2340 Y64.5130
G01 X47.2355 Y64.5012
G01 X47.2488 Y64.4270
G01 X47.2511 Y64.4166
G01 X47.2724 Y64.3408
G01 X47.2760 Y64.3305
G01 X47.3039 Y64.2588
G01 X47.3083 Y64.2493
G01 X47.3252 Y64.2164
G01 X47.3423 Y64.1821
G01 X47.3483 Y64.1719
G01 X47.3893 Y64.1073
G01 X47.3955 Y64.0986
G01 X47.4429 Y64.0379
G01 X47.4498 Y64.0301
G01 X47.5026 Y63.9745
G01 X47.5104 Y63.9672
G01 X47.5664 Y63.9187
G01 X47.5767 Y63.9105
G01 X47.6372 Y63.8676
G01 X47.6460 Y63.8619
G01 X47.7128 Y63.8238
G01 X47.7244 Y63.8178
G01 X47.7921 Y63.7873
G01 X47.8042 Y63.7825
G01 X47.8767 Y63.7581
G01 X47.8871 Y63.7552
G01 X47.9595 Y63.7384
G01 X47.9721 Y63.7361
G01 X48.0458 Y63.7263
G01 X48.0564 Y63.7253
G01 X48.1341 Y63.7226
G01 X48.1461 Y63.7228
G01 X48.2202 Y63.7274
G01 X48.2309 Y63.7285
G01 X48.3064 Y63.7407
G01 X48.3192 Y63.7434
G01 X48.3933 Y63.7628
G01 X48.4034 Y63.7661
G01 X48.4731 Y63.7918
G01 X48.4827 Y63.7957
G01 X48.5529 Y63.8296
G01 X48.5635 Y63.8355
G01 X48.6268 Y63.8740
G01 X48.6377 Y63.8815
G01 X48.6986 Y63.9273
G01 X48.7070 Y63.9343
G01 X48.7617 Y63.9844
G01 X55.3411 Y70.5638
G01 X55.5098 Y70.6337
G01 X55.5861 Y70.6707
G01 X55.5992 Y70.6785
G01 X55.6079 Y70.6829
G01 X55.6149 Y70.6873
G01 X55.6268 Y70.6908
G01 X55.6530 Y70.6974
G01 X55.6689 Y70.7031
G01 X55.6837 Y70.7076
G01 X55.7098 Y70.7178
G01 X55.7340 Y70.7265
G01 X55.9152 Y70.8016
G01 X56.5367 Y70.8016
G01 X56.7054 Y70.7317
G01 X56.7855 Y70.7040
G01 X56.8002 Y70.7002
G01 X56.8102 Y70.6970
G01 X56.8177 Y70.6953
G01 X56.8285 Y70.6894
G01 X56.8517 Y70.6756
G01 X56.8669 Y70.6684
G01 X56.8806 Y70.6609
G01 X56.9063 Y70.6498
G01 X56.9295 Y70.6389
G01 X57.1108 Y70.5638
G01 X57.5503 Y70.1243
G01 X57.6201 Y69.9558
G01 X57.6571 Y69.8794
G01 X57.6649 Y69.8663
G01 X57.6696 Y69.8572
G01 X57.6738 Y69.8505
G01 X57.6773 Y69.8386
G01 X57.6839 Y69.8126
G01 X57.6896 Y69.7967
G01 X57.6939 Y69.7818
G01 X57.7043 Y69.7557
G01 X57.7129 Y69.7316
G01 X57.7881 Y69.5502
G01 X57.7881 Y68.9288
G01 X57.7183 Y68.7601
G01 X57.6905 Y68.6799
G01 X57.6867 Y68.6653
G01 X57.6835 Y68.6554
G01 X57.6818 Y68.6478
G01 X57.6758 Y68.6369
G01 X57.6621 Y68.6138
G01 X57.6549 Y68.5986
G01 X57.6474 Y68.5849
G01 X57.6362 Y68.5592
G01 X57.6253 Y68.5359
G01 X57.5503 Y68.3547
G01 X49.9188 Y60.7233
G01 X49.3447 Y60.4855
G01 X48.1107 Y60.4854
G01 X48.0237 Y60.4795
G01 X48.0142 Y60.4780
G01 X48.0061 Y60.4773
G01 X47.9374 Y60.4652
G01 X47.9295 Y60.4632
G01 X47.9202 Y60.4614
G01 X47.8873 Y60.4520
G01 X47.8555 Y60.4435
G01 X47.8453 Y60.4399
G01 X47.8364 Y60.4372
G01 X47.8045 Y60.4246
G01 X47.7726 Y60.4127
G01 X47.7562 Y60.4055
G01 X47.7247 Y60.3894
G01 X47.6929 Y60.3738
G01 X47.6858 Y60.3695
G01 X47.6774 Y60.3650
G01 X47.6487 Y60.3466
G01 X47.6207 Y60.3294
G01 X47.6041 Y60.3179
G01 X47.5771 Y60.2967
G01 X47.5501 Y60.2760
G01 X47.5366 Y60.2646
G01 X47.5110 Y60.2402
G01 X47.4849 Y60.2160
G01 X47.4793 Y60.2097
G01 X47.4727 Y60.2032
G01 X47.4505 Y60.1774
G01 X47.4286 Y60.1527
G01 X47.4160 Y60.1370
G01 X47.3963 Y60.1090
G01 X47.3762 Y60.0813
G01 X47.3665 Y60.0665
G01 X47.3491 Y60.0358
G01 X47.3322 Y60.0073
G01 X47.3225 Y59.9884
G01 X47.2946 Y59.9272
G01 X47.2914 Y59.9186
G01 X47.2881 Y59.9109
G01 X47.2769 Y59.8773
G01 X47.2654 Y59.8449
G01 X47.2630 Y59.8357
G01 X47.2602 Y59.8268
G01 X47.2526 Y59.7936
G01 X47.2444 Y59.7603
G01 X47.2411 Y59.7428
G01 X47.2316 Y59.6739
G01 X47.2299 Y59.6551
G01 X47.2289 Y59.6209
G01 X47.2273 Y59.5856
G01 X47.2273 Y59.2042
G01 X46.9951 Y58.6438
G01 X46.7848 Y58.4334
G01 X46.7278 Y58.3689
G01 X46.7201 Y58.3584
G01 X46.7135 Y58.3507
G01 X46.6954 Y58.3243
G01 X46.6758 Y58.2972
G01 X46.6705 Y58.2882
G01 X46.6643 Y58.2788
G01 X46.6486 Y58.2507
G01 X46.6318 Y58.2219
G01 X46.6274 Y58.2125
G01 X46.6220 Y58.2023
G01 X46.6092 Y58.1729
G01 X46.5958 Y58.1437
G01 X46.5919 Y58.1329
G01 X46.5878 Y58.1234
G01 X46.5775 Y58.0916
G01 X46.5670 Y58.0614
G01 X46.5641 Y58.0501
G01 X46.5610 Y58.0403
G01 X46.5538 Y58.0077
G01 X46.5463 Y57.9766
G01 X46.5445 Y57.9652
G01 X46.5424 Y57.9551
G01 X46.5384 Y57.9219
G01 X46.5339 Y57.8901
G01 X46.5333 Y57.8787
G01 X46.5321 Y57.8680
G01 X46.3618 Y57.8680
G01 X46.3221 Y57.8973
G01 X46.2301 Y57.9524
G01 X46.1288 Y58.0003
G01 X46.0267 Y58.0368
G01 X45.9227 Y58.0629
G01 X45.8107 Y58.0796
G01 X45.7024 Y58.0849
G01 X43.5688 Y58.0849
G01 X43.4592 Y58.0795
G01 X43.3520 Y58.0637
G01 X43.2421 Y58.0360
G01 X43.1412 Y57.9998
G01 X43.0421 Y57.9530
G01 X42.9460 Y57.8952
G01 X42.8599 Y57.8313
G01 X42.7787 Y57.7576
G01 X42.7051 Y57.6764
G01 X42.6411 Y57.5903
G01 X42.5834 Y57.4943
G01 X42.5356 Y57.3929
G01 X42.4995 Y57.2919
G01 X42.4732 Y57.1867
G01 X42.4568 Y57.0771
G01 X42.4514 Y56.9676
G01 X42.4568 Y56.8580
G01 X42.4729 Y56.7496
G01 X42.4995 Y56.6432
G01 X42.5365 Y56.5400
G01 X42.5834 Y56.4409
G01 X42.6391 Y56.3478
G01 X42.7051 Y56.2587
G01 X42.7787 Y56.1775
G01 X42.8599 Y56.1039
G01 X42.9470 Y56.0392
G01 X43.0421 Y55.9822
G01 X43.1401 Y55.9358
G01 X43.2432 Y55.8987
G01 X43.2812 Y55.8891
G01 X43.2514 Y55.8779
G01 X43.2350 Y55.8707
G01 X43.2035 Y55.8546
G01 X43.1728 Y55.8396
G01 X43.1552 Y55.8296
G01 X43.1275 Y55.8118
G01 X43.0985 Y55.7939
G01 X43.0909 Y55.7883
G01 X43.0839 Y55.7839
G01 X43.0289 Y55.7412
G01 X43.0136 Y55.7282
G01 X42.9898 Y55.7054
G01 X42.9637 Y55.6812
G01 X42.9581 Y55.6749
G01 X42.9515 Y55.6684
G01 X42.9293 Y55.6426
G01 X42.9065 Y55.6170
G01 X42.8941 Y55.6012
G01 X42.8751 Y55.5742
G01 X42.8550 Y55.5465
G01 X42.8453 Y55.5317
G01 X42.8279 Y55.5010
G01 X42.8104 Y55.4715
G01 X42.8018 Y55.4546
G01 X42.7734 Y55.3924
G01 X42.7702 Y55.3838
G01 X42.7669 Y55.3761
G01 X42.7557 Y55.3425
G01 X42.7446 Y55.3114
G01 X42.7418 Y55.3009
G01 X42.7390 Y55.2920
G01 X42.7314 Y55.2588
G01 X42.7229 Y55.2243
G01 X42.7216 Y55.2160
G01 X42.7197 Y55.2069
G01 X42.7103 Y55.1379
G01 X42.7098 Y55.1298
G01 X42.7087 Y55.1203
G01 X42.7077 Y55.0861
G01 X42.7061 Y55.0520
G01 X42.7061 Y53.8973
G01 X42.7110 Y53.8138
G01 X42.7132 Y53.7983
G01 X42.7141 Y53.7883
G01 X42.7197 Y53.7573
G01 X42.7244 Y53.7275
G01 X42.7276 Y53.7144
G01 X42.7302 Y53.7010
G01 X42.7384 Y53.6721
G01 X42.7460 Y53.6429
G01 X42.7505 Y53.6301
G01 X42.7543 Y53.6171
G01 X42.7654 Y53.5891
G01 X42.7757 Y53.5609
G01 X42.7814 Y53.5486
G01 X42.7855 Y53.5382
G01 X42.8003 Y53.5092
G01 X42.8132 Y53.4821
G01 X42.8201 Y53.4704
G01 X42.8264 Y53.4583
G01 X42.8426 Y53.4330
G01 X42.8582 Y53.4073
G01 X42.8662 Y53.3964
G01 X42.8737 Y53.3848
G01 X42.8923 Y53.3613
G01 X42.9102 Y53.3373
G01 X42.9192 Y53.3271
G01 X42.9269 Y53.3174
G01 X42.9485 Y53.2948
G01 X42.9696 Y53.2716
G01 X45.5438 Y50.6975
G01 X45.6073 Y50.6411
G01 X45.6187 Y50.6327
G01 X45.6278 Y50.6250
G01 X45.6526 Y50.6080
G01 X45.6777 Y50.5897
G01 X45.6884 Y50.5833
G01 X45.6997 Y50.5757
G01 X45.7259 Y50.5612
G01 X45.7529 Y50.5452
G01 X45.7641 Y50.5399
G01 X45.7761 Y50.5335
G01 X45.8036 Y50.5216
G01 X45.8308 Y50.5089
G01 X45.8436 Y50.5042
G01 X45.8562 Y50.4989
G01 X45.8848 Y50.4897
G01 X45.9131 Y50.4796
G01 X45.9263 Y50.4762
G01 X45.9393 Y50.4722
G01 X45.9686 Y50.4658
G01 X45.9978 Y50.4585
G01 X46.0113 Y50.4564
G01 X46.0234 Y50.4538
G01 X46.0545 Y50.4502
G01 X46.0842 Y50.4458
G01 X46.0993 Y50.4448
G01 X46.2758 Y50.3717
G01 X46.4047 Y50.2428
G01 X46.4745 Y50.0745
G01 X46.4745 Y49.7741
G01 X46.4791 Y49.6883
G01 X46.4815 Y49.6713
G01 X46.4827 Y49.6584
G01 X46.4877 Y49.6308
G01 X46.4921 Y49.6020
G01 X46.4956 Y49.5878
G01 X46.4986 Y49.5724
G01 X46.5063 Y49.5455
G01 X46.5132 Y49.5184
G01 X46.5183 Y49.5038
G01 X46.5223 Y49.4898
G01 X46.5331 Y49.4625
G01 X46.5430 Y49.4351
G01 X46.5947 Y49.3103
G01 X46.5947 Y48.6888
G01 X46.5413 Y48.5600
G01 X46.5126 Y48.4791
G01 X46.5081 Y48.4614
G01 X46.5044 Y48.4499
G01 X46.4983 Y48.4216
G01 X46.4916 Y48.3945
G01 X46.4891 Y48.3788
G01 X46.4860 Y48.3634
G01 X46.4829 Y48.3357
G01 X46.4786 Y48.3057
G01 X46.4779 Y48.2924
G01 X46.4763 Y48.2768
G01 X46.4758 Y48.2488
G01 X46.4745 Y48.2208
G01 X46.4745 Y47.8329
G01 X46.4717 Y47.8138
G01 X46.4710 Y47.8003
G01 X46.4697 Y47.7881
G01 X46.4691 Y47.7566
G01 X46.4678 Y47.7253
G01 X46.4683 Y47.7131
G01 X46.4682 Y47.6995
G01 X46.4707 Y47.6695
G01 X46.4723 Y47.6393
G01 X46.4745 Y47.6229
G01 X46.4745 Y45.2929
G01 X46.4717 Y45.2738
G01 X46.4710 Y45.2603
G01 X46.4697 Y45.2481
G01 X46.4691 Y45.2166
G01 X46.4678 Y45.1853
G01 X46.4683 Y45.1731
G01 X46.4682 Y45.1595
G01 X46.4707 Y45.1295
G01 X46.4723 Y45.0993
G01 X46.4745 Y45.0829
G01 X46.4745 Y42.7529
G01 X46.4717 Y42.7338
G01 X46.4710 Y42.7203
G01 X46.4697 Y42.7081
G01 X46.4691 Y42.6766
G01 X46.4678 Y42.6453
G01 X46.4683 Y42.6331
G01 X46.4682 Y42.6195
G01 X46.4707 Y42.5895
G01 X46.4723 Y42.5593
G01 X46.4745 Y42.5429
G01 X46.4745 Y40.2129
G01 X46.4717 Y40.1938
G01 X46.4710 Y40.1803
G01 X46.4697 Y40.1681
G01 X46.4691 Y40.1366
G01 X46.4678 Y40.1053
G01 X46.4683 Y40.0931
G01 X46.4682 Y40.0795
G01 X46.4707 Y40.0495
G01 X46.4723 Y40.0193
G01 X46.4745 Y40.0029
G01 X46.4745 Y37.6729
G01 X46.4717 Y37.6538
G01 X46.4710 Y37.6403
G01 X46.4697 Y37.6281
G01 X46.4691 Y37.5966
G01 X46.4678 Y37.5653
G01 X46.4683 Y37.5531
G01 X46.4682 Y37.5395
G01 X46.4707 Y37.5095
G01 X46.4723 Y37.4793
G01 X46.4745 Y37.4629
G01 X46.4745 Y35.1329
G01 X46.4717 Y35.1138
G01 X46.4710 Y35.1003
G01 X46.4697 Y35.0881
G01 X46.4691 Y35.0566
G01 X46.4678 Y35.0253
G01 X46.4683 Y35.0131
G01 X46.4682 Y34.9995
G01 X46.4707 Y34.9695
G01 X46.4723 Y34.9393
G01 X46.4745 Y34.9229
G01 X46.4745 Y32.5929
G01 X46.4717 Y32.5738
G01 X46.4710 Y32.5603
G01 X46.4697 Y32.5481
G01 X46.4691 Y32.5166
G01 X46.4678 Y32.4853
G01 X46.4683 Y32.4731
G01 X46.4682 Y32.4595
G01 X46.4707 Y32.4295
G01 X46.4723 Y32.3993
G01 X46.4745 Y32.3829
G01 X46.4745 Y30.0530
G01 X46.4716 Y30.0327
G01 X46.4710 Y30.0202
G01 X46.4697 Y30.0080
G01 X46.4691 Y29.9767
G01 X46.4678 Y29.9455
G01 X46.4684 Y29.9329
G01 X46.4683 Y29.9196
G01 X46.4707 Y29.8896
G01 X46.4723 Y29.8595
G01 X46.4745 Y29.8430
G01 X46.4745 Y27.5130
G01 X46.4717 Y27.4939
G01 X46.4710 Y27.4801
G01 X46.4697 Y27.4679
G01 X46.4691 Y27.4367
G01 X46.4678 Y27.4055
G01 X46.4684 Y27.3929
G01 X46.4683 Y27.3795
G01 X46.4707 Y27.3495
G01 X46.4723 Y27.3194
G01 X46.4745 Y27.3030
G01 X46.4745 Y24.9730
G01 X46.4717 Y24.9539
G01 X46.4710 Y24.9401
G01 X46.4697 Y24.9279
G01 X46.4691 Y24.8967
G01 X46.4678 Y24.8655
G01 X46.4684 Y24.8529
G01 X46.4683 Y24.8395
G01 X46.4707 Y24.8095
G01 X46.4723 Y24.7794
G01 X46.4745 Y24.7630
G01 X46.4745 Y22.4330
G01 X46.4717 Y22.4139
G01 X46.4710 Y22.4001
G01 X46.4697 Y22.3879
G01 X46.4691 Y22.3567
G01 X46.4678 Y22.3255
G01 X46.4684 Y22.3129
G01 X46.4683 Y22.2995
G01 X46.4707 Y22.2695
G01 X46.4723 Y22.2394
G01 X46.4745 Y22.2230
G01 X46.4745 Y19.8930
G01 X46.4717 Y19.8739
G01 X46.4710 Y19.8601
G01 X46.4697 Y19.8479
G01 X46.4691 Y19.8167
G01 X46.4678 Y19.7855
G01 X46.4684 Y19.7729
G01 X46.4683 Y19.7595
G01 X46.4707 Y19.7295
G01 X46.4723 Y19.6994
G01 X46.4745 Y19.6830
G01 X46.4745 Y17.4446
G01 X46.4047 Y17.2763
G01 X46.2243 Y17.0958
G01 X46.1670 Y17.0316
G01 X46.1575 Y17.0189
G01 X46.1503 Y17.0103
G01 X46.1331 Y16.9854
G01 X46.1147 Y16.9601
G01 X46.1083 Y16.9494
G01 X46.1007 Y16.9381
G01 X46.0862 Y16.9119
G01 X46.0708 Y16.8860
G01 X46.0679 Y16.8800
G01 X46.0664 Y16.8800
G01 X46.0663 Y16.9658
G01 X46.0654 Y16.9731
G01 X46.0634 Y16.9802
G01 X46.0610 Y16.9858
G01 X46.0572 Y16.9922
G01 X46.0526 Y16.9978
G01 X46.0471 Y17.0028
G01 X46.0410 Y17.0069
G01 X46.0344 Y17.0100
G01 X46.0273 Y17.0121
G01 X46.0200 Y17.0132
G01 X44.0488 Y17.0134
G01 X44.0414 Y17.0128
G01 X44.0331 Y17.0108
G01 X44.0263 Y17.0080
G01 X44.0200 Y17.0042
G01 X44.0143 Y16.9996
G01 X44.0093 Y16.9941
G01 X44.0053 Y16.9880
G01 X44.0021 Y16.9814
G01 X44.0000 Y16.9743
G01 X43.9988 Y16.9658
G01 X43.9988 Y16.8795
G01 X43.9971 Y16.8795
G01 X43.9909 Y16.8923
G01 X43.9846 Y16.9028
G01 X43.9790 Y16.9138
G01 X43.9621 Y16.9402
G01 X43.9459 Y16.9670
G01 X43.9385 Y16.9769
G01 X43.9311 Y16.9883
G01 X43.9125 Y17.0119
G01 X43.8946 Y17.0360
G01 X43.8855 Y17.0461
G01 X43.8779 Y17.0558
G01 X43.8562 Y17.0785
G01 X43.8351 Y17.1016
G01 X43.6604 Y17.2763
G01 X43.5907 Y17.4446
G01 X43.5907 Y19.6861
G01 X43.5935 Y19.7064
G01 X43.5941 Y19.7189
G01 X43.5955 Y19.7312
G01 X43.5960 Y19.7624
G01 X43.5974 Y19.7936
G01 X43.5968 Y19.8062
G01 X43.5968 Y19.8196
G01 X43.5945 Y19.8496
G01 X43.5928 Y19.8796
G01 X43.5907 Y19.8962
G01 X43.5907 Y22.2261
G01 X43.5935 Y22.2464
G01 X43.5941 Y22.2589
G01 X43.5955 Y22.2712
G01 X43.5960 Y22.3024
G01 X43.5974 Y22.3336
G01 X43.5968 Y22.3462
G01 X43.5968 Y22.3596
G01 X43.5945 Y22.3895
G01 X43.5928 Y22.4196
G01 X43.5907 Y22.4362
G01 X43.5907 Y24.7661
G01 X43.5935 Y24.7864
G01 X43.5941 Y24.7989
G01 X43.5955 Y24.8112
G01 X43.5960 Y24.8424
G01 X43.5974 Y24.8736
G01 X43.5968 Y24.8862
G01 X43.5968 Y24.8996
G01 X43.5945 Y24.9296
G01 X43.5928 Y24.9596
G01 X43.5907 Y24.9762
G01 X43.5907 Y27.3061
G01 X43.5935 Y27.3264
G01 X43.5941 Y27.3389
G01 X43.5955 Y27.3512
G01 X43.5960 Y27.3824
G01 X43.5974 Y27.4136
G01 X43.5968 Y27.4262
G01 X43.5968 Y27.4396
G01 X43.5945 Y27.4696
G01 X43.5928 Y27.4996
G01 X43.5907 Y27.5162
G01 X43.5907 Y29.8462
G01 X43.5934 Y29.8652
G01 X43.5941 Y29.8790
G01 X43.5955 Y29.8913
G01 X43.5960 Y29.9224
G01 X43.5974 Y29.9536
G01 X43.5968 Y29.9662
G01 X43.5968 Y29.9797
G01 X43.5945 Y30.0097
G01 X43.5928 Y30.0397
G01 X43.5907 Y30.0562
G01 X43.5907 Y32.3862
G01 X43.5934 Y32.4054
G01 X43.5941 Y32.4189
G01 X43.5955 Y32.4310
G01 X43.5960 Y32.4624
G01 X43.5974 Y32.4938
G01 X43.5968 Y32.5059
G01 X43.5969 Y32.5195
G01 X43.5945 Y32.5496
G01 X43.5928 Y32.5797
G01 X43.5907 Y32.5962
G01 X43.5907 Y34.6278
G01 X43.5901 Y34.6381
G01 X43.5903 Y34.6538
G01 X43.5839 Y34.7372
G01 X43.5826 Y34.7479
G01 X43.5691 Y34.8233
G01 X43.5662 Y34.8359
G01 X43.5455 Y34.9095
G01 X43.5423 Y34.9188
G01 X43.5151 Y34.9888
G01 X43.5102 Y34.9997
G01 X43.4762 Y35.0670
G01 X43.4703 Y35.0775
G01 X43.4286 Y35.1431
G01 X43.4223 Y35.1518
G01 X43.3750 Y35.2124
G01 X43.3681 Y35.2202
G01 X43.3153 Y35.2757
G01 X43.3075 Y35.2830
G01 X43.2515 Y35.3316
G01 X43.2432 Y35.3382
G01 X43.1807 Y35.3826
G01 X43.1719 Y35.3883
G01 X43.1042 Y35.4271
G01 X43.0936 Y35.4325
G01 X43.0258 Y35.4629
G01 X43.0137 Y35.4677
G01 X42.9412 Y35.4921
G01 X42.9308 Y35.4950
G01 X42.8586 Y35.5119
G01 X42.8458 Y35.5142
G01 X42.7700 Y35.5242
G01 X42.7590 Y35.5250
G01 X42.6827 Y35.5277
G01 X42.6718 Y35.5275
G01 X42.5977 Y35.5228
G01 X42.5870 Y35.5217
G01 X42.5115 Y35.5096
G01 X42.5014 Y35.5075
G01 X42.4269 Y35.4881
G01 X42.4168 Y35.4850
G01 X42.3448 Y35.4584
G01 X42.3328 Y35.4534
G01 X42.2660 Y35.4211
G01 X42.2566 Y35.4161
G01 X42.1911 Y35.3762
G01 X42.1803 Y35.3688
G01 X42.1192 Y35.3228
G01 X42.1109 Y35.3159
G01 X42.0544 Y35.2641
G01 X26.5256 Y19.7353
G01 X25.9515 Y19.4975
G01 X24.4979 Y19.4974
G01 X24.4109 Y19.4915
G01 X24.4014 Y19.4900
G01 X24.3933 Y19.4893
G01 X24.3269 Y19.4777
G01 X24.3074 Y19.4734
G01 X24.2745 Y19.4640
G01 X24.2414 Y19.4551
G01 X24.2325 Y19.4519
G01 X24.2248 Y19.4496
G01 X24.1917 Y19.4366
G01 X24.1598 Y19.4247
G01 X24.1434 Y19.4175
G01 X24.1119 Y19.4014
G01 X24.0812 Y19.3864
G01 X24.0730 Y19.3815
G01 X24.0657 Y19.3777
G01 X24.0359 Y19.3586
G01 X24.0069 Y19.3407
G01 X23.9903 Y19.3292
G01 X23.9643 Y19.3087
G01 X23.9373 Y19.2880
G01 X23.9238 Y19.2766
G01 X23.8982 Y19.2522
G01 X23.8740 Y19.2298
G01 X23.8599 Y19.2152
G01 X23.8377 Y19.1894
G01 X23.8158 Y19.1647
G01 X23.8032 Y19.1490
G01 X23.7627 Y19.0924
G01 X23.7531 Y19.0774
G01 X23.7363 Y19.0478
G01 X23.7188 Y19.0183
G01 X23.7102 Y19.0014
G01 X23.6814 Y18.9381
G01 X23.6786 Y18.9306
G01 X23.6748 Y18.9217
G01 X23.6641 Y18.8893
G01 X23.6522 Y18.8556
G01 X23.6502 Y18.8477
G01 X23.6474 Y18.8388
G01 X23.6398 Y18.8056
G01 X23.6313 Y18.7711
G01 X23.6300 Y18.7628
G01 X23.6281 Y18.7537
G01 X23.6190 Y18.6870
G01 X23.6171 Y18.6671
G01 X23.6161 Y18.6329
G01 X23.6145 Y18.5976
G01 X23.6145 Y17.3530
G01 X23.6117 Y17.3339
G01 X23.6110 Y17.3201
G01 X23.6097 Y17.3079
G01 X23.6091 Y17.2767
G01 X23.6078 Y17.2455
G01 X23.6084 Y17.2329
G01 X23.6083 Y17.2195
G01 X23.6107 Y17.1895
G01 X23.6123 Y17.1594
G01 X23.6145 Y17.1430
G01 X23.6145 Y14.8130
G01 X23.6117 Y14.7939
G01 X23.6110 Y14.7801
G01 X23.6097 Y14.7679
G01 X23.6091 Y14.7367
G01 X23.6078 Y14.7055
G01 X23.6084 Y14.6929
G01 X23.6083 Y14.6795
G01 X23.6107 Y14.6495
G01 X23.6123 Y14.6194
G01 X23.6145 Y14.6030
G01 X23.6145 Y12.2730
G01 X23.6117 Y12.2539
G01 X23.6110 Y12.2401
G01 X23.6097 Y12.2279
G01 X23.6091 Y12.1967
G01 X23.6078 Y12.1655
G01 X23.6084 Y12.1529
G01 X23.6083 Y12.1395
G01 X23.6107 Y12.1095
G01 X23.6123 Y12.0794
G01 X23.6145 Y12.0630
G01 X23.6145 Y9.7329
G01 X23.6117 Y9.7138
G01 X23.6110 Y9.7003
G01 X23.6097 Y9.6881
G01 X23.6091 Y9.6566
G01 X23.6078 Y9.6253
G01 X23.6083 Y9.6131
G01 X23.6082 Y9.5995
G01 X23.6107 Y9.5695
G01 X23.6123 Y9.5393
G01 X23.6145 Y9.5229
G01 X23.6145 Y7.1929
G01 X23.6117 Y7.1738
G01 X23.6110 Y7.1603
G01 X23.6097 Y7.1481
G01 X23.6091 Y7.1166
G01 X23.6078 Y7.0853
G01 X23.6083 Y7.0731
G01 X23.6082 Y7.0595
G01 X23.6107 Y7.0295
G01 X23.6123 Y6.9993
G01 X23.6145 Y6.9829
G01 X23.6145 Y4.6529
G01 X23.6117 Y4.6338
G01 X23.6110 Y4.6203
G01 X23.6097 Y4.6081
G01 X23.6091 Y4.5766
G01 X23.6078 Y4.5453
G01 X23.6083 Y4.5331
G01 X23.6082 Y4.5195
G01 X23.6107 Y4.4895
G01 X23.6123 Y4.4593
G01 X23.6145 Y4.4429
G01 X23.6146 Y2.4984
G01 X23.6203 Y2.4137
G01 X23.6227 Y2.3941
G01 X23.6347 Y2.3250
G01 X23.6368 Y2.3171
G01 X23.6386 Y2.3082
G01 X23.6573 Y2.2408
G01 X23.6600 Y2.2332
G01 X23.6627 Y2.2242
G01 X23.6753 Y2.1924
G01 X23.6869 Y2.1613
G01 X23.6955 Y2.1421
G01 X23.7106 Y2.1125
G01 X23.7257 Y2.0818
G01 X23.7342 Y2.0665
G01 X23.7714 Y2.0073
G01 X23.7769 Y1.9999
G01 X23.7813 Y1.9932
G01 X23.8033 Y1.9652
G01 X23.8252 Y1.9363
G01 X23.8303 Y1.9308
G01 X23.8361 Y1.9236
G01 X23.8599 Y1.8989
G01 X23.8832 Y1.8736
G01 X23.8976 Y1.8598
G01 X23.9227 Y1.8383
G01 X23.9484 Y1.8155
G01 X23.9558 Y1.8099
G01 X23.9629 Y1.8040
G01 X23.9910 Y1.7842
G01 X24.0188 Y1.7639
G01 X24.0335 Y1.7545
G01 X24.0942 Y1.7194
G01 X24.1094 Y1.7114
G01 X24.1419 Y1.6970
G01 X24.1742 Y1.6819
G01 X24.1818 Y1.6792
G01 X24.1903 Y1.6756
G01 X24.2228 Y1.6648
G01 X24.2540 Y1.6537
G01 X24.2744 Y1.6478
G01 X24.3066 Y1.6405
G01 X24.3398 Y1.6323
G01 X24.3583 Y1.6288
G01 X24.3923 Y1.6245
G01 X24.4261 Y1.6195
G01 X24.4354 Y1.6189
G01 X24.4436 Y1.6179
G01 X24.4791 Y1.6168
G01 X24.5134 Y1.6152
G01 X42.6910 Y1.6202
G01 X42.7097 Y1.6205
G01 X42.7919 Y1.6260
G01 X42.8034 Y1.6276
G01 X42.8122 Y1.6284
G01 X42.8457 Y1.6346
G01 X42.8807 Y1.6404
G01 X42.8887 Y1.6426
G01 X42.8979 Y1.6444
G01 X42.9307 Y1.6538
G01 X42.9649 Y1.6630
G01 X42.9725 Y1.6658
G01 X42.9817 Y1.6685
G01 X43.0137 Y1.6811
G01 X43.0464 Y1.6935
G01 X43.0630 Y1.7008
G01 X43.0932 Y1.7162
G01 X43.1229 Y1.7308
G01 X43.1407 Y1.7408
G01 X43.1692 Y1.7591
G01 X43.1972 Y1.7762
G01 X43.2140 Y1.7880
G01 X43.2408 Y1.8091
G01 X43.2679 Y1.8296
G01 X43.2834 Y1.8429
G01 X43.3072 Y1.8657
G01 X43.3322 Y1.8889
G01 X43.3385 Y1.8958
G01 X43.3445 Y1.9016
G01 X43.3676 Y1.9285
G01 X43.3894 Y1.9529
G01 X43.4019 Y1.9687
G01 X43.4423 Y2.0251
G01 X43.4522 Y2.0405
G01 X43.4689 Y2.0700
G01 X43.4870 Y2.1006
G01 X43.4905 Y2.1082
G01 X43.4951 Y2.1165
G01 X43.5089 Y2.1475
G01 X43.5228 Y2.1773
G01 X43.5300 Y2.1951
G01 X43.5412 Y2.2285
G01 X43.5525 Y2.2607
G01 X43.5578 Y2.2791
G01 X43.5654 Y2.3123
G01 X43.5736 Y2.3454
G01 X43.5751 Y2.3549
G01 X43.5773 Y2.3654
G01 X43.5814 Y2.3979
G01 X43.5863 Y2.4317
G01 X43.5879 Y2.4497
G01 X43.5890 Y2.4848
G01 X43.5906 Y2.5189
G01 X43.5907 Y4.4461
G01 X43.5935 Y4.4664
G01 X43.5941 Y4.4789
G01 X43.5955 Y4.4912
G01 X43.5960 Y4.5224
G01 X43.5974 Y4.5536
G01 X43.5968 Y4.5662
G01 X43.5968 Y4.5796
G01 X43.5945 Y4.6096
G01 X43.5928 Y4.6396
G01 X43.5907 Y4.6562
G01 X43.5907 Y6.9861
G01 X43.5935 Y7.0064
G01 X43.5941 Y7.0189
G01 X43.5955 Y7.0312
G01 X43.5960 Y7.0624
G01 X43.5974 Y7.0936
G01 X43.5968 Y7.1062
G01 X43.5968 Y7.1196
G01 X43.5945 Y7.1496
G01 X43.5928 Y7.1796
G01 X43.5907 Y7.1962
G01 X43.5907 Y9.5261
G01 X43.5935 Y9.5464
G01 X43.5941 Y9.5589
G01 X43.5955 Y9.5712
G01 X43.5960 Y9.6024
G01 X43.5974 Y9.6336
G01 X43.5968 Y9.6462
G01 X43.5968 Y9.6596
G01 X43.5945 Y9.6896
G01 X43.5928 Y9.7196
G01 X43.5907 Y9.7362
G01 X43.5907 Y12.0661
G01 X43.5935 Y12.0864
G01 X43.5941 Y12.0989
G01 X43.5955 Y12.1112
G01 X43.5960 Y12.1424
G01 X43.5974 Y12.1736
G01 X43.5968 Y12.1862
G01 X43.5968 Y12.1996
G01 X43.5945 Y12.2296
G01 X43.5928 Y12.2596
G01 X43.5907 Y12.2762
G01 X43.5906 Y12.6650
G01 X43.5861 Y12.7497
G01 X43.5836 Y12.7678
G01 X43.5826 Y12.7794
G01 X43.5774 Y12.8083
G01 X43.5732 Y12.8360
G01 X43.5695 Y12.8513
G01 X43.5668 Y12.8656
G01 X43.5588 Y12.8936
G01 X43.5519 Y12.9207
G01 X43.5468 Y12.9354
G01 X43.5432 Y12.9481
G01 X43.5320 Y12.9766
G01 X43.5222 Y13.0040
G01 X43.4705 Y13.1288
G01 X43.4705 Y13.7503
G01 X43.5238 Y13.8792
G01 X43.5521 Y13.9589
G01 X43.5570 Y13.9778
G01 X43.5607 Y13.9892
G01 X43.5668 Y14.0175
G01 X43.5738 Y14.0458
G01 X43.5760 Y14.0603
G01 X43.5791 Y14.0757
G01 X43.5823 Y14.1034
G01 X43.5863 Y14.1311
G01 X43.5872 Y14.1467
G01 X43.5888 Y14.1623
G01 X43.5893 Y14.1903
G01 X43.5907 Y14.2195
G01 X43.5907 Y14.5145
G01 X43.6604 Y14.6828
G01 X43.8411 Y14.8636
G01 X43.8982 Y14.9276
G01 X43.9074 Y14.9400
G01 X43.9151 Y14.9491
G01 X43.9321 Y14.9739
G01 X43.9504 Y14.9990
G01 X43.9568 Y15.0097
G01 X43.9644 Y15.0210
G01 X43.9789 Y15.0472
G01 X43.9943 Y15.0732
G01 X43.9975 Y15.0797
G01 X43.9988 Y15.0797
G01 X43.9988 Y14.9933
G01 X44.0000 Y14.9848
G01 X44.0021 Y14.9778
G01 X44.0053 Y14.9711
G01 X44.0093 Y14.9650
G01 X44.0143 Y14.9596
G01 X44.0200 Y14.9549
G01 X44.0274 Y14.9506
G01 X44.0342 Y14.9479
G01 X44.0414 Y14.9463
G01 X44.0488 Y14.9458
G01 X46.0200 Y14.9459
G01 X46.0273 Y14.9470
G01 X46.0344 Y14.9491
G01 X46.0410 Y14.9523
G01 X46.0471 Y14.9563
G01 X46.0517 Y14.9604
G01 X46.0565 Y14.9660
G01 X46.0605 Y14.9722
G01 X46.0634 Y14.9789
G01 X46.0656 Y14.9872
G01 X46.0663 Y14.9945
G01 X46.0664 Y15.0791
G01 X46.2193 Y15.0791
G01 X46.2349 Y15.0621
G01 X46.2422 Y15.0555
G01 X46.2479 Y15.0497
G01 X46.2745 Y15.0267
G01 X46.3001 Y15.0039
G01 X46.3149 Y14.9922
G01 X46.3430 Y14.9725
G01 X46.3705 Y14.9524
G01 X46.3865 Y14.9421
G01 X46.4162 Y14.9252
G01 X46.4469 Y14.9071
G01 X46.4542 Y14.9037
G01 X46.4624 Y14.8992
G01 X46.4938 Y14.8852
G01 X46.5258 Y14.8704
G01 X46.5334 Y14.8676
G01 X46.5422 Y14.8638
G01 X46.5746 Y14.8531
G01 X46.6083 Y14.8412
G01 X46.6162 Y14.8393
G01 X46.6250 Y14.8364
G01 X46.6584 Y14.8288
G01 X46.6929 Y14.8203
G01 X46.7012 Y14.8190
G01 X46.7102 Y14.8171
G01 X46.7769 Y14.8080
G01 X46.7956 Y14.8062
G01 X46.8309 Y14.8051
G01 X46.8652 Y14.8035
G01 X46.8896 Y14.8035
G01 X47.4637 Y14.5657
G01 X48.6017 Y13.4277
G01 X48.6642 Y13.3722
G01 X48.6767 Y13.3628
G01 X48.6839 Y13.3566
G01 X48.7105 Y13.3382
G01 X48.7346 Y13.3206
G01 X48.7462 Y13.3135
G01 X48.7577 Y13.3059
G01 X48.7839 Y13.2914
G01 X48.8108 Y13.2754
G01 X48.8221 Y13.2701
G01 X48.8340 Y13.2637
G01 X48.8615 Y13.2518
G01 X48.8887 Y13.2391
G01 X48.9015 Y13.2344
G01 X48.9141 Y13.2291
G01 X48.9427 Y13.2199
G01 X48.9722 Y13.2095
G01 X48.9843 Y13.2064
G01 X48.9972 Y13.2024
G01 X49.0265 Y13.1960
G01 X49.0557 Y13.1887
G01 X49.0692 Y13.1866
G01 X49.0826 Y13.1839
G01 X49.1124 Y13.1804
G01 X49.1421 Y13.1760
G01 X49.1556 Y13.1752
G01 X49.1667 Y13.1739
G01 X49.1993 Y13.1731
G01 X49.2293 Y13.1717
G01 X50.9409 Y13.1717
G01 X51.0269 Y13.1766
G01 X51.0425 Y13.1788
G01 X51.0551 Y13.1801
G01 X51.0834 Y13.1853
G01 X51.1132 Y13.1900
G01 X51.1263 Y13.1932
G01 X51.1397 Y13.1958
G01 X51.1686 Y13.2040
G01 X51.1978 Y13.2116
G01 X51.2106 Y13.2161
G01 X51.2225 Y13.2195
G01 X51.2516 Y13.2310
G01 X51.2799 Y13.2413
G01 X51.2921 Y13.2470
G01 X51.3048 Y13.2521
G01 X51.3316 Y13.2659
G01 X51.3586 Y13.2788
G01 X51.3704 Y13.2857
G01 X51.3813 Y13.2914
G01 X51.4077 Y13.3082
G01 X51.4335 Y13.3238
G01 X51.4444 Y13.3318
G01 X51.4548 Y13.3385
G01 X51.4794 Y13.3579
G01 X51.5035 Y13.3758
G01 X51.5136 Y13.3848
G01 X51.5233 Y13.3925
G01 X51.5460 Y13.4141
G01 X51.5691 Y13.4352
G01 X54.0867 Y15.9529
G01 X54.1432 Y16.0164
G01 X54.1525 Y16.0289
G01 X54.1586 Y16.0360
G01 X54.1770 Y16.0625
G01 X54.1947 Y16.0867
G01 X54.2018 Y16.0983
G01 X54.2094 Y16.1097
G01 X54.2239 Y16.1359
G01 X54.2405 Y16.1640
G01 X54.2452 Y16.1741
G01 X54.2517 Y16.1861
G01 X54.2636 Y16.2136
G01 X54.2763 Y16.2408
G01 X54.2809 Y16.2536
G01 X54.2863 Y16.2662
G01 X54.2954 Y16.2948
G01 X54.3058 Y16.3243
G01 X54.3089 Y16.3363
G01 X54.3129 Y16.3493
G01 X54.3194 Y16.3786
G01 X54.3266 Y16.4078
G01 X54.3287 Y16.4213
G01 X54.3315 Y16.4347
G01 X54.3349 Y16.4645
G01 X54.3393 Y16.4942
G01 X54.3401 Y16.5077
G01 X54.3415 Y16.5201
G01 X54.3422 Y16.5514
G01 X54.3437 Y16.5826
G01 X54.3437 Y25.2905
G01 X54.4110 Y25.4534
G01 X54.4383 Y25.5336
G01 X54.4414 Y25.5456
G01 X54.4438 Y25.5533
G01 X54.4454 Y25.5605
G01 X54.4527 Y25.5739
G01 X54.4652 Y25.5950
G01 X54.4734 Y25.6123
G01 X54.4829 Y25.6302
G01 X54.4920 Y25.6517
G01 X54.5025 Y25.6739
G01 X54.5815 Y25.8646
G01 X55.0209 Y26.3041
G01 X55.1836 Y26.3717
G01 X55.2598 Y26.4090
G01 X55.2703 Y26.4154
G01 X55.2778 Y26.4192
G01 X55.2837 Y26.4230
G01 X55.2983 Y26.4273
G01 X55.3222 Y26.4334
G01 X55.3402 Y26.4399
G01 X55.3574 Y26.4450
G01 X55.3812 Y26.4545
G01 X55.4032 Y26.4624
G01 X55.5950 Y26.5420
G01 X56.2165 Y26.5420
G01 X56.3793 Y26.4746
G01 X56.4596 Y26.4472
G01 X56.4714 Y26.4442
G01 X56.4795 Y26.4416
G01 X56.4865 Y26.4401
G01 X56.4999 Y26.4329
G01 X56.5208 Y26.4205
G01 X56.5381 Y26.4122
G01 X56.5562 Y26.4025
G01 X56.5777 Y26.3936
G01 X56.5998 Y26.3832
G01 X56.7906 Y26.3041
G01 X57.2300 Y25.8646
G01 X57.2976 Y25.7020
G01 X57.3349 Y25.6259
G01 X57.3413 Y25.6152
G01 X57.3449 Y25.6082
G01 X57.3489 Y25.6019
G01 X57.3533 Y25.5873
G01 X57.3593 Y25.5636
G01 X57.3657 Y25.5455
G01 X57.3709 Y25.5282
G01 X57.3804 Y25.5044
G01 X57.3883 Y25.4825
G01 X57.4679 Y25.2905
G01 X57.4679 Y15.2520
G01 X57.2300 Y14.6779
G01 X52.8374 Y10.2853
G01 X52.2633 Y10.0475
G01 X47.8999 Y10.0475
G01 X47.7188 Y10.1226
G01 X47.7102 Y10.1255
G01 X47.6996 Y10.1302
G01 X47.6191 Y10.1571
G01 X47.6047 Y10.1610
G01 X47.5682 Y10.1689
G01 X47.5329 Y10.1770
G01 X47.5197 Y10.1793
G01 X47.4464 Y10.1882
G01 X47.4316 Y10.1892
G01 X47.3602 Y10.1908
G01 X47.3431 Y10.1904
G01 X47.2732 Y10.1852
G01 X47.2584 Y10.1835
G01 X47.1870 Y10.1713
G01 X47.1703 Y10.1675
G01 X47.1026 Y10.1489
G01 X47.0874 Y10.1440
G01 X47.0183 Y10.1176
G01 X47.0063 Y10.1123
G01 X46.9738 Y10.0958
G01 X46.9424 Y10.0805
G01 X46.9283 Y10.0727
G01 X46.8658 Y10.0336
G01 X46.8546 Y10.0258
G01 X46.7963 Y9.9808
G01 X46.7860 Y9.9720
G01 X46.7322 Y9.9216
G01 X46.7228 Y9.9118
G01 X46.6990 Y9.8844
G01 X46.6749 Y9.8574
G01 X46.6657 Y9.8457
G01 X46.6447 Y9.8161
G01 X46.6241 Y9.7880
G01 X46.6147 Y9.7735
G01 X46.5787 Y9.7117
G01 X46.5726 Y9.6997
G01 X46.5419 Y9.6329
G01 X46.5363 Y9.6191
G01 X46.5247 Y9.5847
G01 X46.5126 Y9.5506
G01 X46.5088 Y9.5377
G01 X46.4913 Y9.4645
G01 X46.4889 Y9.4513
G01 X46.4787 Y9.3784
G01 X46.4775 Y9.3648
G01 X46.4745 Y9.2924
G01 X46.4745 Y7.1930
G01 X46.4717 Y7.1739
G01 X46.4710 Y7.1601
G01 X46.4697 Y7.1479
G01 X46.4691 Y7.1167
G01 X46.4678 Y7.0855
G01 X46.4684 Y7.0729
G01 X46.4683 Y7.0595
G01 X46.4707 Y7.0295
G01 X46.4723 Y6.9994
G01 X46.4745 Y6.9830
G01 X46.4745 Y4.6530
G01 X46.4717 Y4.6339
G01 X46.4710 Y4.6201
G01 X46.4697 Y4.6079
G01 X46.4691 Y4.5767
G01 X46.4678 Y4.5455
G01 X46.4684 Y4.5329
G01 X46.4683 Y4.5195
G01 X46.4707 Y4.4895
G01 X46.4723 Y4.4594
G01 X46.4745 Y4.4430
G01 X46.4745 Y2.5214
G01 X46.4748 Y2.5142
G01 X46.4747 Y2.5022
G01 X46.4803 Y2.4199
G01 X46.4827 Y2.4003
G01 X46.4947 Y2.3313
G01 X46.4968 Y2.3235
G01 X46.4986 Y2.3144
G01 X46.5080 Y2.2814
G01 X46.5169 Y2.2482
G01 X46.5231 Y2.2294
G01 X46.5353 Y2.1986
G01 X46.5474 Y2.1664
G01 X46.5514 Y2.1581
G01 X46.5549 Y2.1494
G01 X46.5706 Y2.1188
G01 X46.5857 Y2.0880
G01 X46.5942 Y2.0728
G01 X46.6320 Y2.0127
G01 X46.6369 Y2.0061
G01 X46.6420 Y1.9984
G01 X46.6633 Y1.9714
G01 X46.6832 Y1.9451
G01 X46.6970 Y1.9289
G01 X46.7199 Y1.9052
G01 X46.7432 Y1.8799
G01 X46.7501 Y1.8736
G01 X46.7557 Y1.8679
G01 X46.7827 Y1.8446
G01 X46.8083 Y1.8219
G01 X46.8220 Y1.8109
G01 X46.8510 Y1.7905
G01 X46.8798 Y1.7696
G01 X46.8945 Y1.7602
G01 X46.9542 Y1.7257
G01 X46.9716 Y1.7166
G01 X47.0019 Y1.7033
G01 X47.0330 Y1.6887
G01 X47.0415 Y1.6856
G01 X47.0489 Y1.6823
G01 X47.0829 Y1.6709
G01 X47.1151 Y1.6596
G01 X47.1311 Y1.6550
G01 X47.1999 Y1.6385
G01 X47.2194 Y1.6350
G01 X47.2862 Y1.6258
G01 X47.3048 Y1.6241
G01 X47.3391 Y1.6231
G01 X47.3746 Y1.6215
G01 X56.6868 Y1.6241
G01 X56.6938 Y1.6244
G01 X56.7055 Y1.6243
G01 X56.7900 Y1.6300
G01 X56.7996 Y1.6315
G01 X56.8078 Y1.6323
G01 X56.8740 Y1.6438
G01 X56.8937 Y1.6482
G01 X56.9265 Y1.6576
G01 X56.9595 Y1.6664
G01 X56.9686 Y1.6697
G01 X56.9765 Y1.6720
G01 X57.0413 Y1.6969
G01 X57.0499 Y1.7010
G01 X57.0576 Y1.7041
G01 X57.0890 Y1.7201
G01 X57.1197 Y1.7351
G01 X57.1280 Y1.7401
G01 X57.1353 Y1.7439
G01 X57.1651 Y1.7629
G01 X57.1940 Y1.7808
G01 X57.2108 Y1.7925
G01 X57.2366 Y1.8129
G01 X57.2636 Y1.8334
G01 X57.2774 Y1.8452
G01 X57.3029 Y1.8695
G01 X57.3279 Y1.8926
G01 X57.3343 Y1.8996
G01 X57.3420 Y1.9073
G01 X57.3634 Y1.9323
G01 X57.3868 Y1.9586
G01 X57.3979 Y1.9727
G01 X57.4369 Y2.0273
G01 X57.4480 Y2.0443
G01 X57.4647 Y2.0738
G01 X57.4821 Y2.1032
G01 X57.4863 Y2.1120
G01 X57.4909 Y2.1203
G01 X57.5047 Y2.1513
G01 X57.5195 Y2.1832
G01 X57.5262 Y2.2000
G01 X57.5370 Y2.2324
G01 X57.5487 Y2.2657
G01 X57.5507 Y2.2738
G01 X57.5536 Y2.2829
G01 X57.5612 Y2.3161
G01 X57.5697 Y2.3506
G01 X57.5709 Y2.3587
G01 X57.5729 Y2.3680
G01 X57.5772 Y2.4018
G01 X57.5821 Y2.4355
G01 X57.5838 Y2.4546
G01 X57.5848 Y2.4887
G01 X57.5865 Y2.5240
G01 X57.5865 Y3.0501
G01 X57.7887 Y3.8045
G01 X58.1791 Y4.4808
G01 X58.7314 Y5.0330
G01 X59.4077 Y5.4235
G01 X60.1620 Y5.6257
G01 X60.7255 Y5.6259
G01 X60.8101 Y5.6316
G01 X60.8196 Y5.6331
G01 X60.8276 Y5.6339
G01 X60.8940 Y5.6454
G01 X60.9147 Y5.6501
G01 X60.9464 Y5.6592
G01 X60.9795 Y5.6680
G01 X60.9884 Y5.6712
G01 X60.9973 Y5.6739
G01 X61.0292 Y5.6865
G01 X61.0612 Y5.6985
G01 X61.0775 Y5.7056
G01 X61.1090 Y5.7217
G01 X61.1408 Y5.7373
G01 X61.1479 Y5.7416
G01 X61.1563 Y5.7461
G01 X61.1850 Y5.7645
G01 X61.2151 Y5.7831
G01 X61.2216 Y5.7880
G01 X61.2296 Y5.7932
G01 X61.2566 Y5.8144
G01 X61.2837 Y5.8351
G01 X61.2981 Y5.8473
G01 X61.3227 Y5.8709
G01 X61.3470 Y5.8933
G01 X61.3618 Y5.9088
G01 X61.3832 Y5.9337
G01 X61.4060 Y5.9593
G01 X61.4116 Y5.9668
G01 X61.4170 Y5.9731
G01 X61.4576 Y6.0298
G01 X61.4672 Y6.0446
G01 X61.4846 Y6.0753
G01 X61.5021 Y6.1048
G01 X61.5112 Y6.1227
G01 X61.5391 Y6.1840
G01 X61.5423 Y6.1926
G01 X61.5456 Y6.2002
G01 X61.5569 Y6.2338
G01 X61.5687 Y6.2675
G01 X61.5707 Y6.2755
G01 X61.5735 Y6.2843
G01 X61.5811 Y6.3176
G01 X61.5891 Y6.3496
G01 X61.5928 Y6.3694
G01 X61.6021 Y6.4372
G01 X61.6027 Y6.4466
G01 X61.6037 Y6.4548
G01 X61.6048 Y6.4902
G01 X61.6065 Y6.5256
G01 X61.6063 Y79.0625
G01 X61.6004 Y79.1482
G01 X61.5990 Y79.1566
G01 X61.5983 Y79.1646
G01 X61.5867 Y79.2310
G01 X61.5824 Y79.2505
G01 X61.5730 Y79.2834
G01 X61.5637 Y79.3178
G01 X61.5609 Y79.3254
G01 X61.5582 Y79.3343
G01 X61.5456 Y79.3662
G01 X61.5341 Y79.3971
G01 X61.5260 Y79.4156
G01 X61.5104 Y79.4460
G01 X61.4948 Y79.4778
G01 X61.4905 Y79.4849
G01 X61.4860 Y79.4933
G01 X61.4676 Y79.5220
G01 X61.4504 Y79.5500
G01 X61.4389 Y79.5666
G01 X61.4177 Y79.5936
G01 X61.3970 Y79.6207
G01 X61.3856 Y79.6342
G01 X61.3612 Y79.6597
G01 X61.3388 Y79.6840
G01 X61.3233 Y79.6988
G01 X61.2984 Y79.7202
G01 X61.2728 Y79.7430
G01 X61.2653 Y79.7486
G01 X61.2590 Y79.7540
G01 X61.2023 Y79.7946
G01 X61.1864 Y79.8049
G01 X61.1568 Y79.8216
G01 X61.1273 Y79.8391
G01 X61.1115 Y79.8473
G01 X61.0482 Y79.8761
G01 X61.0396 Y79.8793
G01 X61.0319 Y79.8826
G01 X60.9983 Y79.8939
G01 X60.9646 Y79.9057
G01 X60.9567 Y79.9077
G01 X60.9478 Y79.9105
G01 X60.9146 Y79.9181
G01 X60.8801 Y79.9266
G01 X60.8718 Y79.9279
G01 X60.8627 Y79.9298
G01 X60.7937 Y79.9392
G01 X60.7856 Y79.9397
G01 X60.7761 Y79.9408
G01 X60.7419 Y79.9418
G01 X60.7078 Y79.9434
G01 X60.1620 Y79.9435
G01 X59.4077 Y80.1457
G01 X58.7314 Y80.5361
G01 X58.1791 Y81.0884
G01 X57.7887 Y81.7647
G01 X57.5865 Y82.5190
G01 X57.5863 Y83.0625
G01 X57.5805 Y83.1471
G01 X57.5790 Y83.1566
G01 X57.5783 Y83.1646
G01 X57.5667 Y83.2310
G01 X57.5620 Y83.2517
G01 X57.5530 Y83.2834
G01 X57.5441 Y83.3165
G01 X57.5409 Y83.3254
G01 X57.5382 Y83.3343
G01 X57.5256 Y83.3662
G01 X57.5137 Y83.3982
G01 X57.5065 Y83.4145
G01 X57.4904 Y83.4460
G01 X57.4748 Y83.4778
G01 X57.4705 Y83.4849
G01 X57.4660 Y83.4933
G01 X57.4476 Y83.5220
G01 X57.4290 Y83.5521
G01 X57.4241 Y83.5586
G01 X57.4189 Y83.5666
G01 X57.3977 Y83.5936
G01 X57.3770 Y83.6207
G01 X57.3648 Y83.6351
G01 X57.3412 Y83.6597
G01 X57.3188 Y83.6840
G01 X57.3033 Y83.6988
G01 X57.2784 Y83.7202
G01 X57.2528 Y83.7430
G01 X57.2453 Y83.7486
G01 X57.2390 Y83.7540
G01 X57.1823 Y83.7946
G01 X57.1675 Y83.8042
G01 X57.1368 Y83.8216
G01 X57.1073 Y83.8391
G01 X57.0894 Y83.8482
G01 X57.0282 Y83.8761
G01 X57.0196 Y83.8793
G01 X57.0119 Y83.8826
G01 X56.9783 Y83.8939
G01 X56.9446 Y83.9057
G01 X56.9367 Y83.9077
G01 X56.9278 Y83.9105
G01 X56.8946 Y83.9181
G01 X56.8626 Y83.9261
G01 X56.8427 Y83.9298
G01 X56.7749 Y83.9391
G01 X56.7656 Y83.9397
G01 X56.7573 Y83.9407
G01 X56.7219 Y83.9418
G01 X56.6866 Y83.9435
G01 X6.5186 Y83.9435
G01 X6.5115 Y83.9431
G01 X6.4996 Y83.9433
G01 X6.4174 Y83.9378
G01 X6.3963 Y83.9351
G01 X6.3300 Y83.9235
G01 X6.3209 Y83.9212
G01 X6.3128 Y83.9197
G01 X6.2787 Y83.9100
G01 X6.2456 Y83.9011
G01 X6.2367 Y83.8979
G01 X6.2278 Y83.8952
G01 X6.1959 Y83.8826
G01 X6.1629 Y83.8702
G01 X6.1465 Y83.8630
G01 X6.1161 Y83.8474
G01 X6.0866 Y83.8330
G01 X6.0688 Y83.8230
G01 X6.0401 Y83.8046
G01 X6.0100 Y83.7860
G01 X5.9945 Y83.7752
G01 X5.9685 Y83.7547
G01 X5.9415 Y83.7340
G01 X5.9280 Y83.7226
G01 X5.9024 Y83.6982
G01 X5.8772 Y83.6749
G01 X5.8641 Y83.6612
G01 X5.8419 Y83.6354
G01 X5.8191 Y83.6098
G01 X5.8067 Y83.5940
G01 X5.7877 Y83.5670
G01 X5.7676 Y83.5393
G01 X5.7579 Y83.5245
G01 X5.7405 Y83.4938
G01 X5.7230 Y83.4643
G01 X5.7144 Y83.4474
G01 X5.6856 Y83.3841
G01 X5.6828 Y83.3766
G01 X5.6790 Y83.3677
G01 X5.6683 Y83.3353
G01 X5.6564 Y83.3016
G01 X5.6544 Y83.2937
G01 X5.6516 Y83.2848
G01 X5.6440 Y83.2516
G01 X5.6355 Y83.2171
G01 X5.6342 Y83.2088
G01 X5.6323 Y83.1997
G01 X5.6230 Y83.1319
G01 X5.6213 Y83.1131
G01 X5.6203 Y83.0789
G01 X5.6187 Y83.0436
G01 X5.6187 Y82.5190
G01 X5.4165 Y81.7647
G01 X5.0261 Y81.0884
G01 X4.4738 Y80.5361
G01 X3.7975 Y80.1457
G01 X3.0431 Y79.9435
G01 X2.4909 Y79.9433
G01 X2.4062 Y79.9375
G01 X2.3969 Y79.9360
G01 X2.3889 Y79.9353
G01 X2.3552 Y79.9291
G01 X2.3225 Y79.9237
G01 X2.3019 Y79.9190
G01 X2.2701 Y79.9100
G01 X2.2369 Y79.9010
G01 X2.2191 Y79.8952
G01 X2.1872 Y79.8825
G01 X2.1540 Y79.8701
G01 X2.1466 Y79.8665
G01 X2.1381 Y79.8630
G01 X2.1075 Y79.8474
G01 X2.0754 Y79.8316
G01 X2.0686 Y79.8274
G01 X2.0605 Y79.8231
G01 X2.0013 Y79.7859
G01 X1.9869 Y79.7758
G01 X1.9601 Y79.7546
G01 X1.9328 Y79.7340
G01 X1.9258 Y79.7276
G01 X1.9186 Y79.7218
G01 X1.8938 Y79.6981
G01 X1.8694 Y79.6756
G01 X1.8548 Y79.6603
G01 X1.8333 Y79.6353
G01 X1.8104 Y79.6096
G01 X1.8048 Y79.6021
G01 X1.7996 Y79.5960
G01 X1.7588 Y79.5391
G01 X1.7494 Y79.5244
G01 X1.7319 Y79.4936
G01 X1.7138 Y79.4630
G01 X1.7103 Y79.4555
G01 X1.7059 Y79.4475
G01 X1.6919 Y79.4161
G01 X1.6775 Y79.3851
G01 X1.6701 Y79.3665
G01 X1.6597 Y79.3351
G01 X1.6482 Y79.3028
G01 X1.6459 Y79.2938
G01 X1.6433 Y79.2860
G01 X1.6354 Y79.2513
G01 X1.6272 Y79.2181
G01 X1.6236 Y79.1984
G01 X1.6194 Y79.1656
G01 X1.6142 Y79.1295
G01 X1.6129 Y79.1134
G01 X1.6101 Y79.0434
G01 X1.6282 Y6.5254
G01 X1.6285 Y6.5066
G01 X1.6340 Y6.4244
G01 X1.6356 Y6.4129
G01 X1.6364 Y6.4041
G01 X1.6426 Y6.3706
G01 X1.6486 Y6.3348
G01 X1.6524 Y6.3183
G01 X1.6618 Y6.2855
G01 X1.6709 Y6.2517
G01 X1.6770 Y6.2333
G01 X1.6891 Y6.2028
G01 X1.7010 Y6.1710
G01 X1.7087 Y6.1534
G01 X1.7243 Y6.1230
G01 X1.7393 Y6.0924
G01 X1.7481 Y6.0768
G01 X1.7671 Y6.0471
G01 X1.7849 Y6.0181
G01 X1.7959 Y6.0024
G01 X1.8369 Y5.9494
G01 X1.8440 Y5.9414
G01 X1.8500 Y5.9338
G01 X1.8737 Y5.9093
G01 X1.8977 Y5.8833
G01 X1.9040 Y5.8777
G01 X1.9106 Y5.8710
G01 X1.9364 Y5.8488
G01 X1.9609 Y5.8269
G01 X1.9769 Y5.8142
G01 X2.0049 Y5.7946
G01 X2.0333 Y5.7739
G01 X2.0404 Y5.7696
G01 X2.0495 Y5.7635
G01 X2.0780 Y5.7474
G01 X2.1074 Y5.7300
G01 X2.1161 Y5.7259
G01 X2.1231 Y5.7219
G01 X2.1555 Y5.7074
G01 X2.1864 Y5.6931
G01 X2.2031 Y5.6863
G01 X2.2364 Y5.6753
G01 X2.2686 Y5.6638
G01 X2.2779 Y5.6614
G01 X2.2859 Y5.6588
G01 X2.3547 Y5.6425
G01 X2.3629 Y5.6413
G01 X2.3722 Y5.6392
G01 X2.4060 Y5.6349
G01 X2.4409 Y5.6299
G01 X2.4492 Y5.6294
G01 X2.4587 Y5.6283
G01 X2.4928 Y5.6273
G01 X2.5281 Y5.6257
G01 X3.0931 Y5.6257
G01 X3.8475 Y5.4235
G01 X4.5238 Y5.0331
G01 X5.0761 Y4.4808
G01 X5.4665 Y3.8045
G01 X5.6687 Y3.0501
G01 X5.6688 Y2.4935
G01 X5.6747 Y2.4065
G01 X5.6769 Y2.3891
G01 X5.6889 Y2.3201
G01 X5.6931 Y2.3020
G01 X5.7022 Y2.2702
G01 X5.7111 Y2.2370
G01 X5.7142 Y2.2283
G01 X5.7165 Y2.2205
G01 X5.7416 Y2.1552
G01 X5.7456 Y2.1469
G01 X5.7486 Y2.1394
G01 X5.7648 Y2.1076
G01 X5.7799 Y2.0768
G01 X5.7884 Y2.0616
G01 X5.8262 Y2.0015
G01 X5.8311 Y1.9949
G01 X5.8362 Y1.9872
G01 X5.8575 Y1.9602
G01 X5.8774 Y1.9339
G01 X5.8845 Y1.9259
G01 X5.8903 Y1.9187
G01 X5.9141 Y1.8939
G01 X5.9375 Y1.8687
G01 X5.9518 Y1.8549
G01 X5.9769 Y1.8334
G01 X6.0025 Y1.8107
G01 X6.0162 Y1.7997
G01 X6.0452 Y1.7793
G01 X6.0730 Y1.7590
G01 X6.0808 Y1.7543
G01 X6.0886 Y1.7489
G01 X6.1186 Y1.7319
G01 X6.1484 Y1.7145
G01 X6.1636 Y1.7065
G01 X6.1961 Y1.6921
G01 X6.2260 Y1.6781
G01 X6.2357 Y1.6744
G01 X6.2443 Y1.6707
G01 X6.2771 Y1.6597
G01 X6.3103 Y1.6481
G01 X6.3274 Y1.6432
G01 X6.3608 Y1.6355
G01 X6.3929 Y1.6276
G01 X6.4124 Y1.6239
G01 X6.4816 Y1.6145
G01 X6.4990 Y1.6129
G01 X6.5333 Y1.6119
G00 Z0.4000
G00 X23.1564 Y2.2458
G01 F120.00
G01 Z0.0000
G01 F800.00
G01 X23.1661 Y2.2467
G01 X23.1744 Y2.2491
G01 X23.1831 Y2.2535
G01 X23.1908 Y2.2596
G01 X23.1972 Y2.2670
G01 X23.2021 Y2.2755
G01 X23.2051 Y2.2848
G01 X23.2063 Y2.2945
G01 X23.2064 Y4.2634
G01 X23.2054 Y4.2731
G01 X23.2026 Y4.2825
G01 X23.1979 Y4.2911
G01 X23.1926 Y4.2978
G01 X23.1890 Y4.3012
G01 X23.1841 Y4.3049
G01 X23.1755 Y4.3096
G01 X23.1661 Y4.3124
G01 X23.1564 Y4.3134
G01 X21.1888 Y4.3134
G01 X21.1790 Y4.3124
G01 X21.1696 Y4.3096
G01 X21.1610 Y4.3049
G01 X21.1543 Y4.2996
G01 X21.1509 Y4.2960
G01 X21.1472 Y4.2911
G01 X21.1426 Y4.2825
G01 X21.1397 Y4.2731
G01 X21.1388 Y4.2634
G01 X21.1388 Y2.2958
G01 X21.1395 Y2.2872
G01 X21.1421 Y2.2778
G01 X21.1465 Y2.2690
G01 X21.1526 Y2.2613
G01 X21.1600 Y2.2549
G01 X21.1652 Y2.2517
G01 X21.1696 Y2.2496
G01 X21.1790 Y2.2467
G01 X21.1888 Y2.2458
G01 X23.1564 Y2.2458
G00 Z0.4000
G00 X23.1564 Y4.7858
G01 F120.00
G01 Z0.0000
G01 F800.00
G01 X23.1661 Y4.7867
G01 X23.1755 Y4.7896
G01 X23.1841 Y4.7942
G01 X23.1908 Y4.7996
G01 X23.1972 Y4.8070
G01 X23.2021 Y4.8155
G01 X23.2051 Y4.8248
G01 X23.2063 Y4.8345
G01 X23.2064 Y6.8034
G01 X23.2054 Y6.8131
G01 X23.2026 Y6.8225
G01 X23.1979 Y6.8311
G01 X23.1926 Y6.8378
G01 X23.1890 Y6.8412
G01 X23.1841 Y6.8449
G01 X23.1755 Y6.8496
G01 X23.1661 Y6.8524
G01 X23.1564 Y6.8534
G01 X21.1888 Y6.8534
G01 X21.1790 Y6.8524
G01 X21.1696 Y6.8496
G01 X21.1620 Y6.8456
G01 X21.1543 Y6.8396
G01 X21.1501 Y6.8351
G01 X21.1472 Y6.8311
G01 X21.1426 Y6.8225
G01 X21.1397 Y6.8131
G01 X21.1388 Y6.8034
G01 X21.1388 Y4.8358
G01 X21.1395 Y4.8272
G01 X21.1421 Y4.8178
G01 X21.1465 Y4.8090
G01 X21.1526 Y4.8013
G01 X21.1600 Y4.7949
G01 X21.1652 Y4.7917
G01 X21.1696 Y4.7896
G01 X21.1790 Y4.7867
G01 X21.1888 Y4.7858
G01 X23.1564 Y4.7858
G00 Z0.4000
G00 X23.1564 Y7.3258
G01 F120.00
G01 Z0.0000
G01 F800.00
G01 X23.1661 Y7.3267
G01 X23.1755 Y7.3296
G01 X23.1841 Y7.3342
G01 X23.1908 Y7.3396
G01 X23.1972 Y7.3470
G01 X23.2021 Y7.3555
G01 X23.2051 Y7.3648
G01 X23.2063 Y7.3745
G01 X23.2064 Y9.3434
G01 X23.2054 Y9.3531
G01 X23.2026 Y9.3625
G01 X23.1979 Y9.3711
G01 X23.1926 Y9.3778
G01 X23.1852 Y9.3842
G01 X23.1810 Y9.3869
G01 X23.1755 Y9.3896
G01 X23.1661 Y9.3924
G01 X23.1564 Y9.3934
G01 X21.1888 Y9.3934
G01 X21.1790 Y9.3924
G01 X21.1696 Y9.3896
G01 X21.1620 Y9.3856
G01 X21.1543 Y9.3796
G01 X21.1501 Y9.3751
G01 X21.1472 Y9.3711
G01 X21.1426 Y9.3625
G01 X21.1397 Y9.3531
G01 X21.1388 Y9.3434
G01 X21.1388 Y7.3758
G01 X21.1395 Y7.3672
G01 X21.1421 Y7.3578
G01 X21.1465 Y7.3490
G01 X21.1526 Y7.3413
G01 X21.1600 Y7.3349
G01 X21.1652 Y7.3317
G01 X21.1696 Y7.3296
G01 X21.1790 Y7.3267
G01 X21.1888 Y7.3258
G01 X23.1564 Y7.3258
G00 Z0.4000
G00 X23.1564 Y9.8658
G01 F120.00
G01 Z0.0000
G01 F800.00
G01 X23.1661 Y9.8667
G01 X23.1755 Y9.8696
G01 X23.1831 Y9.8735
G01 X23.1908 Y9.8796
G01 X23.1972 Y9.8870
G01 X23.2021 Y9.8955
G01 X23.2051 Y9.9048
G01 X23.2063 Y9.9145
G01 X23.2064 Y11.8834
G01 X23.2054 Y11.8931
G01 X23.2026 Y11.9025
G01 X23.1979 Y11.9111
G01 X23.1926 Y11.9178
G01 X23.1852 Y11.9242
G01 X23.1810 Y11.9269
G01 X23.1755 Y11.9296
G01 X23.1661 Y11.9324
G01 X23.1564 Y11.9334
G01 X21.1888 Y11.9334
G01 X21.1790 Y11.9324
G01 X21.1696 Y11.9296
G01 X21.1620 Y11.9256
G01 X21.1543 Y11.9196
G01 X21.1501 Y11.9151
G01 X21.1472 Y11.9111
G01 X21.1426 Y11.9025
G01 X21.1397 Y11.8931
G01 X21.1388 Y11.8834
G01 X21.1388 Y9.9158
G01 X21.1395 Y9.9072
G01 X21.1421 Y9.8978
G01 X21.1465 Y9.8890
G01 X21.1526 Y9.8813
G01 X21.1600 Y9.8749
G01 X21.1685 Y9.8701
G01 X21.1742 Y9.8679
G01 X21.1790 Y9.8667
G01 X21.1888 Y9.8658
G01 X23.1564 Y9.8658
G00 Z0.4000
G00 X23.2064 Y14.4234
G01 F120.00
G01 Z0.0000
G01 F800.00
G01 X23.2054 Y14.4331
G01 X23.2030 Y14.4414
G01 X23.1986 Y14.4501
G01 X23.1926 Y14.4578
G01 X23.1852 Y14.4642
G01 X23.1766 Y14.4691
G01 X23.1673 Y14.4721
G01 X23.1576 Y14.4733
G01 X21.1888 Y14.4734
G01 X21.1790 Y14.4724
G01 X21.1708 Y14.4700
G01 X21.1620 Y14.4656
G01 X21.1543 Y14.4596
G01 X21.1479 Y14.4522
G01 X21.1431 Y14.4436
G01 X21.1400 Y14.4343
G01 X21.1390 Y14.4283
G01 X21.1388 Y14.4234
G01 X21.1388 Y12.4558
G01 X21.1395 Y12.4472
G01 X21.1421 Y12.4378
G01 X21.1465 Y12.4290
G01 X21.1526 Y12.4213
G01 X21.1600 Y12.4149
G01 X21.1685 Y12.4101
G01 X21.1742 Y12.4079
G01 X21.1790 Y12.4067
G01 X21.1888 Y12.4058
G01 X23.1564 Y12.4058
G01 X23.1661 Y12.4067
G01 X23.1755 Y12.4096
G01 X23.1831 Y12.4135
G01 X23.1908 Y12.4196
G01 X23.1950 Y12.4240
G01 X23.1979 Y12.4280
G01 X23.2026 Y12.4366
G01 X23.2054 Y12.4460
G01 X23.2064 Y12.4558
G01 X23.2064 Y14.4234
G00 Z0.4000
G00 X23.1564 Y14.9458
G01 F120.00
G01 Z0.0000
G01 F800.00
G01 X23.1661 Y14.9467
G01 X23.1755 Y14.9496
G01 X23.1831 Y14.9535
G01 X23.1908 Y14.9596
G01 X23.1972 Y14.9670
G01 X23.2021 Y14.9755
G01 X23.2051 Y14.9848
G01 X23.2063 Y14.9945
G01 X23.2064 Y16.9634
G01 X23.2054 Y16.9731
G01 X23.2026 Y16.9825
G01 X23.1979 Y16.9911
G01 X23.1926 Y16.9978
G01 X23.1890 Y17.0012
G01 X23.1841 Y17.0049
G01 X23.1755 Y17.0096
G01 X23.1661 Y17.0124
G01 X23.1564 Y17.0134
G01 X21.1888 Y17.0134
G01 X21.1802 Y17.0126
G01 X21.1708 Y17.0100
G01 X21.1620 Y17.0056
G01 X21.1543 Y16.9996
G01 X21.1479 Y16.9922
G01 X21.1431 Y16.9836
G01 X21.1400 Y16.9743
G01 X21.1390 Y16.9683
G01 X21.1388 Y16.9634
G01 X21.1388 Y14.9958
G01 X21.1395 Y14.9872
G01 X21.1421 Y14.9778
G01 X21.1465 Y14.9690
G01 X21.1526 Y14.9613
G01 X21.1600 Y14.9549
G01 X21.1685 Y14.9501
G01 X21.1742 Y14.9479
G01 X21.1790 Y14.9467
G01 X21.1888 Y14.9458
G01 X23.1564 Y14.9458
G00 Z0.4000
G00 X23.1564 Y17.4858
G01 F120.00
G01 Z0.0000
G01 F800.00
G01 X23.1661 Y17.4867
G01 X23.1755 Y17.4896
G01 X23.1841 Y17.4942
G01 X23.1908 Y17.4996
G01 X23.1972 Y17.5070
G01 X23.2021 Y17.5155
G01 X23.2051 Y17.5248
G01 X23.2063 Y17.5345
G01 X23.2064 Y19.5034
G01 X23.2054 Y19.5131
G01 X23.2026 Y19.5225
G01 X23.1979 Y19.5311
G01 X23.1926 Y19.5378
G01 X23.1890 Y19.5412
G01 X23.1841 Y19.5449
G01 X23.1755 Y19.5496
G01 X23.1661 Y19.5524
G01 X23.1564 Y19.5534
G01 X21.1888 Y19.5534
G01 X21.1802 Y19.5526
G01 X21.1708 Y19.5500
G01 X21.1620 Y19.5456
G01 X21.1543 Y19.5396
G01 X21.1479 Y19.5322
G01 X21.1431 Y19.5236
G01 X21.1400 Y19.5143
G01 X21.1390 Y19.5083
G01 X21.1388 Y19.5034
G01 X21.1388 Y17.5358
G01 X21.1395 Y17.5272
G01 X21.1421 Y17.5178
G01 X21.1465 Y17.5090
G01 X21.1526 Y17.5013
G01 X21.1600 Y17.4949
G01 X21.1685 Y17.4901
G01 X21.1731 Y17.4883
G01 X21.1790 Y17.4867
G01 X21.1888 Y17.4858
G01 X23.1564 Y17.4858
G00 Z0.4000
G00 X21.1388 Y23.7746
G01 F120.00
G01 Z0.0000
G01 F800.00
G01 X21.1194 Y23.6972
G01 X21.1068 Y23.6123
G01 X21.1022 Y23.5203
G01 X21.1068 Y23.4309
G01 X21.1194 Y23.3459
G01 X21.1388 Y23.2685
G01 X21.1389 Y22.6121
G01 X21.1400 Y22.6048
G01 X21.1426 Y22.5966
G01 X21.1465 Y22.5890
G01 X21.1509 Y22.5831
G01 X21.1561 Y22.5779
G01 X21.1631 Y22.5729
G01 X21.1708 Y22.5691
G01 X21.1778 Y22.5670
G01 X21.1839 Y22.5660
G01 X21.1888 Y22.5658
G01 X23.1576 Y22.5658
G01 X23.1625 Y22.5661
G01 X23.1685 Y22.5673
G01 X23.1777 Y22.5706
G01 X23.1861 Y22.5756
G01 X23.1908 Y22.5796
G01 X23.1942 Y22.5831
G01 X23.1999 Y22.5911
G01 X23.2038 Y22.6001
G01 X23.2060 Y22.6096
G01 X23.2064 Y22.6211
G01 X24.6210 Y22.6211
G01 X24.7080 Y22.6254
G01 X24.7990 Y22.6390
G01 X24.8823 Y22.6599
G01 X24.9655 Y22.6897
G01 X25.0476 Y22.7287
G01 X25.1212 Y22.7729
G01 X25.1903 Y22.8240
G01 X25.2577 Y22.8849
G01 X40.5675 Y38.1947
G01 X40.6283 Y38.2621
G01 X40.6794 Y38.3311
G01 X40.7243 Y38.4058
G01 X40.7626 Y38.4868
G01 X40.7931 Y38.5723
G01 X40.8139 Y38.6557
G01 X40.8266 Y38.7407
G01 X40.8312 Y38.8314
G01 X40.8312 Y47.1378
G01 X40.8266 Y47.2285
G01 X40.8139 Y47.3134
G01 X40.7928 Y47.3980
G01 X40.7626 Y47.4823
G01 X40.7237 Y47.5644
G01 X40.6794 Y47.6380
G01 X40.6283 Y47.7071
G01 X40.5683 Y47.7736
G01 X37.1204 Y51.2215
G01 X37.1204 Y61.2368
G01 X42.0327 Y66.1491
G01 X43.0303 Y66.1491
G01 X43.0442 Y66.1411
G01 X43.1412 Y66.0953
G01 X43.2468 Y66.0577
G01 X43.3508 Y66.0317
G01 X43.4568 Y66.0159
G01 X43.5663 Y66.0103
G01 X45.7036 Y66.0102
G01 X45.8119 Y66.0156
G01 X45.9179 Y66.0313
G01 X46.0290 Y66.0591
G01 X46.1299 Y66.0953
G01 X46.2291 Y66.1422
G01 X46.3231 Y66.1985
G01 X46.4093 Y66.2623
G01 X46.4924 Y66.3375
G01 X46.5676 Y66.4207
G01 X46.6314 Y66.5068
G01 X46.6866 Y66.5987
G01 X46.7346 Y66.7000
G01 X46.7722 Y66.8056
G01 X46.7982 Y66.9096
G01 X46.8140 Y67.0156
G01 X46.8197 Y67.1276
G01 X46.8143 Y67.2371
G01 X46.7982 Y67.3455
G01 X46.7708 Y67.4542
G01 X46.7346 Y67.5551
G01 X46.6889 Y67.6521
G01 X46.6314 Y67.7483
G01 X46.5661 Y67.8364
G01 X46.4907 Y67.9193
G01 X46.4112 Y67.9913
G01 X46.3251 Y68.0552
G01 X46.2301 Y68.1124
G01 X46.1299 Y68.1598
G01 X46.0243 Y68.1974
G01 X45.9203 Y68.2234
G01 X45.8143 Y68.2392
G01 X45.7048 Y68.2448
G01 X43.5688 Y68.2449
G01 X43.4617 Y68.2397
G01 X43.3484 Y68.2229
G01 X43.2444 Y68.1968
G01 X43.1401 Y68.1594
G01 X43.0421 Y68.1130
G01 X42.9490 Y68.0573
G01 X42.8609 Y67.9920
G01 X42.8143 Y67.9500
G01 X41.6598 Y67.9500
G01 X41.5727 Y67.9458
G01 X41.4841 Y67.9327
G01 X41.3984 Y67.9112
G01 X41.3152 Y67.8814
G01 X41.2342 Y67.8431
G01 X41.1595 Y67.7982
G01 X41.0905 Y67.7471
G01 X41.0231 Y67.6863
G01 X35.5824 Y62.2456
G01 X35.5239 Y62.1810
G01 X35.4727 Y62.1120
G01 X35.4259 Y62.0342
G01 X35.3872 Y61.9521
G01 X35.3583 Y61.8711
G01 X35.3374 Y61.7878
G01 X35.3239 Y61.6980
G01 X35.3195 Y61.6098
G01 X35.3195 Y50.8486
G01 X35.3239 Y50.7603
G01 X35.3366 Y50.6741
G01 X35.3591 Y50.5849
G01 X35.3881 Y50.5040
G01 X35.4259 Y50.4241
G01 X35.4727 Y50.3463
G01 X35.5239 Y50.2773
G01 X35.5824 Y50.2127
G01 X39.0303 Y46.7648
G01 X39.0303 Y39.2043
G01 X24.2480 Y24.4220
G01 X23.2064 Y24.4220
G01 X23.2064 Y24.5834
G01 X23.2061 Y24.5883
G01 X23.2051 Y24.5943
G01 X23.2026 Y24.6025
G01 X23.1992 Y24.6091
G01 X23.1942 Y24.6160
G01 X23.1890 Y24.6212
G01 X23.1821 Y24.6262
G01 X23.1755 Y24.6296
G01 X23.1673 Y24.6321
G01 X23.1600 Y24.6332
G01 X21.1888 Y24.6334
G01 X21.1790 Y24.6324
G01 X21.1719 Y24.6304
G01 X21.1641 Y24.6269
G01 X21.1570 Y24.6220
G01 X21.1509 Y24.6160
G01 X21.1459 Y24.6091
G01 X21.1426 Y24.6025
G01 X21.1400 Y24.5943
G01 X21.1388 Y24.5858
G01 X21.1388 Y23.7746
G00 Z0.4000
G00 X23.2064 Y27.1234
G01 F120.00
G01 Z0.0000
G01 F800.00
G01 X23.2054 Y27.1331
G01 X23.2026 Y27.1425
G01 X23.1979 Y27.1511
G01 X23.1926 Y27.1578
G01 X23.1852 Y27.1642
G01 X23.1766 Y27.1691
G01 X23.1673 Y27.1721
G01 X23.1576 Y27.1733
G01 X21.1888 Y27.1734
G01 X21.1790 Y27.1724
G01 X21.1696 Y27.1696
G01 X21.1610 Y27.1649
G01 X21.1543 Y27.1596
G01 X21.1509 Y27.1560
G01 X21.1472 Y27.1511
G01 X21.1426 Y27.1425
G01 X21.1397 Y27.1331
G01 X21.1388 Y27.1234
G01 X21.1388 Y25.1558
G01 X21.1395 Y25.1472
G01 X21.1421 Y25.1378
G01 X21.1465 Y25.1290
G01 X21.1526 Y25.1213
G01 X21.1600 Y25.1149
G01 X21.1685 Y25.1101
G01 X21.1731 Y25.1083
G01 X21.1790 Y25.1067
G01 X21.1888 Y25.1058
G01 X23.1564 Y25.1058
G01 X23.1649 Y25.1065
G01 X23.1744 Y25.1091
G01 X23.1831 Y25.1135
G01 X23.1908 Y25.1196
G01 X23.1972 Y25.1270
G01 X23.2021 Y25.1355
G01 X23.2051 Y25.1448
G01 X23.2061 Y25.1509
G01 X23.2064 Y25.1558
G01 X23.2064 Y27.1234
G00 Z0.4000
G00 X23.4895 Y27.6933
G01 F120.00
G01 Z0.0000
G01 F800.00
G01 X23.4942 Y27.6030
G01 X23.4965 Y27.5871
G01 X23.4977 Y27.5742
G01 X23.5027 Y27.5466
G01 X23.5069 Y27.5190
G01 X23.5106 Y27.5036
G01 X23.5136 Y27.4882
G01 X23.5213 Y27.4613
G01 X23.5282 Y27.4341
G01 X23.5333 Y27.4195
G01 X23.5377 Y27.4044
G01 X23.5481 Y27.3783
G01 X23.5580 Y27.3508
G01 X23.6145 Y27.2145
G01 X23.6145 Y26.8968
G01 X23.6150 Y26.8864
G01 X23.6148 Y26.8708
G01 X23.6212 Y26.7873
G01 X23.6225 Y26.7766
G01 X23.6360 Y26.7013
G01 X23.6383 Y26.6909
G01 X23.6593 Y26.6162
G01 X23.6632 Y26.6047
G01 X23.6911 Y26.5332
G01 X23.6955 Y26.5236
G01 X23.7289 Y26.4576
G01 X23.7355 Y26.4460
G01 X23.7766 Y26.3814
G01 X23.7828 Y26.3727
G01 X23.8301 Y26.3122
G01 X23.8370 Y26.3044
G01 X23.8898 Y26.2488
G01 X23.8976 Y26.2415
G01 X23.9536 Y26.1930
G01 X23.9639 Y26.1848
G01 X24.0244 Y26.1419
G01 X24.0332 Y26.1362
G01 X24.1020 Y26.0969
G01 X24.1116 Y26.0921
G01 X24.1793 Y26.0616
G01 X24.1914 Y26.0568
G01 X24.2628 Y26.0327
G01 X24.2743 Y26.0295
G01 X24.3491 Y26.0121
G01 X24.3593 Y26.0104
G01 X24.4340 Y26.0004
G01 X24.4461 Y25.9995
G01 X24.5202 Y25.9969
G01 X24.5333 Y25.9971
G01 X24.6074 Y26.0017
G01 X24.6181 Y26.0028
G01 X24.6936 Y26.0150
G01 X24.7038 Y26.0170
G01 X24.7782 Y26.0364
G01 X24.7883 Y26.0395
G01 X24.8614 Y26.0665
G01 X24.8723 Y26.0712
G01 X24.9391 Y26.1034
G01 X24.9486 Y26.1085
G01 X25.0162 Y26.1498
G01 X25.0248 Y26.1557
G01 X25.0859 Y26.2017
G01 X25.0942 Y26.2086
G01 X25.1498 Y26.2595
G01 X26.4057 Y27.5154
G01 X26.4139 Y27.5229
G01 X27.0119 Y28.1209
G01 X27.0296 Y28.1399
G01 X27.0720 Y28.1873
G01 X27.0823 Y28.2012
G01 X27.0908 Y28.2118
G01 X27.0997 Y28.2246
G01 X27.1231 Y28.2563
G01 X27.1408 Y28.2846
G01 X27.1473 Y28.2964
G01 X27.1698 Y28.3342
G01 X27.1830 Y28.3610
G01 X27.1887 Y28.3740
G01 X27.2066 Y28.4119
G01 X27.2177 Y28.4413
G01 X27.2219 Y28.4544
G01 X27.2372 Y28.4974
G01 X27.2443 Y28.5242
G01 X27.2474 Y28.5382
G01 X27.2580 Y28.5807
G01 X27.2629 Y28.6096
G01 X27.2646 Y28.6238
G01 X27.2713 Y28.6693
G01 X27.2730 Y28.6962
G01 X27.2733 Y28.7103
G01 X27.2756 Y28.7563
G01 X27.2747 Y28.7835
G01 X27.2711 Y28.8470
G01 X27.2680 Y28.8707
G01 X27.2656 Y28.8840
G01 X27.2585 Y28.9320
G01 X27.2528 Y28.9566
G01 X27.2492 Y28.9699
G01 X27.2368 Y29.0189
G01 X27.2295 Y29.0405
G01 X27.2075 Y29.1010
G01 X27.1980 Y29.1221
G01 X27.1687 Y29.1831
G01 X27.1589 Y29.1999
G01 X27.1245 Y29.2568
G01 X27.1122 Y29.2739
G01 X27.0712 Y29.3288
G01 X27.0136 Y29.3925
G01 X26.9990 Y29.4062
G01 X26.9464 Y29.4536
G01 X26.8764 Y29.5055
G01 X26.8620 Y29.5145
G01 X26.7996 Y29.5517
G01 X26.7220 Y29.5885
G01 X26.6365 Y29.6192
G01 X26.5496 Y29.6409
G01 X26.4634 Y29.6537
G01 X26.3752 Y29.6580
G01 X26.3632 Y29.6575
G01 X24.3729 Y29.6574
G01 X24.2859 Y29.6515
G01 X24.2764 Y29.6500
G01 X24.2683 Y29.6493
G01 X24.2019 Y29.6377
G01 X24.1812 Y29.6330
G01 X24.1495 Y29.6240
G01 X24.1164 Y29.6151
G01 X24.1075 Y29.6119
G01 X24.0986 Y29.6092
G01 X24.0667 Y29.5966
G01 X24.0337 Y29.5842
G01 X24.0173 Y29.5770
G01 X23.9869 Y29.5614
G01 X23.9574 Y29.5470
G01 X23.9396 Y29.5370
G01 X23.9109 Y29.5186
G01 X23.8829 Y29.5014
G01 X23.8663 Y29.4899
G01 X23.8114 Y29.4473
G01 X23.7979 Y29.4358
G01 X23.7732 Y29.4122
G01 X23.7471 Y29.3880
G01 X23.7415 Y29.3817
G01 X23.7349 Y29.3752
G01 X23.7127 Y29.3494
G01 X23.6908 Y29.3247
G01 X23.6790 Y29.3100
G01 X23.6384 Y29.2533
G01 X23.6281 Y29.2374
G01 X23.6113 Y29.2078
G01 X23.5938 Y29.1783
G01 X23.5847 Y29.1604
G01 X23.5568 Y29.0992
G01 X23.5536 Y29.0906
G01 X23.5503 Y29.0829
G01 X23.5391 Y29.0493
G01 X23.5276 Y29.0169
G01 X23.5252 Y29.0077
G01 X23.5224 Y28.9988
G01 X23.5148 Y28.9656
G01 X23.5063 Y28.9311
G01 X23.5050 Y28.9228
G01 X23.5031 Y28.9137
G01 X23.4937 Y28.8447
G01 X23.4932 Y28.8366
G01 X23.4921 Y28.8271
G01 X23.4911 Y28.7929
G01 X23.4895 Y28.7588
G01 X23.4895 Y28.6079
G01 X23.4777 Y28.5827
G01 X23.4419 Y28.4826
G01 X23.4153 Y28.3771
G01 X23.3991 Y28.2682
G01 X23.3938 Y28.1608
G01 X23.3991 Y28.0509
G01 X23.4151 Y27.9432
G01 X23.4419 Y27.8365
G01 X23.4777 Y27.7364
G01 X23.4895 Y27.7112
G01 X23.4895 Y27.6933
G00 Z0.4000
G00 X23.0314 Y27.7708
G01 F120.00
G01 Z0.0000
G01 F800.00
G01 X23.0411 Y27.7717
G01 X23.0505 Y27.7746
G01 X23.0591 Y27.7792
G01 X23.0667 Y27.7854
G01 X23.0729 Y27.7930
G01 X23.0776 Y27.8016
G01 X23.0804 Y27.8110
G01 X23.0813 Y27.8195
G01 X23.0814 Y29.5384
G01 X23.0806 Y29.5469
G01 X23.0780 Y29.5564
G01 X23.0736 Y29.5651
G01 X23.0676 Y29.5728
G01 X23.0602 Y29.5792
G01 X23.0549 Y29.5825
G01 X23.0505 Y29.5846
G01 X23.0411 Y29.5874
G01 X23.0314 Y29.5884
G01 X21.3138 Y29.5884
G01 X21.3052 Y29.5876
G01 X21.2958 Y29.5850
G01 X21.2870 Y29.5806
G01 X21.2793 Y29.5746
G01 X21.2729 Y29.5672
G01 X21.2697 Y29.5619
G01 X21.2676 Y29.5575
G01 X21.2647 Y29.5481
G01 X21.2638 Y29.5384
G01 X21.2638 Y27.8208
G01 X21.2645 Y27.8122
G01 X21.2671 Y27.8028
G01 X21.2715 Y27.7940
G01 X21.2776 Y27.7863
G01 X21.2850 Y27.7799
G01 X21.2902 Y27.7767
G01 X21.2946 Y27.7746
G01 X21.3040 Y27.7717
G01 X21.3138 Y27.7708
G01 X23.0314 Y27.7708
G00 Z0.4000
G00 X23.1564 Y32.7258
G01 F120.00
G01 Z0.0000
G01 F800.00
G01 X23.1661 Y32.7267
G01 X23.1755 Y32.7296
G01 X23.1841 Y32.7342
G01 X23.1917 Y32.7404
G01 X23.1979 Y32.7480
G01 X23.2021 Y32.7555
G01 X23.2051 Y32.7648
G01 X23.2063 Y32.7745
G01 X23.2064 Y34.7434
G01 X23.2056 Y34.7519
G01 X23.2030 Y34.7614
G01 X23.1986 Y34.7701
G01 X23.1926 Y34.7778
G01 X23.1890 Y34.7812
G01 X23.1841 Y34.7849
G01 X23.1755 Y34.7896
G01 X23.1661 Y34.7924
G01 X23.1564 Y34.7934
G01 X21.1888 Y34.7934
G01 X21.1790 Y34.7924
G01 X21.1696 Y34.7896
G01 X21.1620 Y34.7856
G01 X21.1543 Y34.7796
G01 X21.1479 Y34.7722
G01 X21.1431 Y34.7636
G01 X21.1400 Y34.7543
G01 X21.1390 Y34.7483
G01 X21.1388 Y34.7434
G01 X21.1388 Y32.7758
G01 X21.1395 Y32.7672
G01 X21.1421 Y32.7578
G01 X21.1465 Y32.7490
G01 X21.1526 Y32.7413
G01 X21.1600 Y32.7349
G01 X21.1685 Y32.7301
G01 X21.1731 Y32.7283
G01 X21.1790 Y32.7267
G01 X21.1888 Y32.7258
G01 X23.1564 Y32.7258
G00 Z0.4000
G00 X24.8924 Y32.7817
G01 F120.00
G01 Z0.0000
G01 F800.00
G01 X27.8255 Y32.7817
G01 X27.9115 Y32.7866
G01 X27.9271 Y32.7888
G01 X27.9396 Y32.7901
G01 X27.9681 Y32.7953
G01 X27.9978 Y32.8000
G01 X28.0109 Y32.8032
G01 X28.0231 Y32.8055
G01 X28.0532 Y32.8140
G01 X28.0824 Y32.8216
G01 X28.0952 Y32.8261
G01 X28.1071 Y32.8295
G01 X28.1362 Y32.8410
G01 X28.1644 Y32.8513
G01 X28.1766 Y32.8569
G01 X28.1883 Y32.8616
G01 X28.2162 Y32.8759
G01 X28.2433 Y32.8888
G01 X28.2549 Y32.8957
G01 X28.2659 Y32.9013
G01 X28.2923 Y32.9182
G01 X28.3181 Y32.9338
G01 X28.3290 Y32.9418
G01 X28.3394 Y32.9485
G01 X28.3640 Y32.9679
G01 X28.3881 Y32.9858
G01 X28.3982 Y32.9948
G01 X28.4088 Y33.0033
G01 X28.4306 Y33.0241
G01 X28.4537 Y33.0452
G01 X28.6097 Y33.2012
G01 X28.6167 Y33.2090
G01 X28.6286 Y33.2208
G01 X28.6823 Y33.2833
G01 X28.6903 Y33.2937
G01 X28.7339 Y33.3565
G01 X28.7396 Y33.3656
G01 X28.7759 Y33.4305
G01 X28.7817 Y33.4422
G01 X28.8126 Y33.5125
G01 X28.8163 Y33.5224
G01 X28.8393 Y33.5929
G01 X28.8422 Y33.6031
G01 X28.8589 Y33.6779
G01 X28.8609 Y33.6885
G01 X28.8703 Y33.7645
G01 X28.8711 Y33.7748
G01 X28.8731 Y33.8517
G01 X28.8729 Y33.8622
G01 X28.8676 Y33.9387
G01 X28.8664 Y33.9494
G01 X28.8535 Y34.0249
G01 X28.8513 Y34.0355
G01 X28.8313 Y34.1092
G01 X28.8281 Y34.1193
G01 X28.8009 Y34.1911
G01 X28.7968 Y34.2008
G01 X28.7628 Y34.2696
G01 X28.7564 Y34.2811
G01 X28.7171 Y34.3441
G01 X28.7111 Y34.3530
G01 X28.6646 Y34.4137
G01 X28.6562 Y34.4237
G01 X28.6041 Y34.4796
G01 X28.5961 Y34.4872
G01 X28.5406 Y34.5362
G01 X28.5303 Y34.5444
G01 X28.4701 Y34.5879
G01 X28.4613 Y34.5938
G01 X28.3952 Y34.6325
G01 X28.3835 Y34.6386
G01 X28.3139 Y34.6706
G01 X28.3041 Y34.6744
G01 X28.2339 Y34.6989
G01 X28.2214 Y34.7026
G01 X28.1493 Y34.7201
G01 X28.1378 Y34.7223
G01 X28.0606 Y34.7332
G01 X28.0500 Y34.7341
G01 X27.9734 Y34.7375
G01 X25.1968 Y34.7375
G01 X25.1676 Y34.7590
G01 X25.0763 Y34.8136
G01 X24.9780 Y34.8603
G01 X24.8744 Y34.8974
G01 X24.7677 Y34.9241
G01 X24.6588 Y34.9400
G01 X24.5526 Y34.9452
G01 X24.4463 Y34.9400
G01 X24.3362 Y34.9239
G01 X24.2295 Y34.8970
G01 X24.1282 Y34.8608
G01 X24.0299 Y34.8142
G01 X23.9365 Y34.7583
G01 X23.8491 Y34.6935
G01 X23.7685 Y34.6204
G01 X23.6954 Y34.5398
G01 X23.6306 Y34.4524
G01 X23.5747 Y34.3590
G01 X23.5282 Y34.2607
G01 X23.4915 Y34.1582
G01 X23.4651 Y34.0527
G01 X23.4491 Y33.9450
G01 X23.4438 Y33.8364
G01 X23.4491 Y33.7277
G01 X23.4651 Y33.6200
G01 X23.4915 Y33.5145
G01 X23.5282 Y33.4120
G01 X23.5747 Y33.3137
G01 X23.6306 Y33.2203
G01 X23.6954 Y33.1329
G01 X23.7685 Y33.0523
G01 X23.8491 Y32.9792
G01 X23.9365 Y32.9144
G01 X24.0299 Y32.8585
G01 X24.1282 Y32.8120
G01 X24.2307 Y32.7753
G01 X24.3362 Y32.7489
G01 X24.4439 Y32.7329
G01 X24.5526 Y32.7276
G01 X24.6612 Y32.7329
G01 X24.7689 Y32.7489
G01 X24.8733 Y32.7750
G01 X24.8924 Y32.7817
G00 Z0.4000
G00 X23.1564 Y37.8058
G01 F120.00
G01 Z0.0000
G01 F800.00
G01 X23.1661 Y37.8067
G01 X23.1755 Y37.8096
G01 X23.1841 Y37.8142
G01 X23.1917 Y37.8204
G01 X23.1979 Y37.8280
G01 X23.2021 Y37.8355
G01 X23.2051 Y37.8448
G01 X23.2063 Y37.8545
G01 X23.2064 Y39.8234
G01 X23.2056 Y39.8319
G01 X23.2030 Y39.8414
G01 X23.1986 Y39.8501
G01 X23.1926 Y39.8578
G01 X23.1890 Y39.8612
G01 X23.1841 Y39.8649
G01 X23.1755 Y39.8696
G01 X23.1661 Y39.8724
G01 X23.1564 Y39.8734
G01 X21.1888 Y39.8734
G01 X21.1790 Y39.8724
G01 X21.1696 Y39.8696
G01 X21.1620 Y39.8656
G01 X21.1543 Y39.8596
G01 X21.1479 Y39.8522
G01 X21.1431 Y39.8436
G01 X21.1400 Y39.8343
G01 X21.1390 Y39.8283
G01 X21.1388 Y39.8234
G01 X21.1388 Y37.8558
G01 X21.1395 Y37.8472
G01 X21.1421 Y37.8378
G01 X21.1465 Y37.8290
G01 X21.1526 Y37.8213
G01 X21.1600 Y37.8149
G01 X21.1685 Y37.8101
G01 X21.1731 Y37.8083
G01 X21.1790 Y37.8067
G01 X21.1888 Y37.8058
G01 X23.1564 Y37.8058
G00 Z0.4000
G00 X23.1564 Y40.3458
G01 F120.00
G01 Z0.0000
G01 F800.00
G01 X23.1661 Y40.3467
G01 X23.1755 Y40.3496
G01 X23.1841 Y40.3542
G01 X23.1917 Y40.3604
G01 X23.1979 Y40.3680
G01 X23.2021 Y40.3755
G01 X23.2051 Y40.3848
G01 X23.2063 Y40.3945
G01 X23.2064 Y42.3634
G01 X23.2056 Y42.3719
G01 X23.2030 Y42.3814
G01 X23.1986 Y42.3901
G01 X23.1926 Y42.3978
G01 X23.1890 Y42.4012
G01 X23.1841 Y42.4049
G01 X23.1755 Y42.4096
G01 X23.1661 Y42.4124
G01 X23.1564 Y42.4134
G01 X21.1888 Y42.4134
G01 X21.1790 Y42.4124
G01 X21.1696 Y42.4096
G01 X21.1620 Y42.4056
G01 X21.1543 Y42.3996
G01 X21.1479 Y42.3922
G01 X21.1431 Y42.3836
G01 X21.1400 Y42.3743
G01 X21.1390 Y42.3683
G01 X21.1388 Y42.3634
G01 X21.1388 Y40.3958
G01 X21.1395 Y40.3872
G01 X21.1421 Y40.3778
G01 X21.1465 Y40.3690
G01 X21.1526 Y40.3613
G01 X21.1600 Y40.3549
G01 X21.1685 Y40.3501
G01 X21.1731 Y40.3483
G01 X21.1790 Y40.3467
G01 X21.1888 Y40.3458
G01 X23.1564 Y40.3458
G00 Z0.4000
G00 X23.1564 Y42.8858
G01 F120.00
G01 Z0.0000
G01 F800.00
G01 X23.1661 Y42.8867
G01 X23.1755 Y42.8896
G01 X23.1841 Y42.8942
G01 X23.1917 Y42.9004
G01 X23.1979 Y42.9080
G01 X23.2021 Y42.9155
G01 X23.2051 Y42.9248
G01 X23.2063 Y42.9345
G01 X23.2064 Y44.9034
G01 X23.2056 Y44.9119
G01 X23.2030 Y44.9214
G01 X23.1986 Y44.9301
G01 X23.1926 Y44.9378
G01 X23.1890 Y44.9412
G01 X23.1841 Y44.9449
G01 X23.1755 Y44.9496
G01 X23.1661 Y44.9524
G01 X23.1564 Y44.9534
G01 X21.1888 Y44.9534
G01 X21.1790 Y44.9524
G01 X21.1696 Y44.9496
G01 X21.1620 Y44.9456
G01 X21.1543 Y44.9396
G01 X21.1479 Y44.9322
G01 X21.1431 Y44.9236
G01 X21.1400 Y44.9143
G01 X21.1390 Y44.9083
G01 X21.1388 Y44.9034
G01 X21.1388 Y42.9358
G01 X21.1395 Y42.9272
G01 X21.1421 Y42.9178
G01 X21.1465 Y42.9090
G01 X21.1526 Y42.9013
G01 X21.1600 Y42.8949
G01 X21.1685 Y42.8901
G01 X21.1731 Y42.8883
G01 X21.1790 Y42.8867
G01 X21.1888 Y42.8858
G01 X23.1564 Y42.8858
G00 Z0.4000
G00 X23.1564 Y45.4258
G01 F120.00
G01 Z0.0000
G01 F800.00
G01 X23.1661 Y45.4267
G01 X23.1755 Y45.4296
G01 X23.1841 Y45.4342
G01 X23.1917 Y45.4404
G01 X23.1979 Y45.4480
G01 X23.2021 Y45.4555
G01 X23.2051 Y45.4648
G01 X23.2063 Y45.4745
G01 X23.2064 Y47.4434
G01 X23.2056 Y47.4519
G01 X23.2030 Y47.4614
G01 X23.1986 Y47.4701
G01 X23.1926 Y47.4778
G01 X23.1890 Y47.4812
G01 X23.1841 Y47.4849
G01 X23.1755 Y47.4896
G01 X23.1661 Y47.4924
G01 X23.1564 Y47.4934
G01 X21.1888 Y47.4934
G01 X21.1790 Y47.4924
G01 X21.1696 Y47.4896
G01 X21.1620 Y47.4856
G01 X21.1543 Y47.4796
G01 X21.1479 Y47.4722
G01 X21.1431 Y47.4636
G01 X21.1400 Y47.4543
G01 X21.1390 Y47.4483
G01 X21.1388 Y47.4434
G01 X21.1388 Y45.4758
G01 X21.1395 Y45.4672
G01 X21.1421 Y45.4578
G01 X21.1465 Y45.4490
G01 X21.1526 Y45.4413
G01 X21.1600 Y45.4349
G01 X21.1685 Y45.4301
G01 X21.1731 Y45.4283
G01 X21.1790 Y45.4267
G01 X21.1888 Y45.4258
G01 X23.1564 Y45.4258
G00 Z0.4000
G00 X23.2064 Y49.9834
G01 F120.00
G01 Z0.0000
G01 F800.00
G01 X23.2054 Y49.9931
G01 X23.2026 Y50.0025
G01 X23.1979 Y50.0111
G01 X23.1917 Y50.0187
G01 X23.1841 Y50.0249
G01 X23.1766 Y50.0291
G01 X23.1673 Y50.0321
G01 X23.1576 Y50.0333
G01 X21.1888 Y50.0334
G01 X21.1790 Y50.0324
G01 X21.1708 Y50.0300
G01 X21.1620 Y50.0256
G01 X21.1543 Y50.0196
G01 X21.1479 Y50.0122
G01 X21.1447 Y50.0069
G01 X21.1426 Y50.0025
G01 X21.1397 Y49.9931
G01 X21.1388 Y49.9834
G01 X21.1388 Y48.0158
G01 X21.1395 Y48.0072
G01 X21.1421 Y47.9978
G01 X21.1465 Y47.9890
G01 X21.1526 Y47.9813
G01 X21.1600 Y47.9749
G01 X21.1685 Y47.9701
G01 X21.1731 Y47.9683
G01 X21.1790 Y47.9667
G01 X21.1888 Y47.9658
G01 X23.1564 Y47.9658
G01 X23.1661 Y47.9667
G01 X23.1755 Y47.9696
G01 X23.1831 Y47.9735
G01 X23.1908 Y47.9796
G01 X23.1972 Y47.9870
G01 X23.2021 Y47.9955
G01 X23.2051 Y48.0048
G01 X23.2061 Y48.0109
G01 X23.2064 Y48.0158
G01 X23.2064 Y49.9834
G00 Z0.4000
G00 X46.0664 Y49.9834
G01 F120.00
G01 Z0.0000
G01 F800.00
G01 X46.0654 Y49.9931
G01 X46.0626 Y50.0025
G01 X46.0586 Y50.0101
G01 X46.0526 Y50.0178
G01 X46.0461 Y50.0235
G01 X46.0377 Y50.0286
G01 X46.0285 Y50.0319
G01 X46.0200 Y50.0332
G01 X45.2722 Y50.0334
G01 X42.0444 Y53.2611
G01 X42.0444 Y57.5990
G01 X42.9745 Y58.5291
G01 X43.0303 Y58.5291
G01 X43.0442 Y58.5211
G01 X43.1435 Y58.4744
G01 X43.2444 Y58.4383
G01 X43.3496 Y58.4120
G01 X43.4592 Y58.3956
G01 X43.5675 Y58.3902
G01 X45.7036 Y58.3902
G01 X45.8119 Y58.3956
G01 X45.9203 Y58.4117
G01 X46.0267 Y58.4383
G01 X46.1322 Y58.4763
G01 X46.2291 Y58.5222
G01 X46.3231 Y58.5785
G01 X46.4112 Y58.6439
G01 X46.4924 Y58.7175
G01 X46.5661 Y58.7987
G01 X46.6314 Y58.8868
G01 X46.6878 Y58.9809
G01 X46.7337 Y59.0777
G01 X46.7722 Y59.1856
G01 X46.7982 Y59.2896
G01 X46.8145 Y59.4005
G01 X46.8197 Y59.5076
G01 X46.8143 Y59.6171
G01 X46.7982 Y59.7255
G01 X46.7719 Y59.8307
G01 X46.7337 Y59.9374
G01 X46.6878 Y60.0343
G01 X46.6327 Y60.1262
G01 X46.5661 Y60.2164
G01 X46.4907 Y60.2993
G01 X46.4112 Y60.3713
G01 X46.3251 Y60.4352
G01 X46.2291 Y60.4930
G01 X46.1299 Y60.5398
G01 X46.0290 Y60.5760
G01 X45.9203 Y60.6034
G01 X45.8119 Y60.6195
G01 X45.7024 Y60.6249
G01 X43.5688 Y60.6249
G01 X43.4568 Y60.6192
G01 X43.3508 Y60.6034
G01 X43.2456 Y60.5771
G01 X43.1412 Y60.5398
G01 X43.0410 Y60.4924
G01 X42.9470 Y60.4359
G01 X42.8609 Y60.3720
G01 X42.8143 Y60.3300
G01 X42.6003 Y60.3300
G01 X42.5145 Y60.3258
G01 X42.4259 Y60.3127
G01 X42.3425 Y60.2919
G01 X42.2570 Y60.2614
G01 X42.1771 Y60.2237
G01 X42.1013 Y60.1782
G01 X42.0313 Y60.1264
G01 X41.9649 Y60.0663
G01 X40.5064 Y58.6078
G01 X40.4479 Y58.5432
G01 X40.3953 Y58.4722
G01 X40.3499 Y58.3964
G01 X40.3116 Y58.3154
G01 X40.2823 Y58.2333
G01 X40.2608 Y58.1476
G01 X40.2479 Y58.0602
G01 X40.2435 Y57.9720
G01 X40.2435 Y52.8882
G01 X40.2482 Y52.7975
G01 X40.2608 Y52.7125
G01 X40.2820 Y52.6280
G01 X40.3121 Y52.5436
G01 X40.3511 Y52.4616
G01 X40.3953 Y52.3879
G01 X40.4464 Y52.3189
G01 X40.5064 Y52.2523
G01 X43.9988 Y48.7600
G01 X43.9988 Y48.0133
G01 X43.9995 Y48.0072
G01 X44.0013 Y48.0001
G01 X44.0036 Y47.9944
G01 X44.0072 Y47.9880
G01 X44.0117 Y47.9822
G01 X44.0161 Y47.9779
G01 X44.0220 Y47.9735
G01 X44.0285 Y47.9701
G01 X44.0331 Y47.9683
G01 X44.0390 Y47.9667
G01 X44.0488 Y47.9658
G01 X46.0164 Y47.9658
G01 X46.0261 Y47.9667
G01 X46.0355 Y47.9696
G01 X46.0441 Y47.9742
G01 X46.0517 Y47.9804
G01 X46.0579 Y47.9880
G01 X46.0626 Y47.9966
G01 X46.0654 Y48.0060
G01 X46.0664 Y48.0158
G01 X46.0664 Y49.9834
G00 Z0.4000
G00 X46.0664 Y47.4434
G01 F120.00
G01 Z0.0000
G01 F800.00
G01 X46.0654 Y47.4531
G01 X46.0626 Y47.4625
G01 X46.0579 Y47.4711
G01 X46.0517 Y47.4787
G01 X46.0441 Y47.4849
G01 X46.0366 Y47.4891
G01 X46.0273 Y47.4921
G01 X46.0176 Y47.4933
G01 X44.0488 Y47.4934
G01 X44.0402 Y47.4926
G01 X44.0308 Y47.4900
G01 X44.0220 Y47.4856
G01 X44.0143 Y47.4796
G01 X44.0079 Y47.4722
G01 X44.0053 Y47.4680
G01 X44.0026 Y47.4625
G01 X43.9997 Y47.4531
G01 X43.9988 Y47.4434
G01 X43.9988 Y45.4758
G01 X43.9997 Y45.4660
G01 X44.0026 Y45.4566
G01 X44.0065 Y45.4490
G01 X44.0126 Y45.4413
G01 X44.0200 Y45.4349
G01 X44.0285 Y45.4301
G01 X44.0378 Y45.4270
G01 X44.0439 Y45.4260
G01 X44.0488 Y45.4258
G01 X46.0164 Y45.4258
G01 X46.0261 Y45.4267
G01 X46.0355 Y45.4296
G01 X46.0431 Y45.4335
G01 X46.0508 Y45.4396
G01 X46.0572 Y45.4470
G01 X46.0621 Y45.4555
G01 X46.0651 Y45.4648
G01 X46.0661 Y45.4709
G01 X46.0664 Y45.4758
G01 X46.0664 Y47.4434
G00 Z0.4000
G00 X46.0164 Y42.8858
G01 F120.00
G01 Z0.0000
G01 F800.00
G01 X46.0261 Y42.8867
G01 X46.0355 Y42.8896
G01 X46.0441 Y42.8942
G01 X46.0517 Y42.9004
G01 X46.0579 Y42.9080
G01 X46.0621 Y42.9155
G01 X46.0651 Y42.9248
G01 X46.0663 Y42.9345
G01 X46.0664 Y44.9034
G01 X46.0656 Y44.9119
G01 X46.0630 Y44.9214
G01 X46.0586 Y44.9301
G01 X46.0526 Y44.9378
G01 X46.0452 Y44.9442
G01 X46.0410 Y44.9469
G01 X46.0355 Y44.9496
G01 X46.0261 Y44.9524
G01 X46.0164 Y44.9534
G01 X44.0488 Y44.9534
G01 X44.0390 Y44.9524
G01 X44.0296 Y44.9496
G01 X44.0220 Y44.9456
G01 X44.0143 Y44.9396
G01 X44.0079 Y44.9322
G01 X44.0031 Y44.9236
G01 X44.0000 Y44.9143
G01 X43.9990 Y44.9083
G01 X43.9988 Y44.9034
G01 X43.9988 Y42.9358
G01 X43.9997 Y42.9260
G01 X44.0026 Y42.9166
G01 X44.0065 Y42.9090
G01 X44.0126 Y42.9013
G01 X44.0200 Y42.8949
G01 X44.0285 Y42.8901
G01 X44.0378 Y42.8870
G01 X44.0439 Y42.8860
G01 X44.0488 Y42.8858
G01 X46.0164 Y42.8858
G00 Z0.4000
G00 X46.0164 Y40.3458
G01 F120.00
G01 Z0.0000
G01 F800.00
G01 X46.0261 Y40.3467
G01 X46.0355 Y40.3496
G01 X46.0441 Y40.3542
G01 X46.0517 Y40.3604
G01 X46.0579 Y40.3680
G01 X46.0621 Y40.3755
G01 X46.0651 Y40.3848
G01 X46.0663 Y40.3945
G01 X46.0664 Y42.3634
G01 X46.0656 Y42.3719
G01 X46.0630 Y42.3814
G01 X46.0586 Y42.3901
G01 X46.0526 Y42.3978
G01 X46.0452 Y42.4042
G01 X46.0410 Y42.4069
G01 X46.0355 Y42.4096
G01 X46.0261 Y42.4124
G01 X46.0164 Y42.4134
G01 X44.0488 Y42.4134
G01 X44.0390 Y42.4124
G01 X44.0296 Y42.4096
G01 X44.0220 Y42.4056
G01 X44.0143 Y42.3996
G01 X44.0079 Y42.3922
G01 X44.0031 Y42.3836
G01 X44.0000 Y42.3743
G01 X43.9990 Y42.3683
G01 X43.9988 Y42.3634
G01 X43.9988 Y40.3958
G01 X43.9997 Y40.3860
G01 X44.0026 Y40.3766
G01 X44.0065 Y40.3690
G01 X44.0126 Y40.3613
G01 X44.0200 Y40.3549
G01 X44.0285 Y40.3501
G01 X44.0378 Y40.3470
G01 X44.0439 Y40.3460
G01 X44.0488 Y40.3458
G01 X46.0164 Y40.3458
G00 Z0.4000
G00 X46.0164 Y37.8058
G01 F120.00
G01 Z0.0000
G01 F800.00
G01 X46.0261 Y37.8067
G01 X46.0355 Y37.8096
G01 X46.0441 Y37.8142
G01 X46.0517 Y37.8204
G01 X46.0579 Y37.8280
G01 X46.0621 Y37.8355
G01 X46.0651 Y37.8448
G01 X46.0663 Y37.8545
G01 X46.0664 Y39.8234
G01 X46.0656 Y39.8319
G01 X46.0630 Y39.8414
G01 X46.0586 Y39.8501
G01 X46.0526 Y39.8578
G01 X46.0452 Y39.8642
G01 X46.0410 Y39.8669
G01 X46.0355 Y39.8696
G01 X46.0261 Y39.8724
G01 X46.0164 Y39.8734
G01 X44.0488 Y39.8734
G01 X44.0390 Y39.8724
G01 X44.0296 Y39.8696
G01 X44.0220 Y39.8656
G01 X44.0143 Y39.8596
G01 X44.0079 Y39.8522
G01 X44.0031 Y39.8436
G01 X44.0000 Y39.8343
G01 X43.9990 Y39.8283
G01 X43.9988 Y39.8234
G01 X43.9988 Y37.8558
G01 X43.9997 Y37.8460
G01 X44.0026 Y37.8366
G01 X44.0065 Y37.8290
G01 X44.0126 Y37.8213
G01 X44.0200 Y37.8149
G01 X44.0285 Y37.8101
G01 X44.0378 Y37.8070
G01 X44.0439 Y37.8060
G01 X44.0488 Y37.8058
G01 X46.0164 Y37.8058
G00 Z0.4000
G00 X46.0164 Y35.2658
G01 F120.00
G01 Z0.0000
G01 F800.00
G01 X46.0261 Y35.2667
G01 X46.0355 Y35.2696
G01 X46.0441 Y35.2742
G01 X46.0517 Y35.2804
G01 X46.0579 Y35.2880
G01 X46.0621 Y35.2955
G01 X46.0651 Y35.3048
G01 X46.0663 Y35.3145
G01 X46.0664 Y37.2834
G01 X46.0656 Y37.2919
G01 X46.0630 Y37.3014
G01 X46.0586 Y37.3101
G01 X46.0526 Y37.3178
G01 X46.0452 Y37.3242
G01 X46.0410 Y37.3269
G01 X46.0355 Y37.3296
G01 X46.0261 Y37.3324
G01 X46.0164 Y37.3334
G01 X44.0488 Y37.3334
G01 X44.0390 Y37.3324
G01 X44.0296 Y37.3296
G01 X44.0220 Y37.3256
G01 X44.0143 Y37.3196
G01 X44.0079 Y37.3122
G01 X44.0031 Y37.3036
G01 X44.0000 Y37.2943
G01 X43.9990 Y37.2883
G01 X43.9988 Y37.2834
G01 X43.9988 Y35.3158
G01 X43.9997 Y35.3060
G01 X44.0026 Y35.2966
G01 X44.0065 Y35.2890
G01 X44.0126 Y35.2813
G01 X44.0200 Y35.2749
G01 X44.0285 Y35.2701
G01 X44.0378 Y35.2670
G01 X44.0439 Y35.2660
G01 X44.0488 Y35.2658
G01 X46.0164 Y35.2658
G00 Z0.4000
G00 X46.0164 Y32.7258
G01 F120.00
G01 Z0.0000
G01 F800.00
G01 X46.0261 Y32.7267
G01 X46.0355 Y32.7296
G01 X46.0441 Y32.7342
G01 X46.0517 Y32.7404
G01 X46.0579 Y32.7480
G01 X46.0621 Y32.7555
G01 X46.0651 Y32.7648
G01 X46.0663 Y32.7745
G01 X46.0664 Y34.7434
G01 X46.0656 Y34.7519
G01 X46.0630 Y34.7614
G01 X46.0586 Y34.7701
G01 X46.0526 Y34.7778
G01 X46.0452 Y34.7842
G01 X46.0410 Y34.7869
G01 X46.0355 Y34.7896
G01 X46.0261 Y34.7924
G01 X46.0164 Y34.7934
G01 X44.0488 Y34.7934
G01 X44.0390 Y34.7924
G01 X44.0296 Y34.7896
G01 X44.0220 Y34.7856
G01 X44.0143 Y34.7796
G01 X44.0079 Y34.7722
G01 X44.0031 Y34.7636
G01 X44.0000 Y34.7543
G01 X43.9990 Y34.7483
G01 X43.9988 Y34.7434
G01 X43.9988 Y32.7758
G01 X43.9997 Y32.7660
G01 X44.0026 Y32.7566
G01 X44.0065 Y32.7490
G01 X44.0126 Y32.7413
G01 X44.0200 Y32.7349
G01 X44.0285 Y32.7301
G01 X44.0378 Y32.7270
G01 X44.0439 Y32.7260
G01 X44.0488 Y32.7258
G01 X46.0164 Y32.7258
G00 Z0.4000
G00 X46.0164 Y30.1858
G01 F120.00
G01 Z0.0000
G01 F800.00
G01 X46.0261 Y30.1867
G01 X46.0355 Y30.1896
G01 X46.0441 Y30.1942
G01 X46.0517 Y30.2004
G01 X46.0579 Y30.2080
G01 X46.0621 Y30.2155
G01 X46.0651 Y30.2248
G01 X46.0663 Y30.2345
G01 X46.0664 Y32.2034
G01 X46.0654 Y32.2131
G01 X46.0630 Y32.2214
G01 X46.0586 Y32.2301
G01 X46.0526 Y32.2378
G01 X46.0452 Y32.2442
G01 X46.0399 Y32.2475
G01 X46.0355 Y32.2496
G01 X46.0261 Y32.2524
G01 X46.0164 Y32.2534
G01 X44.0488 Y32.2534
G01 X44.0402 Y32.2526
G01 X44.0308 Y32.2500
G01 X44.0220 Y32.2456
G01 X44.0143 Y32.2396
G01 X44.0079 Y32.2322
G01 X44.0031 Y32.2236
G01 X44.0000 Y32.2143
G01 X43.9990 Y32.2083
G01 X43.9988 Y32.2034
G01 X43.9988 Y30.2358
G01 X43.9997 Y30.2260
G01 X44.0026 Y30.2166
G01 X44.0065 Y30.2090
G01 X44.0126 Y30.2013
G01 X44.0200 Y30.1949
G01 X44.0285 Y30.1901
G01 X44.0378 Y30.1870
G01 X44.0439 Y30.1860
G01 X44.0488 Y30.1858
G01 X46.0164 Y30.1858
G00 Z0.4000
G00 X46.0164 Y27.6458
G01 F120.00
G01 Z0.0000
G01 F800.00
G01 X46.0261 Y27.6467
G01 X46.0355 Y27.6496
G01 X46.0441 Y27.6542
G01 X46.0517 Y27.6604
G01 X46.0579 Y27.6680
G01 X46.0621 Y27.6755
G01 X46.0651 Y27.6848
G01 X46.0663 Y27.6945
G01 X46.0664 Y29.6634
G01 X46.0654 Y29.6731
G01 X46.0630 Y29.6814
G01 X46.0586 Y29.6901
G01 X46.0526 Y29.6978
G01 X46.0452 Y29.7042
G01 X46.0399 Y29.7075
G01 X46.0355 Y29.7096
G01 X46.0261 Y29.7124
G01 X46.0164 Y29.7134
G01 X44.0488 Y29.7134
G01 X44.0402 Y29.7126
G01 X44.0308 Y29.7100
G01 X44.0220 Y29.7056
G01 X44.0143 Y29.6996
G01 X44.0079 Y29.6922
G01 X44.0031 Y29.6836
G01 X44.0000 Y29.6743
G01 X43.9990 Y29.6683
G01 X43.9988 Y29.6634
G01 X43.9988 Y27.6958
G01 X43.9997 Y27.6860
G01 X44.0026 Y27.6766
G01 X44.0065 Y27.6690
G01 X44.0126 Y27.6613
G01 X44.0200 Y27.6549
G01 X44.0285 Y27.6501
G01 X44.0378 Y27.6470
G01 X44.0439 Y27.6460
G01 X44.0488 Y27.6458
G01 X46.0164 Y27.6458
G00 Z0.4000
G00 X46.0664 Y27.1234
G01 F120.00
G01 Z0.0000
G01 F800.00
G01 X46.0654 Y27.1331
G01 X46.0626 Y27.1425
G01 X46.0579 Y27.1511
G01 X46.0517 Y27.1587
G01 X46.0441 Y27.1649
G01 X46.0366 Y27.1691
G01 X46.0273 Y27.1721
G01 X46.0176 Y27.1733
G01 X44.0488 Y27.1734
G01 X44.0402 Y27.1726
G01 X44.0308 Y27.1700
G01 X44.0220 Y27.1656
G01 X44.0143 Y27.1596
G01 X44.0109 Y27.1560
G01 X44.0072 Y27.1511
G01 X44.0026 Y27.1425
G01 X43.9997 Y27.1331
G01 X43.9988 Y27.1234
G01 X43.9988 Y25.1558
G01 X43.9997 Y25.1460
G01 X44.0026 Y25.1366
G01 X44.0065 Y25.1290
G01 X44.0126 Y25.1213
G01 X44.0200 Y25.1149
G01 X44.0285 Y25.1101
G01 X44.0378 Y25.1070
G01 X44.0439 Y25.1060
G01 X44.0488 Y25.1058
G01 X46.0164 Y25.1058
G01 X46.0249 Y25.1065
G01 X46.0344 Y25.1091
G01 X46.0431 Y25.1135
G01 X46.0508 Y25.1196
G01 X46.0572 Y25.1270
G01 X46.0621 Y25.1355
G01 X46.0651 Y25.1448
G01 X46.0661 Y25.1509
G01 X46.0664 Y25.1558
G01 X46.0664 Y27.1234
G00 Z0.4000
G00 X46.0664 Y24.5834
G01 F120.00
G01 Z0.0000
G01 F800.00
G01 X46.0654 Y24.5931
G01 X46.0626 Y24.6025
G01 X46.0579 Y24.6111
G01 X46.0517 Y24.6187
G01 X46.0441 Y24.6249
G01 X46.0366 Y24.6291
G01 X46.0273 Y24.6321
G01 X46.0176 Y24.6333
G01 X44.0488 Y24.6334
G01 X44.0402 Y24.6326
G01 X44.0308 Y24.6300
G01 X44.0220 Y24.6256
G01 X44.0143 Y24.6196
G01 X44.0109 Y24.6160
G01 X44.0072 Y24.6111
G01 X44.0026 Y24.6025
G01 X43.9997 Y24.5931
G01 X43.9988 Y24.5834
G01 X43.9988 Y22.6158
G01 X43.9997 Y22.6060
G01 X44.0026 Y22.5966
G01 X44.0065 Y22.5890
G01 X44.0126 Y22.5813
G01 X44.0200 Y22.5749
G01 X44.0285 Y22.5701
G01 X44.0378 Y22.5670
G01 X44.0439 Y22.5660
G01 X44.0488 Y22.5658
G01 X46.0164 Y22.5658
G01 X46.0249 Y22.5665
G01 X46.0344 Y22.5691
G01 X46.0431 Y22.5735
G01 X46.0508 Y22.5796
G01 X46.0572 Y22.5870
G01 X46.0621 Y22.5955
G01 X46.0651 Y22.6048
G01 X46.0661 Y22.6109
G01 X46.0664 Y22.6158
G01 X46.0664 Y24.5834
G00 Z0.4000
G00 X46.0164 Y20.0258
G01 F120.00
G01 Z0.0000
G01 F800.00
G01 X46.0261 Y20.0267
G01 X46.0355 Y20.0296
G01 X46.0441 Y20.0342
G01 X46.0517 Y20.0404
G01 X46.0579 Y20.0480
G01 X46.0621 Y20.0555
G01 X46.0651 Y20.0648
G01 X46.0663 Y20.0745
G01 X46.0664 Y22.0434
G01 X46.0654 Y22.0531
G01 X46.0630 Y22.0614
G01 X46.0586 Y22.0701
G01 X46.0526 Y22.0778
G01 X46.0452 Y22.0842
G01 X46.0399 Y22.0875
G01 X46.0355 Y22.0896
G01 X46.0261 Y22.0924
G01 X46.0164 Y22.0934
G01 X44.0488 Y22.0934
G01 X44.0402 Y22.0926
G01 X44.0308 Y22.0900
G01 X44.0220 Y22.0856
G01 X44.0143 Y22.0796
G01 X44.0079 Y22.0722
G01 X44.0031 Y22.0636
G01 X44.0000 Y22.0543
G01 X43.9990 Y22.0483
G01 X43.9988 Y22.0434
G01 X43.9988 Y20.0758
G01 X43.9997 Y20.0660
G01 X44.0026 Y20.0566
G01 X44.0065 Y20.0490
G01 X44.0126 Y20.0413
G01 X44.0200 Y20.0349
G01 X44.0285 Y20.0301
G01 X44.0378 Y20.0270
G01 X44.0439 Y20.0260
G01 X44.0488 Y20.0258
G01 X46.0164 Y20.0258
G00 Z0.4000
G00 X46.0164 Y17.4858
G01 F120.00
G01 Z0.0000
G01 F800.00
G01 X46.0261 Y17.4867
G01 X46.0355 Y17.4896
G01 X46.0441 Y17.4942
G01 X46.0517 Y17.5004
G01 X46.0579 Y17.5080
G01 X46.0621 Y17.5155
G01 X46.0651 Y17.5248
G01 X46.0663 Y17.5345
G01 X46.0664 Y19.5034
G01 X46.0654 Y19.5131
G01 X46.0630 Y19.5214
G01 X46.0586 Y19.5301
G01 X46.0526 Y19.5378
G01 X46.0452 Y19.5442
G01 X46.0399 Y19.5475
G01 X46.0355 Y19.5496
G01 X46.0261 Y19.5524
G01 X46.0164 Y19.5534
G01 X44.0488 Y19.5534
G01 X44.0402 Y19.5526
G01 X44.0308 Y19.5500
G01 X44.0220 Y19.5456
G01 X44.0143 Y19.5396
G01 X44.0079 Y19.5322
G01 X44.0031 Y19.5236
G01 X44.0000 Y19.5143
G01 X43.9990 Y19.5083
G01 X43.9988 Y19.5034
G01 X43.9988 Y17.5358
G01 X43.9997 Y17.5260
G01 X44.0026 Y17.5166
G01 X44.0065 Y17.5090
G01 X44.0126 Y17.5013
G01 X44.0200 Y17.4949
G01 X44.0285 Y17.4901
G01 X44.0378 Y17.4870
G01 X44.0439 Y17.4860
G01 X44.0488 Y17.4858
G01 X46.0164 Y17.4858
G00 Z0.4000
G00 X44.8964 Y12.4058
G01 F120.00
G01 Z0.0000
G01 F800.00
G01 X44.9694 Y12.3797
G01 X45.0527 Y12.3588
G01 X45.1450 Y12.3451
G01 X45.2308 Y12.3409
G01 X46.2059 Y12.3409
G01 X47.5740 Y10.9729
G01 X47.6385 Y10.9143
G01 X47.7104 Y10.8609
G01 X47.7884 Y10.8144
G01 X47.8661 Y10.7777
G01 X47.9470 Y10.7487
G01 X48.0338 Y10.7267
G01 X48.1224 Y10.7135
G01 X48.2107 Y10.7091
G01 X51.9526 Y10.7091
G01 X52.0408 Y10.7135
G01 X52.1294 Y10.7267
G01 X52.2139 Y10.7479
G01 X52.2949 Y10.7768
G01 X52.3770 Y10.8155
G01 X52.4548 Y10.8623
G01 X52.5238 Y10.9135
G01 X52.5884 Y10.9720
G01 X56.5425 Y14.9261
G01 X56.6010 Y14.9906
G01 X56.6544 Y15.0625
G01 X56.6987 Y15.1362
G01 X56.7385 Y15.2205
G01 X56.7674 Y15.3014
G01 X56.7889 Y15.3871
G01 X56.8019 Y15.4745
G01 X56.8062 Y15.5615
G01 X56.8062 Y24.4484
G01 X56.9125 Y24.5570
G01 X56.9170 Y24.5629
G01 X56.9205 Y24.5693
G01 X56.9231 Y24.5762
G01 X56.9248 Y24.5846
G01 X56.9251 Y24.5907
G01 X56.9167 Y25.3915
G01 X56.9154 Y25.4012
G01 X56.9127 Y25.4094
G01 X56.9087 Y25.4169
G01 X56.9026 Y25.4246
G01 X56.3277 Y25.9874
G01 X56.3207 Y25.9923
G01 X56.3129 Y25.9960
G01 X56.3035 Y25.9985
G01 X56.2949 Y25.9992
G01 X55.4954 Y25.9908
G01 X55.4856 Y25.9898
G01 X55.4763 Y25.9868
G01 X55.4677 Y25.9821
G01 X55.4602 Y25.9758
G01 X54.9007 Y25.4045
G01 X54.8953 Y25.3979
G01 X54.8915 Y25.3915
G01 X54.8888 Y25.3847
G01 X54.8869 Y25.3764
G01 X54.8864 Y25.3690
G01 X54.8948 Y24.5695
G01 X54.8952 Y24.5633
G01 X54.8968 Y24.5561
G01 X54.8993 Y24.5492
G01 X54.9028 Y24.5428
G01 X54.9073 Y24.5369
G01 X55.0053 Y24.4407
G01 X55.0053 Y15.9357
G01 X51.5796 Y12.5100
G01 X48.5836 Y12.5100
G01 X47.2156 Y13.8781
G01 X47.1491 Y13.9382
G01 X47.0770 Y13.9914
G01 X47.0033 Y14.0355
G01 X46.9257 Y14.0723
G01 X46.8402 Y14.1030
G01 X46.7545 Y14.1245
G01 X46.6671 Y14.1375
G01 X46.5801 Y14.1418
G01 X46.0664 Y14.1418
G01 X46.0661 Y14.4283
G01 X46.0651 Y14.4343
G01 X46.0634 Y14.4402
G01 X46.0605 Y14.4469
G01 X46.0572 Y14.4522
G01 X46.0534 Y14.4569
G01 X46.0481 Y14.4620
G01 X46.0421 Y14.4662
G01 X46.0366 Y14.4691
G01 X46.0273 Y14.4721
G01 X46.0213 Y14.4731
G01 X46.0164 Y14.4734
G01 X44.0488 Y14.4734
G01 X44.0390 Y14.4724
G01 X44.0296 Y14.4696
G01 X44.0231 Y14.4662
G01 X44.0170 Y14.4620
G01 X44.0117 Y14.4569
G01 X44.0072 Y14.4511
G01 X44.0036 Y14.4447
G01 X44.0009 Y14.4379
G01 X43.9995 Y14.4319
G01 X43.9988 Y14.4246
G01 X43.9988 Y12.4558
G01 X43.9997 Y12.4460
G01 X44.0026 Y12.4366
G01 X44.0059 Y12.4301
G01 X44.0101 Y12.4240
G01 X44.0143 Y12.4196
G01 X44.0200 Y12.4149
G01 X44.0263 Y12.4111
G01 X44.0331 Y12.4083
G01 X44.0402 Y12.4065
G01 X44.0475 Y12.4058
G01 X44.8964 Y12.4058
G00 Z0.4000
G00 X46.0164 Y9.8658
G01 F120.00
G01 Z0.0000
G01 F800.00
G01 X46.0261 Y9.8667
G01 X46.0355 Y9.8696
G01 X46.0441 Y9.8742
G01 X46.0517 Y9.8804
G01 X46.0579 Y9.8880
G01 X46.0621 Y9.8955
G01 X46.0651 Y9.9048
G01 X46.0663 Y9.9145
G01 X46.0664 Y11.8834
G01 X46.0656 Y11.8919
G01 X46.0630 Y11.9014
G01 X46.0586 Y11.9101
G01 X46.0526 Y11.9178
G01 X46.0452 Y11.9242
G01 X46.0410 Y11.9269
G01 X46.0355 Y11.9296
G01 X46.0261 Y11.9324
G01 X46.0164 Y11.9334
G01 X44.0488 Y11.9334
G01 X44.0390 Y11.9324
G01 X44.0296 Y11.9296
G01 X44.0220 Y11.9256
G01 X44.0143 Y11.9196
G01 X44.0079 Y11.9122
G01 X44.0031 Y11.9036
G01 X44.0000 Y11.8943
G01 X43.9990 Y11.8883
G01 X43.9988 Y11.8834
G01 X43.9988 Y9.9158
G01 X43.9997 Y9.9060
G01 X44.0026 Y9.8966
G01 X44.0065 Y9.8890
G01 X44.0126 Y9.8813
G01 X44.0200 Y9.8749
G01 X44.0285 Y9.8701
G01 X44.0378 Y9.8670
G01 X44.0426 Y9.8661
G01 X44.0488 Y9.8658
G01 X46.0164 Y9.8658
G00 Z0.4000
G00 X46.0164 Y7.3258
G01 F120.00
G01 Z0.0000
G01 F800.00
G01 X46.0261 Y7.3267
G01 X46.0355 Y7.3296
G01 X46.0441 Y7.3342
G01 X46.0517 Y7.3404
G01 X46.0579 Y7.3480
G01 X46.0621 Y7.3555
G01 X46.0651 Y7.3648
G01 X46.0663 Y7.3745
G01 X46.0664 Y9.3434
G01 X46.0656 Y9.3519
G01 X46.0630 Y9.3614
G01 X46.0586 Y9.3701
G01 X46.0526 Y9.3778
G01 X46.0452 Y9.3842
G01 X46.0410 Y9.3869
G01 X46.0355 Y9.3896
G01 X46.0261 Y9.3924
G01 X46.0164 Y9.3934
G01 X44.0488 Y9.3934
G01 X44.0390 Y9.3924
G01 X44.0296 Y9.3896
G01 X44.0220 Y9.3856
G01 X44.0143 Y9.3796
G01 X44.0079 Y9.3722
G01 X44.0031 Y9.3636
G01 X44.0000 Y9.3543
G01 X43.9990 Y9.3483
G01 X43.9988 Y9.3434
G01 X43.9988 Y7.3758
G01 X43.9997 Y7.3660
G01 X44.0026 Y7.3566
G01 X44.0065 Y7.3490
G01 X44.0126 Y7.3413
G01 X44.0200 Y7.3349
G01 X44.0285 Y7.3301
G01 X44.0378 Y7.3270
G01 X44.0426 Y7.3261
G01 X44.0488 Y7.3258
G01 X46.0164 Y7.3258
G00 Z0.4000
G00 X46.0164 Y4.7858
G01 F120.00
G01 Z0.0000
G01 F800.00
G01 X46.0261 Y4.7867
G01 X46.0355 Y4.7896
G01 X46.0441 Y4.7942
G01 X46.0517 Y4.8004
G01 X46.0579 Y4.8080
G01 X46.0621 Y4.8155
G01 X46.0651 Y4.8248
G01 X46.0663 Y4.8345
G01 X46.0664 Y6.8034
G01 X46.0654 Y6.8131
G01 X46.0630 Y6.8214
G01 X46.0586 Y6.8301
G01 X46.0526 Y6.8378
G01 X46.0452 Y6.8442
G01 X46.0410 Y6.8469
G01 X46.0355 Y6.8496
G01 X46.0261 Y6.8524
G01 X46.0164 Y6.8534
G01 X44.0488 Y6.8534
G01 X44.0390 Y6.8524
G01 X44.0308 Y6.8500
G01 X44.0220 Y6.8456
G01 X44.0143 Y6.8396
G01 X44.0079 Y6.8322
G01 X44.0031 Y6.8236
G01 X44.0000 Y6.8143
G01 X43.9990 Y6.8083
G01 X43.9988 Y6.8034
G01 X43.9988 Y4.8358
G01 X43.9997 Y4.8260
G01 X44.0026 Y4.8166
G01 X44.0065 Y4.8090
G01 X44.0126 Y4.8013
G01 X44.0200 Y4.7949
G01 X44.0285 Y4.7901
G01 X44.0378 Y4.7870
G01 X44.0426 Y4.7861
G01 X44.0488 Y4.7858
G01 X46.0164 Y4.7858
G00 Z0.4000
G00 X46.0164 Y2.2458
G01 F120.00
G01 Z0.0000
G01 F800.00
G01 X46.0261 Y2.2467
G01 X46.0355 Y2.2496
G01 X46.0441 Y2.2542
G01 X46.0517 Y2.2604
G01 X46.0579 Y2.2680
G01 X46.0621 Y2.2755
G01 X46.0651 Y2.2848
G01 X46.0663 Y2.2945
G01 X46.0664 Y4.2634
G01 X46.0654 Y4.2731
G01 X46.0630 Y4.2814
G01 X46.0586 Y4.2901
G01 X46.0526 Y4.2978
G01 X46.0452 Y4.3042
G01 X46.0410 Y4.3069
G01 X46.0355 Y4.3096
G01 X46.0261 Y4.3124
G01 X46.0164 Y4.3134
G01 X44.0488 Y4.3134
G01 X44.0402 Y4.3126
G01 X44.0308 Y4.3100
G01 X44.0220 Y4.3056
G01 X44.0143 Y4.2996
G01 X44.0079 Y4.2922
G01 X44.0031 Y4.2836
G01 X44.0000 Y4.2743
G01 X43.9990 Y4.2683
G01 X43.9988 Y4.2634
G01 X43.9988 Y2.2958
G01 X43.9997 Y2.2860
G01 X44.0026 Y2.2766
G01 X44.0065 Y2.2690
G01 X44.0126 Y2.2613
G01 X44.0200 Y2.2549
G01 X44.0285 Y2.2501
G01 X44.0378 Y2.2470
G01 X44.0439 Y2.2460
G01 X44.0488 Y2.2458
G01 X46.0164 Y2.2458
G00 Z0.4000
G00 X54.3562 Y34.5173
G01 F120.00
G01 Z0.0000
G01 F800.00
G01 X54.3602 Y34.5109
G01 X54.3638 Y34.5039
G01 X54.3702 Y34.4933
G01 X54.4076 Y34.4171
G01 X54.4751 Y34.2544
G01 X54.9145 Y33.8150
G01 X55.1053 Y33.7360
G01 X55.1275 Y33.7256
G01 X55.1489 Y33.7166
G01 X55.1670 Y33.7070
G01 X55.1843 Y33.6987
G01 X55.2052 Y33.6863
G01 X55.2186 Y33.6791
G01 X55.2256 Y33.6775
G01 X55.2337 Y33.6749
G01 X55.2456 Y33.6720
G01 X55.3258 Y33.6445
G01 X55.4886 Y33.5772
G01 X56.1101 Y33.5772
G01 X56.3020 Y33.6567
G01 X56.3240 Y33.6646
G01 X56.3478 Y33.6741
G01 X56.3649 Y33.6793
G01 X56.3830 Y33.6857
G01 X56.4068 Y33.6918
G01 X56.4214 Y33.6961
G01 X56.4277 Y33.7001
G01 X56.4347 Y33.7037
G01 X56.4454 Y33.7101
G01 X56.5215 Y33.7475
G01 X56.6842 Y33.8150
G01 X57.1237 Y34.2544
G01 X57.2027 Y34.4452
G01 X57.2131 Y34.4675
G01 X57.2222 Y34.4889
G01 X57.2317 Y34.5068
G01 X57.2399 Y34.5242
G01 X57.2525 Y34.5452
G01 X57.2597 Y34.5585
G01 X57.2613 Y34.5658
G01 X57.2637 Y34.5735
G01 X57.2668 Y34.5855
G01 X57.2941 Y34.6657
G01 X57.3615 Y34.8286
G01 X57.3615 Y39.4366
G01 X57.3629 Y39.4678
G01 X57.3637 Y39.5003
G01 X57.3650 Y39.5114
G01 X57.3658 Y39.5250
G01 X57.3702 Y39.5547
G01 X57.3738 Y39.5857
G01 X57.3764 Y39.5979
G01 X57.3785 Y39.6113
G01 X57.3858 Y39.6405
G01 X57.3922 Y39.6698
G01 X57.3962 Y39.6828
G01 X57.3996 Y39.6960
G01 X57.4097 Y39.7244
G01 X57.4193 Y39.7542
G01 X57.4242 Y39.7655
G01 X57.4289 Y39.7783
G01 X57.4416 Y39.8055
G01 X57.4535 Y39.8330
G01 X57.4600 Y39.8452
G01 X57.4659 Y39.8574
G01 X57.4812 Y39.8832
G01 X57.4969 Y39.9113
G01 X57.5033 Y39.9208
G01 X57.5104 Y39.9324
G01 X57.5281 Y39.9566
G01 X57.5451 Y39.9813
G01 X57.5526 Y39.9903
G01 X57.5611 Y40.0018
G01 X57.6193 Y40.0672
G01 X58.3769 Y40.8247
G01 X58.6147 Y41.3988
G01 X58.6147 Y41.8033
G01 X58.6160 Y41.8325
G01 X58.6166 Y41.8617
G01 X58.6181 Y41.8760
G01 X58.6190 Y41.8916
G01 X58.6231 Y41.9193
G01 X58.6262 Y41.9471
G01 X58.6293 Y41.9625
G01 X58.6315 Y41.9768
G01 X58.6384 Y42.0052
G01 X58.6446 Y42.0337
G01 X58.6483 Y42.0451
G01 X58.6521 Y42.0604
G01 X58.6547 Y42.0679
G01 X58.6547 Y42.7003
G01 X58.5144 Y43.0390
G01 X58.5013 Y43.0745
G01 X58.4888 Y43.1008
G01 X58.4168 Y43.2744
G01 X57.9074 Y43.7838
G01 X57.7367 Y43.8546
G01 X57.7113 Y43.8665
G01 X57.6835 Y43.8787
G01 X57.6717 Y43.8852
G01 X57.6576 Y43.8921
G01 X57.6338 Y43.9063
G01 X57.6252 Y43.9110
G01 X57.6171 Y43.9128
G01 X57.6057 Y43.9165
G01 X57.5879 Y43.9210
