(G-CODE GENERATED BY FLATCAM v8.994 - www.flatcam.org - Version Date: 2020/11/7)

(Name: drill_1_16.xln_cnc)
(Type: G-code from Geometry)
(Units: MM)

(Created on Tuesday, 21 July 2026 at 13:07)

(This preprocessor is the default preprocessor used by FlatCAM.)
(It is made to work with MACH3 compatible motion controllers.)


(TOOLS DIAMETER: )
(Tool: 1 -> Dia: 4.0)
(Tool: 2 -> Dia: 1.016)
(Tool: 3 -> Dia: 1.0)
(Tool: 4 -> Dia: 0.85)
(Tool: 5 -> Dia: 0.813)
(Tool: 6 -> Dia: 0.6)

(FEEDRATE Z: )
(Tool: 1 -> Feedrate: 60.0)
(Tool: 2 -> Feedrate: 60.0)
(Tool: 3 -> Feedrate: 60.0)
(Tool: 4 -> Feedrate: 60.0)
(Tool: 5 -> Feedrate: 60.0)
(Tool: 6 -> Feedrate: 60.0)

(FEEDRATE RAPIDS: )
(Tool: 1 -> Feedrate Rapids: 1500)
(Tool: 2 -> Feedrate Rapids: 1500)
(Tool: 3 -> Feedrate Rapids: 1500)
(Tool: 4 -> Feedrate Rapids: 1500)
(Tool: 5 -> Feedrate Rapids: 1500)
(Tool: 6 -> Feedrate Rapids: 1500)

(Z_CUT: )
(Tool: 1 -> Z_Cut: -0.8)
(Tool: 2 -> Z_Cut: -0.8)
(Tool: 3 -> Z_Cut: -0.8)
(Tool: 4 -> Z_Cut: -0.8)
(Tool: 5 -> Z_Cut: -0.8)
(Tool: 6 -> Z_Cut: -0.8)

(Tools Offset: )
(Tool: 3 -> Offset Z: 0.0)
(Tool: 1 -> Offset Z: 0.0)
(Tool: 2 -> Offset Z: 0.0)
(Tool: 4 -> Offset Z: 0.0)
(Tool: 5 -> Offset Z: 0.0)
(Tool: 6 -> Offset Z: 0.0)

(Z_MOVE: )
(Tool: 1 -> Z_Move: 5.0)
(Tool: 2 -> Z_Move: 5.0)
(Tool: 3 -> Z_Move: 5.0)
(Tool: 4 -> Z_Move: 5.0)
(Tool: 5 -> Z_Move: 5.0)
(Tool: 6 -> Z_Move: 5.0)

(Z Toolchange: 15 mm)
(X,Y Toolchange: 0.0000, 0.0000 mm)
(Z Start: None mm)
(Z End: 0.5 mm)
(X,Y End: None mm)
(Steps per circle: 64)
(Preprocessor Excellon: default)

(X range:    0.6371 ...   62.5371  mm)
(Y range:    0.6441 ...   84.8941  mm)

(Spindle Speed: 0 RPM)
S8000
G21
G90
G94

G01 F60.00

M5
G00 Z15.0000
T1
G00 X0.0000 Y0.0000                
M6
(MSG, Change to Tool Dia = 4.0000 ||| Total drills for tool T1 = 59)
G00 Z15.0000

G01 F60.00
M03
G00 X60.5371 Y82.8941
G01 Z-0.8000
G01 Z0
G00 Z5.0000
G00 X60.5371 Y82.8941
G01 Z-0.8000
G01 Z0
G00 Z5.0000
G00 X56.2101 Y69.2241
G01 Z-0.8000
G01 Z0
G00 Z5.0000
G00 X56.2641 Y59.0641
G01 Z-0.8000
G01 Z0
G00 Z5.0000
G00 X57.1071 Y51.7441
G01 Z-0.8000
G01 Z0
G00 Z5.0000
G00 X54.5671 Y51.7441
G01 Z-0.8000
G01 Z0
G00 Z5.0000
G00 X54.4671 Y42.4441
G01 Z-0.8000
G01 Z0
G00 Z5.0000
G00 X57.0071 Y42.4441
G01 Z-0.8000
G01 Z0
G00 Z5.0000
G00 X55.7841 Y35.1241
G01 Z-0.8000
G01 Z0
G00 Z5.0000
G00 X55.8901 Y24.9641
G01 Z-0.8000
G01 Z0
G00 Z5.0000
G00 X45.0171 Y26.1241
G01 Z-0.8000
G01 Z0
G00 Z5.0000
G00 X45.0171 Y23.5841
G01 Z-0.8000
G01 Z0
G00 Z5.0000
G00 X45.0171 Y21.0441
G01 Z-0.8000
G01 Z0
G00 Z5.0000
G00 X45.0171 Y18.5041
G01 Z-0.8000
G01 Z0
G00 Z5.0000
G00 X45.0171 Y15.9641
G01 Z-0.8000
G01 Z0
G00 Z5.0000
G00 X45.0171 Y13.4241
G01 Z-0.8000
G01 Z0
G00 Z5.0000
G00 X45.0171 Y10.8841
G01 Z-0.8000
G01 Z0
G00 Z5.0000
G00 X45.0171 Y8.3441
G01 Z-0.8000
G01 Z0
G00 Z5.0000
G00 X45.0171 Y5.8041
G01 Z-0.8000
G01 Z0
G00 Z5.0000
G00 X45.0171 Y3.2641
G01 Z-0.8000
G01 Z0
G00 Z5.0000
G00 X60.5371 Y2.6441
G01 Z-0.8000
G01 Z0
G00 Z5.0000
G00 X45.0171 Y28.6641
G01 Z-0.8000
G01 Z0
G00 Z5.0000
G00 X45.0171 Y31.2041
G01 Z-0.8000
G01 Z0
G00 Z5.0000
G00 X45.0171 Y33.7441
G01 Z-0.8000
G01 Z0
G00 Z5.0000
G00 X45.0171 Y36.2841
G01 Z-0.8000
G01 Z0
G00 Z5.0000
G00 X45.0171 Y38.8241
G01 Z-0.8000
G01 Z0
G00 Z5.0000
G00 X45.0171 Y41.3641
G01 Z-0.8000
G01 Z0
G00 Z5.0000
G00 X45.0171 Y43.9041
G01 Z-0.8000
G01 Z0
G00 Z5.0000
G00 X45.0171 Y46.4441
G01 Z-0.8000
G01 Z0
G00 Z5.0000
G00 X45.0171 Y48.9841
G01 Z-0.8000
G01 Z0
G00 Z5.0000
G00 X44.6201 Y56.9521
G01 Z-0.8000
G01 Z0
G00 Z5.0000
G00 X44.6201 Y59.4921
G01 Z-0.8000
G01 Z0
G00 Z5.0000
G00 X44.6201 Y62.0321
G01 Z-0.8000
G01 Z0
G00 Z5.0000
G00 X44.6201 Y64.5721
G01 Z-0.8000
G01 Z0
G00 Z5.0000
G00 X44.6201 Y67.1121
G01 Z-0.8000
G01 Z0
G00 Z5.0000
G00 X44.6201 Y69.6521
G01 Z-0.8000
G01 Z0
G00 Z5.0000
G00 X44.6201 Y72.1921
G01 Z-0.8000
G01 Z0
G00 Z5.0000
G00 X22.1571 Y48.9841
G01 Z-0.8000
G01 Z0
G00 Z5.0000
G00 X22.1571 Y46.4441
G01 Z-0.8000
G01 Z0
G00 Z5.0000
G00 X22.1571 Y43.9041
G01 Z-0.8000
G01 Z0
G00 Z5.0000
G00 X22.1571 Y41.3641
G01 Z-0.8000
G01 Z0
G00 Z5.0000
G00 X22.1571 Y38.8241
G01 Z-0.8000
G01 Z0
G00 Z5.0000
G00 X22.1571 Y36.2841
G01 Z-0.8000
G01 Z0
G00 Z5.0000
G00 X22.1571 Y33.7441
G01 Z-0.8000
G01 Z0
G00 Z5.0000
G00 X24.5371 Y33.8211
G01 Z-0.8000
G01 Z0
G00 Z5.0000
G00 X22.1571 Y31.2041
G01 Z-0.8000
G01 Z0
G00 Z5.0000
G00 X22.1571 Y28.6641
G01 Z-0.8000
G01 Z0
G00 Z5.0000
G00 X24.4871 Y28.1441
G01 Z-0.8000
G01 Z0
G00 Z5.0000
G00 X22.1571 Y26.1241
G01 Z-0.8000
G01 Z0
G00 Z5.0000
G00 X22.1571 Y23.5841
G01 Z-0.8000
G01 Z0
G00 Z5.0000
G00 X22.1571 Y21.0441
G01 Z-0.8000
G01 Z0
G00 Z5.0000
G00 X22.1571 Y18.5041
G01 Z-0.8000
G01 Z0
G00 Z5.0000
G00 X22.1571 Y15.9641
G01 Z-0.8000
G01 Z0
G00 Z5.0000
G00 X22.1571 Y13.4241
G01 Z-0.8000
G01 Z0
G00 Z5.0000
G00 X22.1571 Y10.8841
G01 Z-0.8000
G01 Z0
G00 Z5.0000
G00 X22.1571 Y8.3441
G01 Z-0.8000
G01 Z0
G00 Z5.0000
G00 X22.1571 Y5.8041
G01 Z-0.8000
G01 Z0
G00 Z5.0000
G00 X22.1571 Y3.2641
G01 Z-0.8000
G01 Z0
G00 Z5.0000
G00 X2.6871 Y2.6441
G01 Z-0.8000
G01 Z0
G00 Z5.0000
G00 X2.6371 Y82.8941
G01 Z-0.8000
G01 Z0
G00 Z5.0000
M05
G00 Z0.50


