(G-CODE GENERATED BY FLATCAM v8.994 - www.flatcam.org - Version Date: 2020/11/7)

(Name: profile.gbr_cutout_cnc)
(Type: G-code from Geometry)
(Units: MM)

(Created on Tuesday, 21 July 2026 at 13:05)

(This preprocessor is the default preprocessor used by FlatCAM.)
(It is made to work with MACH3 compatible motion controllers.)

(TOOL DIAMETER: 0.031 mm)
(Feedrate_XY: 800.0 mm/min)
(Feedrate_Z: 120.0 mm/min)
(Feedrate rapids 1500.0 mm/min)

(Z_Cut: -1.8 mm)
(DepthPerCut: 0.6 mm <=>3 passes)
(Z_Move: 0.4 mm)
(Z Start: None mm)
(Z End: 15.0 mm)
(X,Y End: None mm)
(Steps per circle: 64)
(Preprocessor Geometry: default)

(X range:   -0.5155 ...   62.6996  mm)
(Y range:   -0.5155 ...   85.0366  mm)

(Spindle Speed: 0.0 RPM)
S8000
G21
G90
G94

G01 F800.00

M5
G00 Z15.0000
G00 X0.5155 Y0.5155
T1
M6    
(MSG, Change to Tool Dia = 0.0310)
G00 Z15.0000

M03
G01 F800.00
G00 X32.0921 Y0.0086
G01 F120.00
G01 Z-0.6000
G01 F800.00
G01 X0.6637 Y-0.0000
G01 X0.6260 Y0.0012
G01 X0.5756 Y0.0062
G01 X0.5633 Y0.0080
G01 X0.5137 Y0.0178
G01 X0.5016 Y0.0209
G01 X0.4532 Y0.0355
G01 X0.4414 Y0.0397
G01 X0.3947 Y0.0591
G01 X0.3834 Y0.0644
G01 X0.3388 Y0.0883
G01 X0.3281 Y0.0947
G01 X0.2860 Y0.1228
G01 X0.2760 Y0.1302
G01 X0.2369 Y0.1623
G01 X0.2277 Y0.1706
G01 X0.1919 Y0.2064
G01 X0.1835 Y0.2156
G01 X0.1514 Y0.2547
G01 X0.1440 Y0.2648
G01 X0.1158 Y0.3068
G01 X0.1094 Y0.3175
G01 X0.0856 Y0.3621
G01 X0.0802 Y0.3734
G01 X0.0609 Y0.4201
G01 X0.0567 Y0.4319
G01 X0.0420 Y0.4803
G01 X0.0389 Y0.4924
G01 X0.0290 Y0.5420
G01 X0.0272 Y0.5543
G01 X0.0222 Y0.6047
G01 X0.0210 Y0.6424
G01 X0.0104 Y43.2606
G00 X0.0104 Y43.2606
G01 F120.00
G01 Z-1.2000
G01 F800.00
G01 X0.0210 Y0.6424
G01 X0.0222 Y0.6047
G01 X0.0272 Y0.5543
G01 X0.0290 Y0.5420
G01 X0.0389 Y0.4924
G01 X0.0420 Y0.4803
G01 X0.0567 Y0.4319
G01 X0.0609 Y0.4201
G01 X0.0802 Y0.3734
G01 X0.0856 Y0.3621
G01 X0.1094 Y0.3175
G01 X0.1158 Y0.3068
G01 X0.1440 Y0.2648
G01 X0.1514 Y0.2547
G01 X0.1835 Y0.2156
G01 X0.1919 Y0.2064
G01 X0.2277 Y0.1706
G01 X0.2369 Y0.1623
G01 X0.2760 Y0.1302
G01 X0.2860 Y0.1228
G01 X0.3281 Y0.0947
G01 X0.3388 Y0.0883
G01 X0.3834 Y0.0644
G01 X0.3947 Y0.0591
G01 X0.4414 Y0.0397
G01 X0.4532 Y0.0355
G01 X0.5016 Y0.0209
G01 X0.5137 Y0.0178
G01 X0.5633 Y0.0080
G01 X0.5756 Y0.0062
G01 X0.6260 Y0.0012
G01 X0.6637 Y-0.0000
G01 X32.0921 Y0.0086
G00 X32.0921 Y0.0086
G01 F120.00
G01 Z-1.8000
G01 F800.00
G01 X0.6637 Y-0.0000
G01 X0.6260 Y0.0012
G01 X0.5756 Y0.0062
G01 X0.5633 Y0.0080
G01 X0.5137 Y0.0178
G01 X0.5016 Y0.0209
G01 X0.4532 Y0.0355
G01 X0.4414 Y0.0397
G01 X0.3947 Y0.0591
G01 X0.3834 Y0.0644
G01 X0.3388 Y0.0883
G01 X0.3281 Y0.0947
G01 X0.2860 Y0.1228
G01 X0.2760 Y0.1302
G01 X0.2369 Y0.1623
G01 X0.2277 Y0.1706
G01 X0.1919 Y0.2064
G01 X0.1835 Y0.2156
G01 X0.1514 Y0.2547
G01 X0.1440 Y0.2648
G01 X0.1158 Y0.3068
G01 X0.1094 Y0.3175
G01 X0.0856 Y0.3621
G01 X0.0802 Y0.3734
G01 X0.0609 Y0.4201
G01 X0.0567 Y0.4319
G01 X0.0420 Y0.4803
G01 X0.0389 Y0.4924
G01 X0.0290 Y0.5420
G01 X0.0272 Y0.5543
G01 X0.0222 Y0.6047
G01 X0.0210 Y0.6424
G01 X0.0104 Y43.2606
G00 Z0.4000
G00 X0.0104 Y43.2916
G01 F120.00
G01 Z-0.6000
G01 F800.00
G01 X-0.0000 Y84.9094
G01 X0.0012 Y84.9472
G01 X0.0062 Y84.9975
G01 X0.0080 Y85.0098
G01 X0.0179 Y85.0595
G01 X0.0209 Y85.0716
G01 X0.0356 Y85.1200
G01 X0.0398 Y85.1317
G01 X0.0591 Y85.1785
G01 X0.0644 Y85.1898
G01 X0.0883 Y85.2344
G01 X0.0947 Y85.2451
G01 X0.1228 Y85.2872
G01 X0.1302 Y85.2972
G01 X0.1623 Y85.3363
G01 X0.1707 Y85.3455
G01 X0.2065 Y85.3813
G01 X0.2157 Y85.3897
G01 X0.2548 Y85.4218
G01 X0.2648 Y85.4292
G01 X0.3069 Y85.4573
G01 X0.3176 Y85.4638
G01 X0.3622 Y85.4876
G01 X0.3735 Y85.4929
G01 X0.4202 Y85.5123
G01 X0.4320 Y85.5165
G01 X0.4804 Y85.5312
G01 X0.4925 Y85.5342
G01 X0.5421 Y85.5441
G01 X0.5545 Y85.5459
G01 X0.6048 Y85.5509
G01 X0.6426 Y85.5521
G01 X32.0921 Y85.5521
G00 X32.0921 Y85.5521
G01 F120.00
G01 Z-1.2000
G01 F800.00
G01 X0.6426 Y85.5521
G01 X0.6048 Y85.5509
G01 X0.5545 Y85.5459
G01 X0.5421 Y85.5441
G01 X0.4925 Y85.5342
G01 X0.4804 Y85.5312
G01 X0.4320 Y85.5165
G01 X0.4202 Y85.5123
G01 X0.3735 Y85.4929
G01 X0.3622 Y85.4876
G01 X0.3176 Y85.4638
G01 X0.3069 Y85.4573
G01 X0.2648 Y85.4292
G01 X0.2548 Y85.4218
G01 X0.2157 Y85.3897
G01 X0.2065 Y85.3813
G01 X0.1707 Y85.3455
G01 X0.1623 Y85.3363
G01 X0.1302 Y85.2972
G01 X0.1228 Y85.2872
G01 X0.0947 Y85.2451
G01 X0.0883 Y85.2344
G01 X0.0644 Y85.1898
G01 X0.0591 Y85.1785
G01 X0.0398 Y85.1317
G01 X0.0356 Y85.1200
G01 X0.0209 Y85.0716
G01 X0.0179 Y85.0595
G01 X0.0080 Y85.0098
G01 X0.0062 Y84.9975
G01 X0.0012 Y84.9472
G01 X-0.0000 Y84.9094
G01 X0.0104 Y43.2916
G00 X0.0104 Y43.2916
G01 F120.00
G01 Z-1.8000
G01 F800.00
G01 X-0.0000 Y84.9094
G01 X0.0012 Y84.9472
G01 X0.0062 Y84.9975
G01 X0.0080 Y85.0098
G01 X0.0179 Y85.0595
G01 X0.0209 Y85.0716
G01 X0.0356 Y85.1200
G01 X0.0398 Y85.1317
G01 X0.0591 Y85.1785
G01 X0.0644 Y85.1898
G01 X0.0883 Y85.2344
G01 X0.0947 Y85.2451
G01 X0.1228 Y85.2872
G01 X0.1302 Y85.2972
G01 X0.1623 Y85.3363
G01 X0.1707 Y85.3455
G01 X0.2065 Y85.3813
G01 X0.2157 Y85.3897
G01 X0.2548 Y85.4218
G01 X0.2648 Y85.4292
G01 X0.3069 Y85.4573
G01 X0.3176 Y85.4638
G01 X0.3622 Y85.4876
G01 X0.3735 Y85.4929
G01 X0.4202 Y85.5123
G01 X0.4320 Y85.5165
G01 X0.4804 Y85.5312
G01 X0.4925 Y85.5342
G01 X0.5421 Y85.5441
G01 X0.5545 Y85.5459
G01 X0.6048 Y85.5509
G01 X0.6426 Y85.5521
G01 X32.0921 Y85.5521
G00 Z0.4000
G00 X32.1231 Y85.5521
G01 F120.00
G01 Z-0.6000
G01 F800.00
G01 X62.5726 Y85.5521
G01 X62.6103 Y85.5509
G01 X62.6607 Y85.5459
G01 X62.6730 Y85.5441
G01 X62.7226 Y85.5342
G01 X62.7347 Y85.5312
G01 X62.7831 Y85.5165
G01 X62.7949 Y85.5123
G01 X62.8416 Y85.4930
G01 X62.8529 Y85.4876
G01 X62.8975 Y85.4638
G01 X62.9082 Y85.4574
G01 X62.9502 Y85.4293
G01 X62.9603 Y85.4218
G01 X62.9994 Y85.3897
G01 X63.0086 Y85.3814
G01 X63.0444 Y85.3456
G01 X63.0527 Y85.3364
G01 X63.0848 Y85.2973
G01 X63.0923 Y85.2872
G01 X63.1204 Y85.2452
G01 X63.1268 Y85.2345
G01 X63.1506 Y85.1899
G01 X63.1560 Y85.1786
G01 X63.1753 Y85.1319
G01 X63.1795 Y85.1201
G01 X63.1942 Y85.0717
G01 X63.1972 Y85.0596
G01 X63.2071 Y85.0100
G01 X63.2089 Y84.9977
G01 X63.2139 Y84.9473
G01 X63.2151 Y84.9096
G01 X63.2151 Y43.2916
G00 X63.2151 Y43.2916
G01 F120.00
G01 Z-1.2000
G01 F800.00
G01 X63.2151 Y84.9096
G01 X63.2139 Y84.9473
G01 X63.2089 Y84.9977
G01 X63.2071 Y85.0100
G01 X63.1972 Y85.0596
G01 X63.1942 Y85.0717
G01 X63.1795 Y85.1201
G01 X63.1753 Y85.1319
G01 X63.1560 Y85.1786
G01 X63.1506 Y85.1899
G01 X63.1268 Y85.2345
G01 X63.1204 Y85.2452
G01 X63.0923 Y85.2872
G01 X63.0848 Y85.2973
G01 X63.0527 Y85.3364
G01 X63.0444 Y85.3456
G01 X63.0086 Y85.3814
G01 X62.9994 Y85.3897
G01 X62.9603 Y85.4218
G01 X62.9502 Y85.4293
G01 X62.9082 Y85.4574
G01 X62.8975 Y85.4638
G01 X62.8529 Y85.4876
G01 X62.8416 Y85.4930
G01 X62.7949 Y85.5123
G01 X62.7831 Y85.5165
G01 X62.7347 Y85.5312
G01 X62.7226 Y85.5342
G01 X62.6730 Y85.5441
G01 X62.6607 Y85.5459
G01 X62.6103 Y85.5509
G01 X62.5726 Y85.5521
G01 X32.1231 Y85.5521
G00 X32.1231 Y85.5521
G01 F120.00
G01 Z-1.8000
G01 F800.00
G01 X62.5726 Y85.5521
G01 X62.6103 Y85.5509
G01 X62.6607 Y85.5459
G01 X62.6730 Y85.5441
G01 X62.7226 Y85.5342
G01 X62.7347 Y85.5312
G01 X62.7831 Y85.5165
G01 X62.7949 Y85.5123
G01 X62.8416 Y85.4930
G01 X62.8529 Y85.4876
G01 X62.8975 Y85.4638
G01 X62.9082 Y85.4574
G01 X62.9502 Y85.4293
G01 X62.9603 Y85.4218
G01 X62.9994 Y85.3897
G01 X63.0086 Y85.3814
G01 X63.0444 Y85.3456
G01 X63.0527 Y85.3364
G01 X63.0848 Y85.2973
G01 X63.0923 Y85.2872
G01 X63.1204 Y85.2452
G01 X63.1268 Y85.2345
G01 X63.1506 Y85.1899
G01 X63.1560 Y85.1786
G01 X63.1753 Y85.1319
G01 X63.1795 Y85.1201
G01 X63.1942 Y85.0717
G01 X63.1972 Y85.0596
G01 X63.2071 Y85.0100
G01 X63.2089 Y84.9977
G01 X63.2139 Y84.9473
G01 X63.2151 Y84.9096
G01 X63.2151 Y43.2916
G00 Z0.4000
G00 X63.2151 Y43.2606
G01 F120.00
G01 Z-0.6000
G01 F800.00
G01 X63.2151 Y0.6596
G01 X63.2139 Y0.6220
G01 X63.2120 Y0.5967
G01 X63.2071 Y0.5593
G01 X63.2028 Y0.5343
G01 X63.1972 Y0.5095
G01 X63.1875 Y0.4731
G01 X63.1795 Y0.4490
G01 X63.1663 Y0.4138
G01 X63.1507 Y0.3794
G01 X63.1393 Y0.3567
G01 X63.1205 Y0.3241
G01 X63.1069 Y0.3026
G01 X63.0923 Y0.2819
G01 X63.0693 Y0.2520
G01 X63.0445 Y0.2237
G01 X63.0270 Y0.2053
G01 X62.9995 Y0.1795
G01 X62.9803 Y0.1629
G01 X62.9603 Y0.1473
G01 X62.9296 Y0.1254
G01 X62.9082 Y0.1118
G01 X62.8755 Y0.0929
G01 X62.8418 Y0.0762
G01 X62.8185 Y0.0659
G01 X62.7833 Y0.0527
G01 X62.7592 Y0.0447
G01 X62.7347 Y0.0379
G01 X62.6980 Y0.0294
G01 X62.6608 Y0.0232
G01 X62.6356 Y0.0201
G01 X62.6103 Y0.0182
G01 X62.5727 Y0.0170
G01 X32.1231 Y0.0086
G00 X32.1231 Y0.0086
G01 F120.00
G01 Z-1.2000
G01 F800.00
G01 X62.5727 Y0.0170
G01 X62.6103 Y0.0182
G01 X62.6356 Y0.0201
G01 X62.6608 Y0.0232
G01 X62.6980 Y0.0294
G01 X62.7347 Y0.0379
G01 X62.7592 Y0.0447
G01 X62.7833 Y0.0527
G01 X62.8185 Y0.0659
G01 X62.8418 Y0.0762
G01 X62.8755 Y0.0929
G01 X62.9082 Y0.1118
G01 X62.9296 Y0.1254
G01 X62.9603 Y0.1473
G01 X62.9803 Y0.1629
G01 X62.9995 Y0.1795
G01 X63.0270 Y0.2053
G01 X63.0445 Y0.2237
G01 X63.0693 Y0.2520
G01 X63.0923 Y0.2819
G01 X63.1069 Y0.3026
G01 X63.1205 Y0.3241
G01 X63.1393 Y0.3567
G01 X63.1507 Y0.3794
G01 X63.1663 Y0.4138
G01 X63.1795 Y0.4490
G01 X63.1875 Y0.4731
G01 X63.1972 Y0.5095
G01 X63.2028 Y0.5343
G01 X63.2071 Y0.5593
G01 X63.2120 Y0.5967
G01 X63.2139 Y0.6220
G01 X63.2151 Y0.6596
G01 X63.2151 Y43.2606
G00 X63.2151 Y43.2606
G01 F120.00
G01 Z-1.8000
G01 F800.00
G01 X63.2151 Y0.6596
G01 X63.2139 Y0.6220
G01 X63.2120 Y0.5967
G01 X63.2071 Y0.5593
G01 X63.2028 Y0.5343
G01 X63.1972 Y0.5095
G01 X63.1875 Y0.4731
G01 X63.1795 Y0.4490
G01 X63.1663 Y0.4138
G01 X63.1507 Y0.3794
G01 X63.1393 Y0.3567
G01 X63.1205 Y0.3241
G01 X63.1069 Y0.3026
G01 X63.0923 Y0.2819
G01 X63.0693 Y0.2520
G01 X63.0445 Y0.2237
G01 X63.0270 Y0.2053
G01 X62.9995 Y0.1795
G01 X62.9803 Y0.1629
G01 X62.9603 Y0.1473
G01 X62.9296 Y0.1254
G01 X62.9082 Y0.1118
G01 X62.8755 Y0.0929
G01 X62.8418 Y0.0762
G01 X62.8185 Y0.0659
G01 X62.7833 Y0.0527
G01 X62.7592 Y0.0447
G01 X62.7347 Y0.0379
G01 X62.6980 Y0.0294
G01 X62.6608 Y0.0232
G01 X62.6356 Y0.0201
G01 X62.6103 Y0.0182
G01 X62.5727 Y0.0170
G01 X32.1231 Y0.0086
G00 Z0.4000
M05
G00 Z0.4000
G00 Z15.00


